;PYCAM-META-DATA: Filename: /mnt/mirror/home/jcoffland/projects/openscam/svn/trunk/examples/svg/openscam.svg
;PYCAM-META-DATA: Timestamp: 2012-01-07 13:28:09.556818
;PYCAM-META-DATA: Version: 0.5.1
;Estimated machine time: 0 minutes
G40 (disable tool radius compensation)
G49 (disable tool length compensation)
G80 (cancel modal motion)
G54 (select coordinate system 1)
G90 (disable incremental moves)
G20 (imperial)
G61 (exact path mode)
F5.00000
S100.00000
;PYCAM_TOOLPATH_SETTINGS: START
;[Bounds]
;maxz = 0.0
;maxx = 5.867988
;maxy = 0.851504
;minx = -0.528908
;miny = -0.072864
;minz = 0.0
;
;[Tool]
;torus_radius = 0.25
;speed = 1000.0
;shape = SphericalCutter
;tool_radius = 0.005
;feedrate = 200.0
;
;[Process]
;engrave_offset = 0.0
;step_down = 1.0
;generator = EngraveCutter
;postprocessor = SimpleCutter
;overlap_percent = 0
;milling_style = conventional
;material_allowance = 0.0
;pocketing_type = none
;path_direction = x
;
;PYCAM_TOOLPATH_SETTINGS: END
T1 M6
G0 Z0.1000
 X0.0000 Y0.4635
G1 Z-0.2
 X0.0208 Y0.5954
 X0.0836 Y0.6951
 X0.1830 Y0.7577
 X0.3145 Y0.7786
 X0.4482 Y0.7581
 X0.5480 Y0.6964
 X0.6101 Y0.5984
 X0.6309 Y0.4683
 X0.6218 Y0.3722
 X0.5946 Y0.2943
 X0.5503 Y0.2331
 X0.4900 Y0.1873
 X0.4137 Y0.1586
 X0.3214 Y0.1491
 X0.2284 Y0.1573
 X0.1521 Y0.1821
 X0.0908 Y0.2247
 X0.0421 Y0.2865
 X0.0105 Y0.3664
 X0.0000 Y0.4635
G0 Z0.1000
 X0.7575 Y0.0000
G1 Z-0.2
 Y0.6100
 X0.9407
 Y0.5794
 X0.9505 Y0.5865
 X0.9733 Y0.5990
 X1.0138 Y0.6143
 X1.0585 Y0.6194
 X1.1021 Y0.6150
 X1.1402 Y0.6020
 X1.1731 Y0.5802
 X1.2007 Y0.5497
 X1.2381 Y0.4725
 X1.2506 Y0.3802
 X1.2369 Y0.2820
 X1.1959 Y0.2092
 X1.1341 Y0.1643
 X1.0577 Y0.1493
 X0.9837 Y0.1632
 X0.9590 Y0.1731
 X0.9526 Y0.1747
 Y0.0000
 X0.7575
G0 Z0.1000
 X1.8660 Y0.3279
G1 Z-0.2
 X1.5472
 X1.5617 Y0.2982
 X1.5829 Y0.2822
 X1.6097 Y0.2769
 X1.6464 Y0.2865
 X1.6748 Y0.3160
 X1.8677 Y0.2980
 X1.8152 Y0.2234
 X1.7610 Y0.1788
 X1.6947 Y0.1567
 X1.6062 Y0.1493
 X1.5281 Y0.1556
 X1.4678 Y0.1747
 X1.4207 Y0.2075
 X1.3825 Y0.2550
 X1.3572 Y0.3147
 X1.3489 Y0.3837
 X1.3658 Y0.4788
 X1.4166 Y0.5540
 X1.4535 Y0.5826
 X1.4966 Y0.6030
 X1.5460 Y0.6153
 X1.6015 Y0.6194
 X1.6858 Y0.6120
 X1.7512 Y0.5901
 X1.8006 Y0.5541
 X1.8367 Y0.5050
 X1.8587 Y0.4417
 X1.8660 Y0.3628
 Y0.3279
G0 Z0.1000
 X1.9810 Y0.6100
G1 Z-0.2
 X2.1635
 Y0.5727
 X2.1772 Y0.5831
 X2.2069 Y0.5996
 X2.2483 Y0.6144
 X2.2978 Y0.6194
 X2.3636 Y0.6082
 X2.4137 Y0.5749
 X2.4454 Y0.5191
 X2.4560 Y0.4410
 Y0.1588
 X2.2618
 Y0.4054
 X2.2592 Y0.4329
 X2.2518 Y0.4494
 X2.2231 Y0.4605
 X2.1880 Y0.4438
 X2.1778 Y0.4185
 X2.1745 Y0.3761
 Y0.1588
 X1.9810
 Y0.6100
G0 Z0.1000
 X2.5714 Y0.3819
G1 Z-0.2
 X2.7734 Y0.3945
 X2.7821 Y0.3510
 X2.7945 Y0.3244
 X2.8221 Y0.3029
 X2.8600 Y0.2958
 X2.8878 Y0.2991
 X2.9073 Y0.3090
 X2.9228 Y0.3383
 X2.9084 Y0.3661
 X2.8794 Y0.3809
 X2.8249 Y0.3956
 X2.7205 Y0.4278
 X2.6504 Y0.4694
 X2.6082 Y0.5247
 X2.5942 Y0.5933
 X2.6012 Y0.6413
 X2.6226 Y0.6864
 X2.6579 Y0.7252
 X2.7068 Y0.7543
 X2.7720 Y0.7726
 X2.8561 Y0.7786
 X2.9588 Y0.7675
 X3.0352 Y0.7339
 X3.0636 Y0.7072
 X3.0859 Y0.6717
 X3.1022 Y0.6274
 X3.1122 Y0.5744
 X2.9115 Y0.5627
 X2.9014 Y0.6020
 X2.8867 Y0.6241
 X2.8662 Y0.6345
 X2.8383 Y0.6380
 X2.8030 Y0.6291
 X2.7925 Y0.6094
 X2.7999 Y0.5972
 X2.8175 Y0.5885
 X2.8520 Y0.5796
 X2.9545 Y0.5536
 X3.0245 Y0.5267
 X3.0712 Y0.4958
 X3.1037 Y0.4573
 X3.1228 Y0.4126
 X3.1291 Y0.3633
 X3.1207 Y0.3051
 X3.0957 Y0.2517
 X3.0560 Y0.2071
 X3.0035 Y0.1749
 X2.9373 Y0.1556
 X2.8572 Y0.1491
 X2.7859 Y0.1529
 X2.7263 Y0.1644
 X2.6783 Y0.1835
 X2.6419 Y0.2103
 X2.5936 Y0.2838
 X2.5714 Y0.3819
G0 Z0.1000
 X3.6477 Y0.4325
G1 Z-0.2
 X3.8363 Y0.3754
 X3.8120 Y0.3003
 X3.7799 Y0.2439
 X3.7392 Y0.2026
 X3.6900 Y0.1727
 X3.6294 Y0.1547
 X3.5552 Y0.1486
 X3.4660 Y0.1560
 X3.3940 Y0.1777
 X3.3349 Y0.2179
 X3.2846 Y0.2799
 X3.2502 Y0.3627
 X3.2388 Y0.4651
 X3.2590 Y0.5981
 X3.3198 Y0.6968
 X3.4170 Y0.7582
 X3.5470 Y0.7786
 X3.6494 Y0.7668
 X3.7280 Y0.7313
 X3.7875 Y0.6675
 X3.8326 Y0.5703
 X3.6420 Y0.5280
 X3.6313 Y0.5591
 X3.6227 Y0.5762
 X3.5921 Y0.6029
 X3.5513 Y0.6120
 X3.5057 Y0.6016
 X3.4723 Y0.5705
 X3.4562 Y0.5285
 X3.4509 Y0.4661
 X3.4569 Y0.3912
 X3.4754 Y0.3459
 X3.5051 Y0.3233
 X3.5450 Y0.3157
 X3.5833 Y0.3218
 X3.6108 Y0.3401
 X3.6311 Y0.3754
 X3.6477 Y0.4325
G0 Z0.1000
 X4.3185 Y0.2541
G1 Z-0.2
 X4.1405
 X4.1125 Y0.1588
 X3.8938
 X4.1227 Y0.7689
 X4.3406
 X4.5696 Y0.1588
 X4.3467
 X4.3185 Y0.2541
G0 Z0.1000
 X4.6570 Y0.7689
G1 Z-0.2
 X4.9209
 X4.9986 Y0.4012
 X5.0759 Y0.7689
 X5.3391
 Y0.1588
 X5.1601
 X5.1768 Y0.6152
 X5.0767 Y0.1588
 X4.9194
 X4.8196 Y0.6152
 X4.8363 Y0.1588
 X4.6570
 Y0.7689
G0 Z0.1000
 X4.2707 Y0.4121
G1 Z-0.2
 X4.2297 Y0.5456
 X4.1889 Y0.4121
 X4.2707
G0 Z0.1000
 X1.6681 Y0.4382
G1 Z-0.2
 X1.6499 Y0.4757
 X1.6082 Y0.4913
 X1.5812 Y0.4854
 X1.5604 Y0.4674
 X1.5472 Y0.4382
 X1.6681
G0 Z0.1000
 X0.9513 Y0.3832
G1 Z-0.2
 X0.9554 Y0.3461
 X0.9676 Y0.3212
 X1.0082 Y0.3025
 X1.0427 Y0.3201
 X1.0536 Y0.3456
 X1.0572 Y0.3867
 X1.0533 Y0.4249
 X1.0418 Y0.4499
 X1.0062 Y0.4683
 X0.9674 Y0.4497
 X0.9553 Y0.4237
 X0.9513 Y0.3832
G0 Z0.1000
 X0.2116 Y0.4627
G1 Z-0.2
 X0.2186 Y0.3936
 X0.2396 Y0.3485
 X0.2725 Y0.3239
 X0.3155 Y0.3157
 X0.3595 Y0.3238
 X0.3921 Y0.3479
 X0.4124 Y0.3946
 X0.4193 Y0.4705
 X0.4121 Y0.5350
 X0.3909 Y0.5781
 X0.3575 Y0.6024
 X0.3140 Y0.6105
 X0.2724 Y0.6022
 X0.2398 Y0.5775
 X0.2186 Y0.5324
 X0.2116 Y0.4627
G0 Z0.1000
G0 Z0.1000
M2 (end program)
