;PYCAM-META-DATA: Filename: /mnt/mirror/home/jcoffland/projects/camotics/git/master/examples/camotics/camotics.svg
;PYCAM-META-DATA: Timestamp: 2015-08-22 14:08:17.953794
;PYCAM-META-DATA: Version: 0.5.1
;Estimated machine time: 4 minutes
G40 (disable tool radius compensation)
G49 (disable tool length compensation)
G80 (cancel modal motion)
G54 (select coordinate system 1)
G90 (disable incremental moves)
G21 (metric)
G61 (exact path mode)
F200.00000
S1000.00000
;PYCAM_TOOLPATH_SETTINGS: START
;[Bounds]
;maxz = -5.0
;maxx = 129.61967
;maxy = 16.1253
;minx = -10.41997
;miny = -0.1023
;minz = -5.0
;
;[Tool]
;torus_radius = 0.25
;speed = 1000.0
;shape = CylindricalCutter
;tool_radius = 1.5
;feedrate = 200.0
;
;[Process]
;engrave_offset = 0.0
;step_down = 1.0
;generator = EngraveCutter
;postprocessor = SimpleCutter
;overlap_percent = 0
;milling_style = conventional
;material_allowance = 0.0
;pocketing_type = none
;path_direction = x
;
;PYCAM_TOOLPATH_SETTINGS: END
T1 M6
G0 Z0.1000
 X106.9687 Y3.9960
G1 Z-5.0000
 X111.8247 Y4.4520
 X111.9827 Y4.0430
 X112.1437 Y3.7160
 X112.3077 Y3.4750
 X112.4757 Y3.3180
 X112.6607 Y3.2160
 X112.8817 Y3.1440
 X113.1367 Y3.1010
 X113.4287 Y3.0860
 X113.7467 Y3.1020
 X114.0217 Y3.1510
 X114.2537 Y3.2320
 X114.4427 Y3.3450
 X114.5227 Y3.4160
 X114.5797 Y3.4910
 X114.6137 Y3.5730
 X114.6247 Y3.6590
 X114.6107 Y3.7470
 X114.5677 Y3.8260
 X114.4957 Y3.8980
 X114.3937 Y3.9620
 X114.3097 Y3.9980
 X114.1897 Y4.0370
 X114.0387 Y4.0800
 X113.8527 Y4.1260
 X113.6317 Y4.1750
 X113.3777 Y4.2270
 X113.0897 Y4.2830
 X112.7677 Y4.3430
 X112.2467 Y4.4360
 X111.7647 Y4.5270
 X111.3227 Y4.6190
 X110.9217 Y4.7090
 X110.5597 Y4.7980
 X110.2357 Y4.8860
 X109.9527 Y4.9730
 X109.7077 Y5.0590
 X109.2747 Y5.2650
 X108.8727 Y5.5330
 X108.5037 Y5.8650
 X108.1647 Y6.2610
 X108.0137 Y6.4790
 X107.8827 Y6.7040
 X107.7717 Y6.9360
 X107.6817 Y7.1770
 X107.6107 Y7.4250
 X107.5607 Y7.6820
 X107.5297 Y7.9450
 X107.5207 Y8.2180
 X107.5297 Y8.5110
 X107.5637 Y8.7940
 X107.6177 Y9.0680
 X107.6937 Y9.3300
 X107.7917 Y9.5820
 X107.9107 Y9.8230
 X108.0527 Y10.0540
 X108.2147 Y10.2730
 X108.3957 Y10.4830
 X108.5907 Y10.6770
 X108.8007 Y10.8580
 X109.0247 Y11.0250
 X109.2637 Y11.1760
 X109.5167 Y11.3140
 X109.7847 Y11.4390
 X110.0667 Y11.5470
 X110.3677 Y11.6430
 X110.6917 Y11.7260
 X111.0367 Y11.7960
 X111.4047 Y11.8520
 X111.7957 Y11.8980
 X112.2077 Y11.9300
 X112.6427 Y11.9480
 X113.0977 Y11.9550
 X113.5747 Y11.9500
 X114.0207 Y11.9360
 X114.4357 Y11.9110
 X114.8187 Y11.8760
 X115.1717 Y11.8330
 X115.4957 Y11.7790
 X115.7867 Y11.7150
 X116.0467 Y11.6410
 X116.5207 Y11.4610
 X116.9547 Y11.2360
 X117.3497 Y10.9650
 X117.7067 Y10.6480
 X117.8727 Y10.4640
 X118.0397 Y10.2500
 X118.2047 Y10.0040
 X118.3687 Y9.7290
 X118.5317 Y9.4250
 X118.6927 Y9.0890
 X118.8537 Y8.7230
 X119.0137 Y8.3290
 X114.2507 Y7.8590
 X114.1467 Y8.1750
 X114.0397 Y8.4230
 X113.9317 Y8.6020
 X113.8207 Y8.7140
 X113.6247 Y8.8220
 X113.4047 Y8.9000
 X113.1637 Y8.9470
 X112.8997 Y8.9620
 X112.6497 Y8.9540
 X112.4467 Y8.9270
 X112.2887 Y8.8840
 X112.1777 Y8.8250
 X112.0497 Y8.6840
 X112.0067 Y8.5430
 X112.0177 Y8.4840
 X112.0477 Y8.4320
 X112.0997 Y8.3830
 X112.1717 Y8.3390
 X112.2707 Y8.2970
 X112.3977 Y8.2540
 X112.5537 Y8.2140
 X112.7397 Y8.1720
 X112.9537 Y8.1320
 X113.1967 Y8.0910
 X113.4687 Y8.0520
 X113.7707 Y8.0140
 X114.2757 Y7.9520
 X114.7497 Y7.8840
 X115.1917 Y7.8090
 X115.6007 Y7.7290
 X115.9787 Y7.6400
 X116.3247 Y7.5460
 X116.6397 Y7.4440
 X116.9227 Y7.3360
 X117.1847 Y7.2180
 X117.4317 Y7.0860
 X117.6637 Y6.9410
 X117.8797 Y6.7840
 X118.0817 Y6.6140
 X118.2687 Y6.4300
 X118.4417 Y6.2330
 X118.5997 Y6.0230
 X118.8617 Y5.5800
 X119.0497 Y5.1160
 X119.1617 Y4.6300
 X119.1997 Y4.1220
 X119.1607 Y3.6050
 X119.0437 Y3.0950
 X118.8497 Y2.5930
 X118.5777 Y2.1000
 X118.4107 Y1.8620
 X118.2227 Y1.6370
 X118.0147 Y1.4260
 X117.7857 Y1.2290
 X117.5357 Y1.0430
 X117.2637 Y0.8720
 X116.9717 Y0.7120
 X116.6597 Y0.5680
 X116.3217 Y0.4370
 X115.9577 Y0.3230
 X115.5677 Y0.2270
 X115.1507 Y0.1500
 X114.7077 Y0.0890
 X114.2387 Y0.0460
 X113.7427 Y0.0190
 X113.2187 Y0.0090
 X112.4867 Y0.0250
 X111.8077 Y0.0660
 X111.1797 Y0.1390
 X110.6047 Y0.2370
 X110.0817 Y0.3650
 X109.6107 Y0.5220
 X109.1927 Y0.7070
 X108.8257 Y0.9210
 X108.5007 Y1.1680
 X108.2007 Y1.4550
 X107.9287 Y1.7800
 X107.6827 Y2.1460
 X107.4647 Y2.5500
 X107.2727 Y2.9930
 X107.1067 Y3.4750
 X106.9687 Y3.9960
G0 Z0.1000
 X100.2717 Y5.2910
G1 Z-5.0000
 X104.9787 Y4.7510
 X104.8567 Y4.3200
 X104.7247 Y3.9160
 X104.5817 Y3.5370
 X104.4287 Y3.1840
 X104.2667 Y2.8550
 X104.0927 Y2.5520
 X103.9097 Y2.2750
 X103.7157 Y2.0220
 X103.2957 Y1.5690
 X102.8187 Y1.1710
 X102.2887 Y0.8260
 X101.7047 Y0.5340
 X101.3897 Y0.4110
 X101.0567 Y0.3050
 X100.7037 Y0.2150
 X100.3317 Y0.1410
 X99.9397 Y0.0840
 X99.5297 Y0.0430
 X99.0997 Y0.0180
 X98.6507 Y0.0090
 X98.2217 Y0.0150
 X97.8097 Y0.0320
 X97.4147 Y0.0580
 X97.0367 Y0.0940
 X96.6777 Y0.1430
 X96.3347 Y0.2000
 X96.0097 Y0.2680
 X95.7027 Y0.3470
 X95.1257 Y0.5410
 X94.5887 Y0.7890
 X94.0897 Y1.0900
 X93.6287 Y1.4440
 X93.2147 Y1.8400
 X92.8467 Y2.2720
 X92.5247 Y2.7360
 X92.2507 Y3.2340
 X92.1347 Y3.5040
 X92.0317 Y3.7910
 X91.9457 Y4.1000
 X91.8747 Y4.4270
 X91.8207 Y4.7750
 X91.7817 Y5.1430
 X91.7577 Y5.5290
 X91.7497 Y5.9360
 X91.7597 Y6.3640
 X91.7887 Y6.7730
 X91.8357 Y7.1650
 X91.9027 Y7.5400
 X91.9887 Y7.8960
 X92.0937 Y8.2340
 X92.2177 Y8.5550
 X92.3617 Y8.8580
 X92.6027 Y9.2800
 X92.8817 Y9.6820
 X93.2027 Y10.0580
 X93.5637 Y10.4120
 X93.9497 Y10.7320
 X94.3427 Y11.0090
 X94.7427 Y11.2440
 X95.1507 Y11.4370
 X95.4777 Y11.5580
 X95.8257 Y11.6640
 X96.1957 Y11.7520
 X96.5857 Y11.8250
 X96.9977 Y11.8820
 X97.4297 Y11.9230
 X97.8847 Y11.9470
 X98.3597 Y11.9550
 X99.0217 Y11.9400
 X99.6437 Y11.8930
 X100.2287 Y11.8140
 X100.7747 Y11.7020
 X101.2797 Y11.5610
 X101.7467 Y11.3870
 X102.1757 Y11.1830
 X102.5647 Y10.9470
 X102.9227 Y10.6720
 X103.2597 Y10.3550
 X103.5717 Y9.9940
 X103.8607 Y9.5890
 X104.1277 Y9.1400
 X104.3687 Y8.6480
 X104.5897 Y8.1140
 X104.7857 Y7.5340
 X100.0957 Y6.9050
 X99.9687 Y7.3150
 X99.8277 Y7.6440
 X99.6707 Y7.8940
 X99.4997 Y8.0640
 X99.3007 Y8.1770
 X99.0647 Y8.2580
 X98.7917 Y8.3070
 X98.4797 Y8.3220
 X98.2797 Y8.3140
 X98.0907 Y8.2860
 X97.9107 Y8.2390
 X97.7397 Y8.1730
 X97.5787 Y8.0900
 X97.4277 Y7.9870
 X97.2847 Y7.8660
 X97.1507 Y7.7270
 X97.0327 Y7.5680
 X96.9287 Y7.3870
 X96.8427 Y7.1830
 X96.7707 Y6.9570
 X96.7147 Y6.7070
 X96.6757 Y6.4360
 X96.6527 Y6.1410
 X96.6437 Y5.8260
 X96.6527 Y5.5500
 X96.6757 Y5.2910
 X96.7147 Y5.0520
 X96.7687 Y4.8320
 X96.8397 Y4.6290
 X96.9257 Y4.4450
 X97.0287 Y4.2800
 X97.1467 Y4.1330
 X97.4137 Y3.8940
 X97.7147 Y3.7250
 X98.0497 Y3.6220
 X98.4187 Y3.5870
 X98.7327 Y3.6080
 X99.0207 Y3.6690
 X99.2787 Y3.7710
 X99.5107 Y3.9120
 X99.7217 Y4.1210
 X99.9177 Y4.4190
 X100.1007 Y4.8090
 X100.2717 Y5.2910
G0 Z0.1000
 X83.6277 Y15.7520
G1 Z-5.0000
 X88.5437
 Y12.1370
 X83.6277
 Y15.7520
G0 Z0.1000
 Y11.7180
G1 Z-5.0000
 X88.5437
 Y0.2580
 X83.6277
 Y11.7180
G0 Z0.1000
 X78.2487 Y16.0230
G1 Z-5.0000
 Y11.7180
 X80.4867
 Y7.9040
 X78.2487
 Y4.5580
 X78.2527 Y4.3040
 X78.2657 Y4.1050
 X78.2857 Y3.9620
 X78.3157 Y3.8750
 X78.3647 Y3.8190
 X78.4377 Y3.7790
 X78.5327 Y3.7550
 X78.6517 Y3.7470
 X78.7607 Y3.7540
 X78.8977 Y3.7720
 X79.0607 Y3.8040
 X79.2517 Y3.8470
 X79.4687 Y3.9020
 X79.7137 Y3.9700
 X79.9847 Y4.0510
 X80.2827 Y4.1440
 X80.6747 Y0.4340
 X80.2007 Y0.3370
 X79.7457 Y0.2520
 X79.3087 Y0.1800
 X78.8897 Y0.1210
 X78.4887 Y0.0750
 X78.1057 Y0.0410
 X77.7407 Y0.0220
 X77.3947 Y0.0160
 X76.9987 Y0.0230
 X76.6277 Y0.0440
 X76.2827 Y0.0800
 X75.9617 Y0.1290
 X75.6667 Y0.1930
 X75.3957 Y0.2710
 X75.1507 Y0.3620
 X74.9307 Y0.4680
 X74.5447 Y0.7200
 X74.2127 Y1.0300
 X73.9357 Y1.3970
 X73.7127 Y1.8180
 X73.6207 Y2.0590
 X73.5407 Y2.3300
 X73.4737 Y2.6320
 X73.4187 Y2.9640
 X73.3757 Y3.3250
 X73.3457 Y3.7160
 X73.3267 Y4.1390
 X73.3207 Y4.5910
 Y7.9040
 X71.8277
 Y11.7180
 X73.3207
 Y13.4980
 X78.2487 Y16.0230
G0 Z0.1000
 X56.4447 Y5.9580
G1 Z-5.0000
 X56.4717 Y6.5950
 X56.5547 Y7.2040
 X56.6917 Y7.7840
 X56.8847 Y8.3360
 X57.1327 Y8.8590
 X57.4367 Y9.3540
 X57.7947 Y9.8190
 X58.2087 Y10.2570
 X58.6687 Y10.6550
 X59.1677 Y11.0000
 X59.7027 Y11.2910
 X60.2757 Y11.5300
 X60.8847 Y11.7160
 X61.5317 Y11.8500
 X62.2157 Y11.9290
 X62.9377 Y11.9550
 X63.3537 Y11.9470
 X63.7567 Y11.9250
 X64.1477 Y11.8860
 X64.5247 Y11.8300
 X64.8907 Y11.7610
 X65.2427 Y11.6750
 X65.5827 Y11.5750
 X65.9097 Y11.4580
 X66.2237 Y11.3250
 X66.5257 Y11.1770
 X66.8147 Y11.0140
 X67.0907 Y10.8360
 X67.3547 Y10.6410
 X67.6057 Y10.4320
 X67.8437 Y10.2070
 X68.0697 Y9.9650
 X68.4017 Y9.5510
 X68.6887 Y9.1150
 X68.9327 Y8.6550
 X69.1317 Y8.1730
 X69.2867 Y7.6690
 X69.3977 Y7.1410
 X69.4637 Y6.5910
 X69.4857 Y6.0190
 X69.4587 Y5.3760
 X69.3767 Y4.7620
 X69.2397 Y4.1790
 X69.0477 Y3.6250
 X68.8017 Y3.1000
 X68.4997 Y2.6050
 X68.1437 Y2.1390
 X67.7337 Y1.7020
 X67.2757 Y1.3070
 X66.7777 Y0.9650
 X66.2397 Y0.6750
 X65.6617 Y0.4370
 X65.0427 Y0.2520
 X64.3837 Y0.1210
 X63.6837 Y0.0430
 X62.9427 Y0.0160
 X62.2807 Y0.0370
 X61.6507 Y0.1020
 X61.0517 Y0.2120
 X60.4857 Y0.3650
 X59.9507 Y0.5620
 X59.4487 Y0.8020
 X58.9777 Y1.0870
 X58.5387 Y1.4160
 X58.0477 Y1.8660
 X57.6217 Y2.3510
 X57.2617 Y2.8680
 X56.9677 Y3.4190
 X56.7387 Y4.0040
 X56.5747 Y4.6220
 X56.4767 Y5.2730
 X56.4447 Y5.9580
G0 Z0.1000
 X36.0218 Y15.7520
G1 Z-5.0000
 X42.7302
 X44.6980 Y8.1190
 X46.6547 Y15.7520
 X53.3467
 Y0.2580
 X48.7987
 X49.2237 Y11.8500
 X46.6877 Y0.2580
 X42.6805
 X40.1504 Y11.8500
 X40.5747 Y0.2580
 X36.0218
 Y15.7520
G0 Z0.1000
 X27.4229 Y2.6790
G1 Z-5.0000
 X22.9027
 X22.1919 Y0.2580
 X16.6356
 X22.4563 Y15.7520
 X27.9795
 X33.8004 Y0.2580
 X28.1394
 X27.4229 Y2.6790
G0 Z0.1000
 X10.3847 Y7.2090
G1 Z-5.0000
 X15.1747 Y5.7590
 X15.0401 Y5.2390
 X14.8929 Y4.7460
 X14.7327 Y4.2840
 X14.5599 Y3.8510
 X14.3745 Y3.4480
 X14.1762 Y3.0760
 X13.9654 Y2.7330
 X13.7418 Y2.4190
 X13.5043 Y2.1290
 X13.2530 Y1.8580
 X12.9879 Y1.6040
 X12.7088 Y1.3690
 X12.4159 Y1.1520
 X12.1093 Y0.9540
 X11.7886 Y0.7730
 X11.4540 Y0.6110
 X11.1026 Y0.4680
 X10.7295 Y0.3430
 X10.3348 Y0.2390
 X9.9184 Y0.1520
 X9.4804 Y0.0860
 X9.0208 Y0.0370
 X8.5395 Y0.0090
 X8.0366 Y0.0000
 X7.4299 Y0.0110
 X6.8504 Y0.0460
 X6.2977 Y0.1040
 X5.7722 Y0.1840
 X5.2737 Y0.2890
 X4.8023 Y0.4150
 X4.3580 Y0.5650
 X3.9409 Y0.7390
 X3.5452 Y0.9410
 X3.1634 Y1.1790
 X2.7954 Y1.4520
 X2.4412 Y1.7590
 X2.1008 Y2.1010
 X1.7743 Y2.4770
 X1.4616 Y2.8890
 X1.1627 Y3.3340
 X0.8901 Y3.8120
 X0.6537 Y4.3220
 X0.4540 Y4.8640
 X0.2904 Y5.4360
 X0.1633 Y6.0390
 X0.0726 Y6.6730
 X0.0181 Y7.3390
 X0.0000 Y8.0360
 X0.0080 Y8.5050
 X0.0320 Y8.9620
 X0.0722 Y9.4050
 X0.1284 Y9.8340
 X0.2006 Y10.2500
 X0.2890 Y10.6510
 X0.3933 Y11.0400
 X0.5137 Y11.4150
 X0.6502 Y11.7760
 X0.8029 Y12.1230
 X0.9715 Y12.4570
 X1.1562 Y12.7770
 X1.3570 Y13.0840
 X1.5738 Y13.3770
 X1.8069 Y13.6570
 X2.0561 Y13.9230
 X2.3193 Y14.1750
 X2.5955 Y14.4090
 X2.8848 Y14.6290
 X3.1870 Y14.8320
 X3.5023 Y15.0190
 X3.8305 Y15.1890
 X4.1718 Y15.3430
 X4.5261 Y15.4820
 X4.8931 Y15.6040
 X5.2733 Y15.7090
 X5.6665 Y15.7980
 X6.0726 Y15.8720
 X6.4918 Y15.9270
 X6.9238 Y15.9690
 X7.3690 Y15.9930
 X7.8270 Y16.0010
 X8.5329 Y15.9830
 X9.2012 Y15.9260
 X9.8320 Y15.8320
 X10.4254 Y15.7010
 X10.9812 Y15.5320
 X11.4997 Y15.3250
 X11.9806 Y15.0800
 X12.4241 Y14.8000
 X12.8368 Y14.4730
 X13.2266 Y14.0950
 X13.5933 Y13.6640
 X13.9370 Y13.1790
 X14.2577 Y12.6410
 X14.5552 Y12.0500
 X14.8298 Y11.4070
 X15.0812 Y10.7090
 X10.2468 Y9.6400
 X10.0995 Y10.0770
 X9.9677 Y10.4260
 X9.8516 Y10.6870
 X9.7508 Y10.8580
 X9.5820 Y11.0680
 X9.3963 Y11.2510
 X9.1934 Y11.4070
 X8.9736 Y11.5360
 X8.7369 Y11.6370
 X8.4854 Y11.7090
 X8.2190 Y11.7540
 X7.9375 Y11.7680
 X7.6190 Y11.7510
 X7.3198 Y11.7020
 X7.0401 Y11.6190
 X6.7797 Y11.5040
 X6.5386 Y11.3570
 X6.3168 Y11.1750
 X6.1141 Y10.9610
 X5.9309 Y10.7150
 X5.8030 Y10.4960
 X5.6922 Y10.2460
 X5.5984 Y9.9620
 X5.5216 Y9.6470
 X5.4619 Y9.3000
 X5.4193 Y8.9190
 X5.3937 Y8.5080
 X5.3851 Y8.0640
 X5.3948 Y7.5150
 X5.4240 Y7.0150
 X5.4725 Y6.5610
 X5.5405 Y6.1550
 X5.6280 Y5.7980
 X5.7351 Y5.4870
 X5.8619 Y5.2250
 X6.0081 Y5.0090
 X6.1731 Y4.8300
 X6.3543 Y4.6750
 X6.5513 Y4.5430
 X6.7645 Y4.4340
 X6.9937 Y4.3510
 X7.2388 Y4.2910
 X7.5001 Y4.2550
 X7.7773 Y4.2440
 X8.0458 Y4.2520
 X8.2972 Y4.2820
 X8.5316 Y4.3300
 X8.7490 Y4.3980
 X8.9491 Y4.4840
 X9.1325 Y4.5900
 X9.2986 Y4.7160
 X9.4477 Y4.8610
 X9.5862 Y5.0330
 X9.7187 Y5.2410
 X9.8449 Y5.4830
 X9.9652 Y5.7590
 X10.0794 Y6.0700
 X10.1873 Y6.4150
 X10.2891 Y6.7960
 X10.3847 Y7.2090
G0 Z0.1000
 X61.3717 Y5.9690
G1 Z-5.0000
 X61.3787 Y5.6640
 X61.4007 Y5.3800
 X61.4357 Y5.1190
 X61.4857 Y4.8820
 X61.5507 Y4.6660
 X61.6287 Y4.4730
 X61.7217 Y4.3020
 X61.8297 Y4.1550
 X62.0737 Y3.9190
 X62.3447 Y3.7500
 X62.6417 Y3.6480
 X62.9657 Y3.6150
 X63.2897 Y3.6480
 X63.5867 Y3.7480
 X63.8547 Y3.9160
 X64.0947 Y4.1500
 X64.2007 Y4.2960
 X64.2927 Y4.4660
 X64.3707 Y4.6610
 X64.4337 Y4.8820
 X64.4837 Y5.1260
 X64.5187 Y5.3960
 X64.5397 Y5.6890
 X64.5467 Y6.0080
 X64.5397 Y6.3020
 X64.5187 Y6.5760
 X64.4827 Y6.8290
 X64.4327 Y7.0590
 X64.3677 Y7.2690
 X64.2897 Y7.4580
 X64.1967 Y7.6250
 X64.0897 Y7.7720
 X63.8517 Y8.0080
 X63.5897 Y8.1760
 X63.3027 Y8.2770
 X62.9927 Y8.3120
 X62.6617 Y8.2770
 X62.3577 Y8.1730
 X62.0827 Y8.0010
 X61.8357 Y7.7610
 X61.7267 Y7.6140
 X61.6327 Y7.4440
 X61.5527 Y7.2520
 X61.4877 Y7.0400
 X61.4367 Y6.8040
 X61.4007 Y6.5480
 X61.3797 Y6.2690
 X61.3717 Y5.9690
G0 Z0.1000
 X26.2156 Y6.6910
G1 Z-5.0000
 X25.1681 Y10.0860
 X24.1322 Y6.6910
 X26.2156
G0 Z0.1000
G0 Z0.1000
M2 (end program)
