;PYCAM-META-DATA: Filename: /home/jcoffland/projects/openscam/svn/trunk/openscam/examples/cat/tiny_cat_outline.svg
;PYCAM-META-DATA: Timestamp: 2012-01-27 20:11:57.397792
;PYCAM-META-DATA: Version: 0.5.1
;Estimated machine time: 6 minutes
G40 (disable tool radius compensation)
G49 (disable tool length compensation)
G80 (cancel modal motion)
G54 (select coordinate system 1)
G90 (disable incremental moves)
G21 (metric)
G61 (exact path mode)
F200.00000
S1000.00000
;PYCAM_TOOLPATH_SETTINGS: START
;[Bounds]
;maxz = 0.0
;maxx = 98.13376
;maxy = 117.703711
;minx = 9.25794
;miny = -6.918321
;minz = 0.0
;
;[Tool]
;torus_radius = 0.25
;speed = 1000.0
;shape = CylindricalCutter
;tool_radius = 0.79375
;feedrate = 200.0
;
;[Process]
;engrave_offset = 0.0
;step_down = 1.0
;generator = EngraveCutter
;postprocessor = SimpleCutter
;overlap_percent = 0
;milling_style = conventional
;material_allowance = 0.0
;pocketing_type = none
;path_direction = x
;
;PYCAM_TOOLPATH_SETTINGS: END

#2=-1.5

T1 M6
G0 Z5
 X67.4440 Y72.1867
G1 Z#2
 X67.7774 Y72.1689
 X68.1183 Y72.1121
 X68.4639 Y72.0146
 X68.8111 Y71.8747
 X69.1572 Y71.6908
 X69.4990 Y71.4611
 X69.8339 Y71.1838
 X70.1588 Y70.8569
 X70.4185 Y70.5688
 X70.6436 Y70.3139
 X70.8342 Y70.0890
 X70.9900 Y69.8899
 X71.1111 Y69.7128
 X71.1975 Y69.5538
 X71.2494 Y69.4090
 X71.2667 Y69.2747
 X71.2492 Y69.1469
 X71.1972 Y69.0218
 X71.1106 Y68.8953
 X70.9893 Y68.7639
 X70.8335 Y68.6233
 X70.6431 Y68.4700
 X70.4182 Y68.2999
 X70.1588 Y68.1092
 X69.8097 Y67.8644
 X69.4765 Y67.6525
 X69.1581 Y67.4736
 X68.8532 Y67.3275
 X68.5608 Y67.2144
 X68.2801 Y67.1342
 X68.0100 Y67.0869
 X67.7494 Y67.0726
 X67.4975 Y67.0912
 X67.2529 Y67.1428
 X67.0149 Y67.2272
 X66.7825 Y67.3446
 X66.5543 Y67.4949
 X66.3299 Y67.6782
 X66.1076 Y67.8943
 X65.8869 Y68.1435
 X65.7304 Y68.3424
 X65.5919 Y68.5397
 X65.4713 Y68.7351
 X65.3675 Y68.9282
 X65.2803 Y69.1189
 X65.2093 Y69.3068
 X65.1539 Y69.4914
 X65.1137 Y69.6726
 X65.0882 Y69.8501
 X65.0768 Y70.0236
 X65.0792 Y70.1926
 X65.0949 Y70.3569
 X65.1232 Y70.5164
 X65.1638 Y70.6704
 X65.2162 Y70.8189
 X65.2800 Y70.9614
 X65.3544 Y71.0978
 X65.4394 Y71.2276
 X65.5342 Y71.3506
 X65.6382 Y71.4664
 X65.7512 Y71.5747
 X65.8728 Y71.6753
 X66.0021 Y71.7679
 X66.1389 Y71.8521
 X66.2828 Y71.9275
 X66.4331 Y71.9940
 X66.5893 Y72.0511
 X66.7511 Y72.0987
 X66.9181 Y72.1364
 X67.0894 Y72.1638
 X67.2649 Y72.1806
 X67.4440 Y72.1867
G0 Z5
 X52.6122 Y69.7750
G1 Z#2
 X52.8189
 X53.2640 Y69.7310
 X53.6979 Y69.6213
 X54.1167 Y69.4471
 X54.5169 Y69.2099
 X54.8947 Y68.9107
 X55.2465 Y68.5508
 X55.5687 Y68.1317
 X55.8574 Y67.6544
 X56.0006 Y67.3393
 X56.0985 Y67.0179
 X56.1531 Y66.6942
 X56.1664 Y66.3715
 X56.1406 Y66.0536
 X56.0774 Y65.7443
 X55.9789 Y65.4469
 X55.8471 Y65.1654
 X55.6839 Y64.9035
 X55.4914 Y64.6644
 X55.2717 Y64.4522
 X55.0264 Y64.2703
 X54.7579 Y64.1225
 X54.4679 Y64.0125
 X54.1585 Y63.9438
 X53.8318 Y63.9200
 X53.5382 Y63.8946
 X53.2764 Y63.8218
 X53.0469 Y63.7072
 X52.8507 Y63.5560
 X52.6885 Y63.3738
 X52.5610 Y63.1657
 X52.4692 Y62.9372
 X52.4138 Y62.6939
 X52.3956 Y62.4410
 X52.4154 Y62.1839
 X52.4740 Y61.9279
 X52.5722 Y61.6786
 X52.7108 Y61.4413
 X52.8906 Y61.2214
 X53.1124 Y61.0242
 X53.3771 Y60.8550
 X53.7465 Y60.6836
 X54.1046 Y60.5726
 X54.4556 Y60.5226
 X54.8040 Y60.5342
 X55.1539 Y60.6079
 X55.5099 Y60.7440
 X55.8761 Y60.9435
 X56.2571 Y61.2064
 X56.5654 Y61.4338
 X56.8557 Y61.6349
 X57.1276 Y61.8100
 X57.3810 Y61.9589
 X57.6154 Y62.0814
 X57.8308 Y62.1776
 X58.0269 Y62.2476
 X58.2035 Y62.2911
 X58.3601 Y62.3082
 X58.4968 Y62.2987
 X58.6131 Y62.2626
 X58.7087 Y62.2000
 X58.7836 Y62.1107
 X58.8374 Y61.9946
 X58.8699 Y61.8517
 X58.8807 Y61.6819
 X58.8672 Y61.6054
 X58.8276 Y61.5182
 X58.7633 Y61.4217
 X58.6756 Y61.3164
 X58.5657 Y61.2037
 X58.4350 Y61.0846
 X58.2849 Y60.9599
 X58.1167 Y60.8306
 X57.9315 Y60.6978
 X57.7311 Y60.5624
 X57.5164 Y60.4256
 X57.2890 Y60.2881
 X57.0500 Y60.1511
 X56.8010 Y60.0154
 X56.5429 Y59.8824
 X56.2775 Y59.7526
 X56.0067 Y59.6204
 X55.7335 Y59.4801
 X55.4597 Y59.3328
 X55.1871 Y59.1796
 X54.9176 Y59.0221
 X54.6532 Y58.8611
 X54.3954 Y58.6982
 X54.1464 Y58.5344
 X53.9079 Y58.3710
 X53.6817 Y58.2092
 X53.4697 Y58.0503
 X53.2739 Y57.8953
 X53.0958 Y57.7458
 X52.9378 Y57.6026
 X52.8011 Y57.4674
 X52.6881 Y57.3410
 X52.4740 Y57.0908
 X52.2728 Y56.8725
 X52.0824 Y56.6861
 X51.9008 Y56.5315
 X51.7263 Y56.4083
 X51.5569 Y56.3167
 X51.3908 Y56.2562
 X51.2263 Y56.2269
 X51.0611 Y56.2286
 X50.8936 Y56.2610
 X50.7218 Y56.3240
 X50.5440 Y56.4175
 X50.3581 Y56.5414
 X50.1624 Y56.6953
 X49.9547 Y56.8792
 X49.7336 Y57.0931
 X49.5467 Y57.2944
 X49.3724 Y57.5099
 X49.2143 Y57.7325
 X49.0765 Y57.9556
 X48.9628 Y58.1725
 X48.8767 Y58.3765
 X48.8222 Y58.5610
 X48.8033 Y58.7190
 X48.7951 Y58.7997
 X48.7715 Y58.8981
 X48.7333 Y59.0129
 X48.6810 Y59.1426
 X48.6154 Y59.2861
 X48.5376 Y59.4418
 X48.4482 Y59.6086
 X48.3479 Y59.7849
 X48.2376 Y59.9694
 X48.1182 Y60.1608
 X47.9904 Y60.3579
 X47.8549 Y60.5590
 X47.7126 Y60.7631
 X47.5643 Y60.9686
 X47.4108 Y61.1742
 X47.2528 Y61.3786
 X46.9575 Y61.7633
 X46.6937 Y62.1264
 X46.4617 Y62.4672
 X46.2614 Y62.7857
 X46.0932 Y63.0814
 X45.9569 Y63.3535
 X45.8529 Y63.6017
 X45.7811 Y63.8257
 X45.7418 Y64.0250
 X45.7351 Y64.1993
 X45.7610 Y64.3479
 X45.8197 Y64.4704
 X45.9113 Y64.5665
 X46.0358 Y64.6357
 X46.1936 Y64.6775
 X46.3847 Y64.6915
 X46.5307 Y64.6600
 X46.6828 Y64.5693
 X46.8362 Y64.4260
 X46.9871 Y64.2364
 X47.1304 Y64.0067
 X47.2622 Y63.7435
 X47.3781 Y63.4529
 X47.4733 Y63.1414
 X47.5644 Y62.8493
 X47.6769 Y62.5881
 X47.8099 Y62.3581
 X47.9624 Y62.1594
 X48.1336 Y61.9922
 X48.3229 Y61.8567
 X48.5294 Y61.7531
 X48.7524 Y61.6815
 X48.9908 Y61.6422
 X49.2440 Y61.6354
 X49.5111 Y61.6612
 X49.7915 Y61.7200
 X50.0843 Y61.8118
 X50.3886 Y61.9367
 X50.7036 Y62.0950
 X51.0286 Y62.2869
 X51.1779 Y62.3878
 X51.3043 Y62.4876
 X51.4072 Y62.5879
 X51.4865 Y62.6900
 X51.5417 Y62.7954
 X51.5725 Y62.9056
 X51.5786 Y63.0219
 X51.5596 Y63.1458
 X51.5153 Y63.2787
 X51.4450 Y63.4221
 X51.3488 Y63.5772
 X51.2261 Y63.7458
 X51.0765 Y63.9290
 X50.8999 Y64.1285
 X50.6957 Y64.3454
 X50.4637 Y64.5814
 X50.1539 Y64.9154
 X49.8919 Y65.2493
 X49.6776 Y65.5821
 X49.5108 Y65.9126
 X49.3915 Y66.2403
 X49.3194 Y66.5637
 X49.2944 Y66.8822
 X49.3165 Y67.1947
 X49.3854 Y67.5003
 X49.5010 Y67.7978
 X49.6631 Y68.0864
 X49.8715 Y68.3651
 X50.1263 Y68.6329
 X50.4271 Y68.8890
 X50.7739 Y69.1322
 X51.1665 Y69.3615
 X51.5274 Y69.5321
 X51.8897 Y69.6574
 X52.2519 Y69.7381
 X52.6122 Y69.7750
G0 Z5
 X42.1418 Y79.0340
G1 Z#2
 X42.5947 Y79.0132
 X43.0250 Y78.9524
 X43.4306 Y78.8539
 X43.8090 Y78.7201
 X44.1585 Y78.5539
 X44.4767 Y78.3572
 X44.7614 Y78.1328
 X45.0104 Y77.8829
 X45.2218 Y77.6103
 X45.3933 Y77.3171
 X45.5226 Y77.0060
 X45.6078 Y76.6792
 X45.6465 Y76.3393
 X45.6367 Y75.9887
 X45.5763 Y75.6299
 X45.4628 Y75.2653
 X45.3192 Y74.9881
 X45.1196 Y74.7458
 X44.8706 Y74.5385
 X44.5793 Y74.3664
 X44.2526 Y74.2299
 X43.8975 Y74.1288
 X43.5207 Y74.0636
 X43.1294 Y74.0344
 X42.7303 Y74.0414
 X42.3304 Y74.0849
 X41.9368 Y74.1649
 X41.5560 Y74.2817
 X41.1953 Y74.4354
 X40.8614 Y74.6264
 X40.5614 Y74.8547
 X40.3021 Y75.1207
 X40.0332 Y75.4807
 X39.8224 Y75.8396
 X39.6679 Y76.1940
 X39.5683 Y76.5414
 X39.5224 Y76.8782
 X39.5286 Y77.2018
 X39.5856 Y77.5089
 X39.6917 Y77.7967
 X39.8456 Y78.0618
 X40.0460 Y78.3015
 X40.2912 Y78.5128
 X40.5801 Y78.6924
 X40.9110 Y78.8372
 X41.2825 Y78.9446
 X41.6932 Y79.0111
 X42.1418 Y79.0340
G0 Z5
 X48.1486 Y56.1836
G1 Z#2
 X48.2847 Y56.1708
 X48.4808 Y56.1219
 X48.7382 Y56.0382
 X49.0581 Y55.9218
 X49.3669 Y55.8153
 X49.7007 Y55.7158
 X50.0485 Y55.6260
 X50.3999 Y55.5476
 X50.7442 Y55.4831
 X51.0707 Y55.4343
 X51.3690 Y55.4035
 X51.6283 Y55.3926
 X51.8483 Y55.3767
 X52.0343 Y55.3308
 X52.1836 Y55.2586
 X52.2936 Y55.1631
 X52.3618 Y55.0475
 X52.3854 Y54.9154
 X52.3618 Y54.7697
 X52.2883 Y54.6140
 X52.1415 Y54.4097
 X51.9747 Y54.2386
 X51.7900 Y54.1001
 X51.5896 Y53.9943
 X51.3753 Y53.9204
 X51.1496 Y53.8786
 X50.9140 Y53.8683
 X50.6711 Y53.8892
 X50.4228 Y53.9410
 X50.1711 Y54.0235
 X49.9182 Y54.1364
 X49.6660 Y54.2792
 X49.4167 Y54.4517
 X49.1722 Y54.6538
 X48.9349 Y54.8847
 X48.7067 Y55.1446
 X48.5047 Y55.3953
 X48.3392 Y55.6085
 X48.2106 Y55.7858
 X48.1196 Y55.9288
 X48.0671 Y56.0385
 X48.0539 Y56.1165
 X48.0808 Y56.1644
 X48.1486 Y56.1836
G0 Z5
 X37.9539 Y107.9800
G1 Z#2
 X37.8444 Y107.9740
 X37.7401 Y107.9590
 X37.3933 Y107.8740
 X37.0481 Y107.7220
 X36.7051 Y107.5060
 X36.3656 Y107.2300
 X36.0303 Y106.8970
 X35.7001 Y106.5100
 X35.3763 Y106.0730
 X35.0594 Y105.5880
 X34.7507 Y105.0600
 X34.4510 Y104.4900
 X34.1613 Y103.8840
 X33.8825 Y103.2430
 X33.6156 Y102.5720
 X33.3615 Y101.8730
 X33.1212 Y101.1500
 X32.8956 Y100.4060
 X32.6857 Y99.6443
 X32.4925 Y98.8683
 X32.3167 Y98.0811
 X32.1596 Y97.2861
 X32.0218 Y96.4867
 X31.9046 Y95.6860
 X31.8087 Y94.8874
 X31.7351 Y94.0940
 X31.6849 Y93.3093
 X31.6587 Y92.5364
 X31.6579 Y91.7787
 X31.6831 Y91.0397
 X31.7354 Y90.3222
 X31.8157 Y89.6299
 X31.9251 Y88.9657
 X32.0643 Y88.3332
 X32.5671 Y86.3503
 X36.8724 Y90.0558
 X37.2954 Y90.4201
 X37.6915 Y90.7615
 X38.0610 Y91.0826
 X38.4044 Y91.3857
 X38.7225 Y91.6729
 X39.0158 Y91.9467
 X39.2849 Y92.2093
 X39.5301 Y92.4631
 X39.7524 Y92.7103
 X39.9519 Y92.9532
 X40.1297 Y93.1943
 X40.2860 Y93.4358
 X40.4214 Y93.6800
 X40.5367 Y93.9292
 X40.6322 Y94.1857
 X40.7086 Y94.4518
 X40.7664 Y94.7299
 X40.8064 Y95.0222
 X40.8289 Y95.3311
 X40.8346 Y95.6588
 X40.8240 Y96.0078
 X40.7978 Y96.3801
 X40.7564 Y96.7783
 X40.7006 Y97.2046
 X40.6307 Y97.6614
 X40.5475 Y98.1508
 X40.4514 Y98.6753
 X40.3432 Y99.2371
 X40.2232 Y99.8386
 X40.0921 Y100.4820
 X39.9506 Y101.1700
 X39.7990 Y101.9040
 X39.7429 Y102.1900
 X39.6997 Y102.4390
 X39.6690 Y102.6530
 X39.6503 Y102.8320
 X39.6431 Y102.9780
 X39.6468 Y103.0900
 X39.6611 Y103.1710
 X39.6856 Y103.2210
 X39.7196 Y103.2410
 X39.7629 Y103.2310
 X39.8147 Y103.1930
 X39.8749 Y103.1280
 X39.9428 Y103.0370
 X40.0179 Y102.9190
 X40.1000 Y102.7780
 X40.1883 Y102.6120
 X40.2826 Y102.4240
 X40.3824 Y102.2130
 X40.4871 Y101.9820
 X40.5962 Y101.7300
 X40.7093 Y101.4590
 X40.8261 Y101.1700
 X40.9460 Y100.8630
 X41.0685 Y100.5400
 X41.1931 Y100.2010
 X41.3193 Y99.8479
 X41.4469 Y99.4806
 X41.5751 Y99.1003
 X41.7039 Y98.7081
 X41.8322 Y98.3046
 X41.9600 Y97.8910
 X42.0868 Y97.4681
 X43.2788 Y93.4182
 X37.7747 Y88.9393
 X37.0683 Y88.3561
 X36.3946 Y87.7808
 X35.7519 Y87.2122
 X35.1394 Y86.6490
 X34.5558 Y86.0897
 X33.9997 Y85.5331
 X33.4703 Y84.9776
 X32.9658 Y84.4221
 X32.4856 Y83.8653
 X32.0281 Y83.3056
 X31.5921 Y82.7417
 X31.1765 Y82.1724
 X30.7801 Y81.5960
 X30.4018 Y81.0117
 X30.0401 Y80.4176
 X29.6940 Y79.8126
 X29.3696 Y79.2226
 X29.0668 Y78.6614
 X28.7858 Y78.1279
 X28.5267 Y77.6218
 X28.2893 Y77.1418
 X28.0739 Y76.6875
 X27.8807 Y76.2579
 X27.7093 Y75.8524
 X27.5603 Y75.4700
 X27.4333 Y75.1100
 X27.3286 Y74.7717
 X27.2464 Y74.4542
 X27.1865 Y74.1565
 X27.1490 Y73.8783
 X27.1342 Y73.6185
 X27.1418 Y73.3764
 X27.1721 Y73.1511
 X27.2251 Y72.9419
 X27.3010 Y72.7482
 X27.3997 Y72.5689
 X27.5214 Y72.4033
 X27.6660 Y72.2507
 X27.8336 Y72.1103
 X28.0243 Y71.9812
 X28.2382 Y71.8628
 X28.4754 Y71.7540
 X28.7358 Y71.6543
 X29.0197 Y71.5629
 X29.3269 Y71.4789
 X29.6578 Y71.4014
 X30.0121 Y71.3299
 X30.3900 Y71.2633
 X30.8931 Y71.1778
 X31.3667 Y71.0918
 X31.8106 Y71.0058
 X32.2246 Y70.9201
 X32.6086 Y70.8351
 X32.9625 Y70.7510
 X33.2863 Y70.6681
 X33.5794 Y70.5865
 X33.8421 Y70.5069
 X34.0739 Y70.4293
 X34.2750 Y70.3542
 X34.4450 Y70.2818
 X34.5836 Y70.2124
 X34.6911 Y70.1462
 X34.7671 Y70.0837
 X34.8114 Y70.0250
 X34.8239 Y69.9707
 X34.8043 Y69.9208
 X34.7528 Y69.8757
 X34.6690 Y69.8358
 X34.5528 Y69.8012
 X34.4040 Y69.7724
 X34.2226 Y69.7496
 X34.0083 Y69.7331
 X33.7610 Y69.7232
 X33.4804 Y69.7203
 X33.1667 Y69.7244
 X32.8194 Y69.7362
 X32.4385 Y69.7560
 X32.0239 Y69.7836
 X31.5754 Y69.8197
 X31.0928 Y69.8646
 X30.6532 Y69.9081
 X30.2408 Y69.9482
 X29.8547 Y69.9850
 X29.4940 Y70.0181
 X29.1581 Y70.0475
 X28.8458 Y70.0726
 X28.5568 Y70.0935
 X28.2899 Y70.1099
 X28.0443 Y70.1213
 X27.8194 Y70.1278
 X27.6143 Y70.1290
 X27.4283 Y70.1247
 X27.2603 Y70.1146
 X27.1097 Y70.0986
 X26.9757 Y70.0764
 X26.8574 Y70.0476
 X26.7540 Y70.0124
 X26.6647 Y69.9701
 X26.5888 Y69.9207
 X26.5251 Y69.8639
 X26.4733 Y69.7994
 X26.4324 Y69.7272
 X26.4015 Y69.6468
 X26.3799 Y69.5582
 X26.3665 Y69.4610
 X26.3610 Y69.3550
 X26.3621 Y69.2400
 X26.3693 Y69.1157
 X26.3817 Y68.9819
 X26.3983 Y68.8385
 X26.4186 Y68.6850
 X26.4417 Y68.5212
 X26.4649 Y68.3686
 X26.4892 Y68.2247
 X26.5151 Y68.0893
 X26.5436 Y67.9624
 X26.5747 Y67.8436
 X26.6094 Y67.7328
 X26.6481 Y67.6297
 X26.6914 Y67.5340
 X26.7397 Y67.4457
 X26.7939 Y67.3643
 X26.8543 Y67.2897
 X26.9215 Y67.2218
 X26.9962 Y67.1603
 X27.0789 Y67.1049
 X27.1701 Y67.0554
 X27.2706 Y67.0117
 X27.3806 Y66.9733
 X27.5008 Y66.9403
 X27.6321 Y66.9122
 X27.7746 Y66.8889
 X27.9292 Y66.8703
 X28.0963 Y66.8560
 X28.2765 Y66.8458
 X28.4704 Y66.8396
 X28.6786 Y66.8371
 X28.9015 Y66.8379
 X29.1400 Y66.8419
 X29.3943 Y66.8492
 X29.6651 Y66.8592
 X29.9531 Y66.8717
 X30.2587 Y66.8865
 X30.5826 Y66.9035
 X30.9875 Y66.9207
 X31.4008 Y66.9293
 X31.8194 Y66.9300
 X32.2404 Y66.9231
 X32.6610 Y66.9085
 X33.0779 Y66.8867
 X33.4882 Y66.8582
 X33.8892 Y66.8229
 X34.2775 Y66.7813
 X34.6504 Y66.7338
 X35.0050 Y66.6804
 X35.3381 Y66.6217
 X35.6468 Y66.5578
 X35.9281 Y66.4890
 X36.1790 Y66.4158
 X36.3968 Y66.3383
 X36.6639 Y66.2264
 X36.8754 Y66.1251
 X37.0293 Y66.0338
 X37.1229 Y65.9519
 X37.1543 Y65.8790
 X37.1208 Y65.8144
 X37.0204 Y65.7579
 X36.8507 Y65.7087
 X36.6092 Y65.6664
 X36.2937 Y65.6304
 X35.9021 Y65.6003
 X35.4318 Y65.5754
 X34.8807 Y65.5553
 X34.2464 Y65.5394
 X33.5265 Y65.5274
 X32.7188 Y65.5183
 X32.1460 Y65.5101
 X31.5893 Y65.4956
 X31.0515 Y65.4753
 X30.5357 Y65.4496
 X30.0444 Y65.4186
 X29.5808 Y65.3831
 X29.1476 Y65.3431
 X28.7479 Y65.2992
 X28.3844 Y65.2514
 X28.0600 Y65.2003
 X27.7776 Y65.1462
 X27.5401 Y65.0896
 X27.3503 Y65.0306
 X27.2112 Y64.9696
 X27.1257 Y64.9069
 X27.0965 Y64.8432
 X27.1113 Y64.6571
 X27.1544 Y64.4461
 X27.2253 Y64.2118
 X27.3224 Y63.9556
 X27.4446 Y63.6790
 X27.5907 Y63.3835
 X27.7596 Y63.0703
 X27.9501 Y62.7411
 X28.1610 Y62.3975
 X28.3911 Y62.0406
 X28.6393 Y61.6721
 X28.9044 Y61.2933
 X29.1853 Y60.9058
 X29.4807 Y60.5110
 X29.7894 Y60.1104
 X30.1104 Y59.7054
 X30.4424 Y59.2975
 X30.7843 Y58.8882
 X31.1349 Y58.4788
 X31.4929 Y58.0710
 X31.8574 Y57.6660
 X32.2269 Y57.2654
 X32.6004 Y56.8707
 X32.9768 Y56.4832
 X33.3549 Y56.1046
 X33.7333 Y55.7361
 X34.1113 Y55.3793
 X34.4871 Y55.0357
 X34.8600 Y54.7067
 X35.2287 Y54.3936
 X35.5919 Y54.0982
 X35.9488 Y53.8217
 X36.3896 Y53.4878
 X36.8179 Y53.1610
 X37.2317 Y52.8431
 X37.6286 Y52.5360
 X38.0065 Y52.2414
 X38.3633 Y51.9612
 X38.6965 Y51.6971
 X39.0040 Y51.4508
 X39.2837 Y51.2244
 X39.5333 Y51.0194
 X39.7506 Y50.8378
 X39.9333 Y50.6813
 X40.0792 Y50.5517
 X40.1862 Y50.4507
 X40.2521 Y50.3801
 X40.2746 Y50.3419
 X40.2468 Y50.3022
 X40.1675 Y50.2692
 X40.0421 Y50.2433
 X39.8761 Y50.2251
 X39.6753 Y50.2150
 X39.4450 Y50.2136
 X39.1908 Y50.2212
 X38.9185 Y50.2386
 X38.6137 Y50.2399
 X38.3493 Y50.1928
 X38.1265 Y50.0983
 X37.9465 Y49.9578
 X37.8106 Y49.7724
 X37.7197 Y49.5432
 X37.6753 Y49.2714
 X37.6785 Y48.9583
 X37.6906 Y48.6833
 X37.6818 Y48.4369
 X37.6539 Y48.2242
 X37.6085 Y48.0494
 X37.5472 Y47.9176
 X37.4719 Y47.8338
 X37.3840 Y47.8024
 X37.2854 Y47.8283
 X36.3004 Y48.3528
 X35.3703 Y48.8300
 X34.4911 Y49.2611
 X33.6594 Y49.6474
 X32.8712 Y49.9899
 X32.1231 Y50.2894
 X31.4110 Y50.5475
 X30.7314 Y50.7650
 X30.0806 Y50.9429
 X29.4546 Y51.0826
 X28.8500 Y51.1850
 X28.2631 Y51.2511
 X27.6897 Y51.2822
 X27.1267 Y51.2793
 X26.5700 Y51.2436
 X26.0160 Y51.1758
 X25.1940 Y51.0313
 X24.3924 Y50.8472
 X23.6131 Y50.6254
 X22.8589 Y50.3675
 X22.1319 Y50.0749
 X21.4347 Y49.7493
 X20.7696 Y49.3922
 X20.1389 Y49.0051
 X19.5450 Y48.5897
 X18.9903 Y48.1474
 X18.4772 Y47.6799
 X18.0082 Y47.1885
 X17.5854 Y46.6751
 X17.2114 Y46.1411
 X16.8885 Y45.5881
 X16.6190 Y45.0174
 X16.5153 Y44.7538
 X16.4214 Y44.4839
 X16.3374 Y44.2088
 X16.2629 Y43.9292
 X16.1982 Y43.6461
 X16.1428 Y43.3604
 X16.0968 Y43.0726
 X16.0600 Y42.7840
 X16.0324 Y42.4951
 X16.0136 Y42.2069
 X16.0038 Y41.9201
 X16.0028 Y41.6358
 X16.0103 Y41.3546
 X16.0263 Y41.0774
 X16.0508 Y40.8050
 X16.0836 Y40.5385
 X16.1244 Y40.2783
 X16.1735 Y40.0257
 X16.2304 Y39.7813
 X16.2951 Y39.5458
 X16.3675 Y39.3204
 X16.4475 Y39.1057
 X16.5350 Y38.9025
 X16.6297 Y38.7119
 X16.7318 Y38.5344
 X16.8410 Y38.3713
 X16.9571 Y38.2231
 X17.0801 Y38.0906
 X17.2100 Y37.9747
 X17.3465 Y37.8765
 X17.4894 Y37.7965
 X17.6389 Y37.7357
 X17.8317 Y37.6907
 X17.9883 Y37.6937
 X18.1082 Y37.7428
 X18.1897 Y37.8358
 X18.2324 Y37.9712
 X18.2346 Y38.1468
 X18.1957 Y38.3606
 X18.1144 Y38.6106
 X18.0400 Y38.8764
 X18.0031 Y39.1796
 X18.0018 Y39.5097
 X18.0349 Y39.8561
 X18.1007 Y40.2085
 X18.1978 Y40.5561
 X18.3246 Y40.8883
 X18.4796 Y41.1947
 X18.6050 Y41.4063
 X18.7174 Y41.5856
 X18.8174 Y41.7319
 X18.9057 Y41.8446
 X18.9833 Y41.9226
 X19.0508 Y41.9653
 X19.1090 Y41.9717
 X19.1588 Y41.9413
 X19.2006 Y41.8729
 X19.2354 Y41.7661
 X19.2642 Y41.6200
 X19.2874 Y41.4338
 X19.3058 Y41.2065
 X19.3204 Y40.9375
 X19.3317 Y40.6260
 X19.3407 Y40.2711
 X19.3692 Y39.7225
 X19.4314 Y39.1985
 X19.5272 Y38.6996
 X19.6565 Y38.2256
 X19.8194 Y37.7768
 X20.0158 Y37.3529
 X20.2456 Y36.9544
 X20.5085 Y36.5811
 X20.8047 Y36.2332
 X21.1342 Y35.9107
 X21.4968 Y35.6136
 X21.8924 Y35.3419
 X22.3210 Y35.0960
 X22.7826 Y34.8757
 X23.2771 Y34.6813
 X23.8043 Y34.5124
 X24.3672 Y34.3651
 X24.8860 Y34.2579
 X25.3594 Y34.1897
 X25.7858 Y34.1599
 X26.1640 Y34.1672
 X26.4925 Y34.2110
 X26.7699 Y34.2901
 X26.9946 Y34.4036
 X27.1654 Y34.5507
 X27.2808 Y34.7304
 X27.3396 Y34.9417
 X27.3399 Y35.1837
 X27.2807 Y35.4556
 X27.1604 Y35.7562
 X26.9776 Y36.0849
 X26.7310 Y36.4403
 X26.6153 Y36.6039
 X26.5032 Y36.7825
 X26.3953 Y36.9744
 X26.2921 Y37.1781
 X26.1940 Y37.3917
 X26.1019 Y37.6132
 X26.0164 Y37.8411
 X25.9378 Y38.0736
 X25.8667 Y38.3088
 X25.8039 Y38.5451
 X25.7497 Y38.7807
 X25.7049 Y39.0138
 X25.6699 Y39.2425
 X25.6453 Y39.4653
 X25.6318 Y39.6803
 X25.6300 Y39.8856
 X25.6374 Y40.2056
 X25.6468 Y40.4812
 X25.6597 Y40.7121
 X25.6775 Y40.8975
 X25.7015 Y41.0367
 X25.7329 Y41.1290
 X25.7733 Y41.1739
 X25.8239 Y41.1706
 X25.8861 Y41.1186
 X25.9611 Y41.0171
 X26.0506 Y40.8656
 X26.1556 Y40.6633
 X26.2775 Y40.4097
 X26.4178 Y40.1042
 X26.5778 Y39.7458
 X26.7589 Y39.3342
 X26.9662 Y38.8961
 X27.1961 Y38.4750
 X27.4469 Y38.0722
 X27.7168 Y37.6893
 X28.0035 Y37.3281
 X28.3051 Y36.9901
 X28.6201 Y36.6767
 X28.9464 Y36.3896
 X29.2819 Y36.1304
 X29.6250 Y35.9007
 X29.9736 Y35.7021
 X30.3258 Y35.5360
 X30.6799 Y35.4040
 X31.0337 Y35.3078
 X31.3856 Y35.2489
 X31.7333 Y35.2289
 X31.8942 Y35.2399
 X32.0619 Y35.2724
 X32.2358 Y35.3250
 X32.4151 Y35.3971
 X32.5989 Y35.4875
 X32.7865 Y35.5953
 X32.9772 Y35.7193
 X33.1700 Y35.8588
 X33.3643 Y36.0126
 X33.5592 Y36.1797
 X33.7540 Y36.3592
 X33.9479 Y36.5501
 X34.1400 Y36.7513
 X34.3297 Y36.9618
 X34.5161 Y37.1807
 X34.6985 Y37.4068
 X34.8760 Y37.6394
 X35.0479 Y37.8774
 X35.2133 Y38.1196
 X35.3717 Y38.3651
 X35.5219 Y38.6131
 X35.6635 Y38.8624
 X35.7956 Y39.1119
 X35.9172 Y39.3608
 X36.0278 Y39.6082
 X36.1264 Y39.8528
 X36.2124 Y40.0938
 X36.2847 Y40.3300
 X36.3431 Y40.5606
 X36.3861 Y40.7846
 X36.4135 Y41.0008
 X36.4243 Y41.2085
 X36.4294 Y41.5233
 X36.4378 Y41.8006
 X36.4501 Y42.0410
 X36.4667 Y42.2449
 X36.4882 Y42.4131
 X36.5153 Y42.5461
 X36.5482 Y42.6446
 X36.5878 Y42.7092
 X36.6343 Y42.7403
 X36.6885 Y42.7389
 X36.7507 Y42.7053
 X36.8217 Y42.6401
 X36.9018 Y42.5442
 X36.9918 Y42.4178
 X37.0919 Y42.2618
 X37.2029 Y42.0767
 X37.3642 Y41.7447
 X37.4782 Y41.3846
 X37.5449 Y40.9981
 X37.5647 Y40.5867
 X37.5375 Y40.1522
 X37.4635 Y39.6965
 X37.3426 Y39.2211
 X37.1753 Y38.7278
 X36.9987 Y38.2613
 X36.8465 Y37.8513
 X36.7193 Y37.4943
 X36.6174 Y37.1865
 X36.5414 Y36.9244
 X36.4919 Y36.7043
 X36.4693 Y36.5225
 X36.4742 Y36.3754
 X36.5069 Y36.2593
 X36.5682 Y36.1706
 X36.6583 Y36.1056
 X36.7781 Y36.0606
 X36.9276 Y36.0318
 X37.1076 Y36.0158
 X37.3187 Y36.0090
 X37.5612 Y36.0075
 X37.7175 Y36.0186
 X37.8608 Y36.0531
 X37.9915 Y36.1118
 X38.1103 Y36.1962
 X38.2172 Y36.3079
 X38.3131 Y36.4479
 X38.3978 Y36.6175
 X38.4722 Y36.8181
 X38.5365 Y37.0508
 X38.5913 Y37.3172
 X38.6367 Y37.6185
 X38.6732 Y37.9558
 X38.7014 Y38.3306
 X38.7215 Y38.7442
 X38.7339 Y39.1976
 X38.7393 Y39.6926
 X38.7442 Y40.2586
 X38.7553 Y40.7856
 X38.7719 Y41.2737
 X38.7939 Y41.7232
 X38.8208 Y42.1343
 X38.8522 Y42.5069
 X38.8878 Y42.8413
 X38.9271 Y43.1376
 X38.9697 Y43.3961
 X39.0151 Y43.6168
 X39.0633 Y43.7999
 X39.1136 Y43.9454
 X39.1657 Y44.0536
 X39.2192 Y44.1246
 X39.2736 Y44.1587
 X39.3287 Y44.1558
 X39.3842 Y44.1163
 X39.4393 Y44.0401
 X39.4940 Y43.9276
 X39.5476 Y43.7788
 X39.6001 Y43.5938
 X39.6508 Y43.3728
 X39.6994 Y43.1160
 X39.7456 Y42.8235
 X39.7888 Y42.4956
 X39.8286 Y42.1322
 X39.8650 Y41.7335
 X39.8972 Y41.2999
 X39.9251 Y40.8311
 X39.9482 Y40.3278
 X39.9660 Y39.7897
 X39.9782 Y39.2171
 X39.9968 Y38.3654
 X40.0256 Y37.5683
 X40.0654 Y36.8200
 X40.1181 Y36.1147
 X40.1842 Y35.4469
 X40.2653 Y34.8108
 X40.3624 Y34.2007
 X40.4767 Y33.6108
 X40.6094 Y33.0357
 X40.7619 Y32.4693
 X40.9351 Y31.9063
 X41.1304 Y31.3407
 X41.3489 Y30.7669
 X41.5918 Y30.1793
 X41.8603 Y29.5721
 X42.1556 Y28.9396
 X42.3367 Y28.5714
 X42.5315 Y28.1960
 X42.7389 Y27.8147
 X42.9578 Y27.4290
 X43.1868 Y27.0403
 X43.4250 Y26.6499
 X43.6711 Y26.2593
 X43.9240 Y25.8700
 X44.1825 Y25.4832
 X44.4454 Y25.1004
 X44.7118 Y24.7231
 X44.9803 Y24.3526
 X45.2497 Y23.9904
 X45.5190 Y23.6379
 X45.7871 Y23.2964
 X46.0526 Y22.9675
 X46.3146 Y22.6524
 X46.5717 Y22.3526
 X46.8229 Y22.0697
 X47.0671 Y21.8049
 X47.3031 Y21.5596
 X47.5296 Y21.3353
 X47.7456 Y21.1333
 X47.9497 Y20.9551
 X48.1411 Y20.8022
 X48.3186 Y20.6758
 X48.4807 Y20.5775
 X48.6267 Y20.5088
 X48.7550 Y20.4707
 X48.8649 Y20.4649
 X48.9547 Y20.4928
 X49.0237 Y20.5558
 X49.1153 Y20.7062
 X49.2263 Y20.9281
 X49.3554 Y21.2164
 X49.5011 Y21.5667
 X49.6619 Y21.9742
 X49.8364 Y22.4340
 X50.0228 Y22.9418
 X50.2200 Y23.4925
 X50.4264 Y24.0817
 X50.6404 Y24.7043
 X50.8608 Y25.3558
 X51.0858 Y26.0317
 X51.3140 Y26.7268
 X51.5440 Y27.4368
 X51.7744 Y28.1568
 X52.0035 Y28.8822
 X52.2300 Y29.6082
 X52.4524 Y30.3300
 X52.6690 Y31.0431
 X52.8786 Y31.7425
 X53.0796 Y32.4236
 X53.2706 Y33.0819
 X53.4499 Y33.7125
 X53.6163 Y34.3107
 X53.7681 Y34.8717
 X53.9039 Y35.3908
 X54.0224 Y35.8636
 X54.1217 Y36.2850
 X54.2007 Y36.6503
 X54.2578 Y36.9551
 X54.2914 Y37.1944
 X54.3003 Y37.3636
 X54.3038 Y37.6943
 X54.3336 Y37.9938
 X54.3869 Y38.2606
 X54.4611 Y38.4935
 X54.5533 Y38.6910
 X54.6610 Y38.8518
 X54.7810 Y38.9747
 X54.9107 Y39.0585
 X55.0474 Y39.1015
 X55.1883 Y39.1028
 X55.3307 Y39.0608
 X55.4718 Y38.9742
 X55.6088 Y38.8418
 X55.7389 Y38.6621
 X55.8594 Y38.4339
 X55.9675 Y38.1560
 X55.9867 Y38.0215
 X55.9792 Y37.8178
 X55.9461 Y37.5489
 X55.8889 Y37.2192
 X55.8085 Y36.8326
 X55.7058 Y36.3935
 X55.5825 Y35.9060
 X55.4393 Y35.3742
 X55.2775 Y34.8022
 X55.0983 Y34.1944
 X54.9029 Y33.5549
 X54.6922 Y32.8878
 X54.4676 Y32.1972
 X54.2301 Y31.4874
 X53.9810 Y30.7626
 X53.7214 Y30.0268
 X53.4358 Y29.2090
 X53.1585 Y28.3765
 X52.8894 Y27.5314
 X52.6292 Y26.6758
 X52.3779 Y25.8118
 X52.1361 Y24.9414
 X51.9039 Y24.0669
 X51.6818 Y23.1903
 X51.4699 Y22.3137
 X51.2686 Y21.4392
 X51.0785 Y20.5689
 X50.8996 Y19.7050
 X50.7322 Y18.8494
 X50.5768 Y18.0044
 X50.4336 Y17.1721
 X50.3031 Y16.3544
 X50.1856 Y15.5536
 X50.0811 Y14.7718
 X49.9901 Y14.0108
 X49.9132 Y13.2732
 X49.8504 Y12.5608
 X49.8021 Y11.8757
 X49.7686 Y11.2201
 X49.7503 Y10.5960
 X49.7475 Y10.0055
 X49.7604 Y9.4509
 X49.7896 Y8.9341
 X49.8351 Y8.4572
 X49.8975 Y8.0225
 X49.9769 Y7.6318
 X50.0736 Y7.2875
 X50.1882 Y6.9915
 X50.2814 Y6.8073
 X50.3912 Y6.6257
 X50.5172 Y6.4469
 X50.6582 Y6.2713
 X50.8136 Y6.0993
 X50.9824 Y5.9313
 X51.1640 Y5.7674
 X51.3574 Y5.6080
 X51.5619 Y5.4536
 X51.7765 Y5.3045
 X52.0007 Y5.1609
 X52.2333 Y5.0232
 X52.4739 Y4.8918
 X52.7212 Y4.7669
 X52.9747 Y4.6490
 X53.2336 Y4.5383
 X53.4969 Y4.4352
 X53.7639 Y4.3401
 X54.0337 Y4.2531
 X54.3057 Y4.1749
 X54.5787 Y4.1055
 X54.8522 Y4.0455
 X55.1253 Y3.9950
 X55.3971 Y3.9545
 X55.6669 Y3.9243
 X55.9338 Y3.9047
 X56.1969 Y3.8960
 X56.4556 Y3.8986
 X56.7088 Y3.9129
 X56.9558 Y3.9392
 X57.1960 Y3.9777
 X57.4283 Y4.0289
 X57.6225 Y4.0862
 X57.8097 Y4.1579
 X57.9899 Y4.2430
 X58.1628 Y4.3411
 X58.3281 Y4.4513
 X58.4857 Y4.5731
 X58.6353 Y4.7058
 X58.7767 Y4.8486
 X58.9097 Y5.0009
 X59.0342 Y5.1619
 X59.1499 Y5.3311
 X59.2564 Y5.5078
 X59.3538 Y5.6912
 X59.4417 Y5.8806
 X59.5200 Y6.0755
 X59.5883 Y6.2751
 X59.6465 Y6.4788
 X59.6944 Y6.6858
 X59.7319 Y6.8954
 X59.7586 Y7.1071
 X59.7743 Y7.3200
 X59.7789 Y7.5337
 X59.7721 Y7.7472
 X59.7536 Y7.9601
 X59.7235 Y8.1715
 X59.6811 Y8.3808
 X59.6267 Y8.5874
 X59.5597 Y8.7905
 X59.4801 Y8.9895
 X59.3876 Y9.1836
 X59.2821 Y9.3724
 X59.1633 Y9.5548
 X58.9467 Y9.8864
 X58.7832 Y10.1829
 X58.6700 Y10.4431
 X58.6040 Y10.6660
 X58.5824 Y10.8504
 X58.6024 Y10.9953
 X58.6607 Y11.0995
 X58.7547 Y11.1621
 X58.8814 Y11.1818
 X59.0378 Y11.1577
 X59.2211 Y11.0886
 X59.4283 Y10.9734
 X59.6565 Y10.8111
 X59.9028 Y10.6006
 X60.1642 Y10.3407
 X60.4379 Y10.0303
 X60.5431 Y9.8889
 X60.6394 Y9.7292
 X60.7268 Y9.5525
 X60.8051 Y9.3599
 X60.8740 Y9.1523
 X60.9335 Y8.9309
 X60.9833 Y8.6969
 X61.0236 Y8.4512
 X61.0538 Y8.1950
 X61.0739 Y7.9294
 X61.0839 Y7.6555
 X61.0836 Y7.3743
 X61.0726 Y7.0870
 X61.0511 Y6.7946
 X61.0188 Y6.4984
 X60.9756 Y6.1992
 X60.9187 Y5.8271
 X60.8747 Y5.4865
 X60.8440 Y5.1759
 X60.8269 Y4.8939
 X60.8239 Y4.6388
 X60.8354 Y4.4094
 X60.8618 Y4.2041
 X60.9037 Y4.0214
 X60.9614 Y3.8599
 X61.0353 Y3.7180
 X61.1258 Y3.5943
 X61.2335 Y3.4873
 X61.3586 Y3.3955
 X61.5018 Y3.3174
 X61.6633 Y3.2517
 X61.8438 Y3.1967
 X62.2985 Y3.0820
 X62.7250 Y2.9865
 X63.1257 Y2.9109
 X63.5035 Y2.8552
 X63.8611 Y2.8199
 X64.2011 Y2.8054
 X64.5264 Y2.8119
 X64.8396 Y2.8399
 X65.1435 Y2.8897
 X65.4407 Y2.9615
 X65.7339 Y3.0559
 X66.0261 Y3.1731
 X66.3197 Y3.3135
 X66.6178 Y3.4774
 X66.9226 Y3.6652
 X67.2374 Y3.8772
 X67.4025 Y4.0033
 X67.5606 Y4.1443
 X67.7112 Y4.2991
 X67.8547 Y4.4668
 X67.9903 Y4.6462
 X68.1183 Y4.8363
 X68.2383 Y5.0360
 X68.3501 Y5.2443
 X68.4537 Y5.4600
 X68.5489 Y5.6821
 X68.6356 Y5.9096
 X68.7133 Y6.1414
 X68.7822 Y6.3764
 X68.8421 Y6.6135
 X68.8928 Y6.8518
 X68.9339 Y7.0901
 X68.9656 Y7.3273
 X68.9875 Y7.5624
 X68.9994 Y7.7944
 X69.0014 Y8.0222
 X68.9932 Y8.2446
 X68.9744 Y8.4607
 X68.9453 Y8.6693
 X68.9054 Y8.8695
 X68.8547 Y9.0601
 X68.7929 Y9.2400
 X68.7199 Y9.4083
 X68.6356 Y9.5638
 X68.5397 Y9.7055
 X68.4321 Y9.8324
 X68.3128 Y9.9433
 X68.1814 Y10.0371
 X68.0258 Y10.1506
 X67.8810 Y10.2900
 X67.7499 Y10.4499
 X67.6356 Y10.6249
 X67.5414 Y10.8094
 X67.4701 Y10.9980
 X67.4251 Y11.1853
 X67.4094 Y11.3656
 X67.4175 Y11.4448
 X67.4411 Y11.5074
 X67.4794 Y11.5537
 X67.5318 Y11.5840
 X67.5972 Y11.5986
 X67.6751 Y11.5978
 X67.7646 Y11.5818
 X67.8649 Y11.5510
 X67.9750 Y11.5058
 X68.0944 Y11.4463
 X68.2224 Y11.3729
 X68.3578 Y11.2859
 X68.5001 Y11.1855
 X68.6483 Y11.0722
 X68.8019 Y10.9461
 X68.9600 Y10.8075
 X69.1179 Y10.6533
 X69.2714 Y10.4811
 X69.4197 Y10.2930
 X69.5619 Y10.0906
 X69.6974 Y9.8758
 X69.8253 Y9.6505
 X69.9447 Y9.4164
 X70.0549 Y9.1755
 X70.1550 Y8.9295
 X70.2444 Y8.6802
 X70.3224 Y8.4296
 X70.3878 Y8.1794
 X70.4400 Y7.9314
 X70.4785 Y7.6875
 X70.5019 Y7.4494
 X70.5100 Y7.2191
 X70.5118 Y6.8560
 X70.5186 Y6.5377
 X70.5328 Y6.2626
 X70.5568 Y6.0292
 X70.5931 Y5.8360
 X70.6436 Y5.6814
 X70.7111 Y5.5639
 X70.7979 Y5.4818
 X70.9061 Y5.4337
 X71.0382 Y5.4179
 X71.1967 Y5.4331
 X71.3837 Y5.4774
 X71.6018 Y5.5496
 X71.8532 Y5.6480
 X72.1404 Y5.7709
 X72.4656 Y5.9169
 X72.8135 Y6.0900
 X73.1367 Y6.2800
 X73.4354 Y6.4859
 X73.7096 Y6.7067
 X73.9593 Y6.9411
 X74.1846 Y7.1883
 X74.3857 Y7.4469
 X74.5628 Y7.7160
 X74.7156 Y7.9945
 X74.8444 Y8.2812
 X74.9494 Y8.5752
 X75.0306 Y8.8752
 X75.0881 Y9.1803
 X75.1218 Y9.4893
 X75.1319 Y9.8010
 X75.1186 Y10.1146
 X75.0819 Y10.4288
 X75.0219 Y10.7426
 X74.9387 Y11.0548
 X74.8324 Y11.3645
 X74.7031 Y11.6704
 X74.5506 Y11.9716
 X74.3754 Y12.2668
 X74.1774 Y12.5551
 X73.9567 Y12.8353
 X73.7133 Y13.1064
 X73.4474 Y13.3673
 X73.1592 Y13.6169
 X72.8485 Y13.8539
 X72.5156 Y14.0776
 X72.1604 Y14.2867
 X71.7832 Y14.4799
 X69.1942 Y15.7132
 X70.3171 Y21.0106
 X70.4150 Y21.5068
 X70.5060 Y22.0322
 X70.5900 Y22.5846
 X70.6669 Y23.1617
 X70.7372 Y23.7614
 X70.8004 Y24.3812
 X70.8569 Y25.0192
 X70.9065 Y25.6729
 X70.9493 Y26.3401
 X70.9853 Y27.0186
 X71.0146 Y27.7062
 X71.0371 Y28.4007
 X71.0528 Y29.0996
 X71.0619 Y29.8010
 X71.0644 Y30.5024
 X71.0603 Y31.2017
 X71.0494 Y31.8965
 X71.0319 Y32.5849
 X71.0081 Y33.2643
 X70.9776 Y33.9325
 X70.9406 Y34.5875
 X70.8971 Y35.2269
 X70.8471 Y35.8485
 X70.7907 Y36.4500
 X70.7278 Y37.0293
 X70.6586 Y37.5839
 X70.5831 Y38.1118
 X70.5011 Y38.6107
 X70.4128 Y39.0783
 X70.3182 Y39.5124
 X70.2174 Y39.9108
 X70.1104 Y40.2711
 X70.0257 Y40.5333
 X69.9539 Y40.7608
 X69.8957 Y40.9537
 X69.8521 Y41.1122
 X69.8238 Y41.2364
 X69.8118 Y41.3267
 X69.8168 Y41.3828
 X69.8400 Y41.4053
 X69.8821 Y41.3942
 X69.9439 Y41.3496
 X70.0263 Y41.2717
 X70.1303 Y41.1606
 X70.2567 Y41.0167
 X70.4063 Y40.8397
 X70.5800 Y40.6303
 X70.7789 Y40.3883
 X70.9769 Y40.1208
 X71.1644 Y39.8160
 X71.3414 Y39.4749
 X71.5075 Y39.0986
 X71.6628 Y38.6885
 X71.8074 Y38.2454
 X71.9410 Y37.7706
 X72.0637 Y37.2653
 X72.1756 Y36.7306
 X72.2763 Y36.1675
 X72.3661 Y35.5772
 X72.4447 Y34.9610
 X72.5122 Y34.3197
 X72.5686 Y33.6549
 X72.6136 Y32.9672
 X72.6475 Y32.2582
 X72.6700 Y31.5288
 X72.6812 Y30.7801
 X72.6810 Y30.0133
 X72.6693 Y29.2297
 X72.6461 Y28.4301
 X72.6114 Y27.6160
 X72.5650 Y26.7882
 X72.5071 Y25.9481
 X72.4375 Y25.0965
 X72.3561 Y24.2349
 X72.2631 Y23.3643
 X72.1582 Y22.4858
 X72.0414 Y21.6006
 X71.9126 Y20.7097
 X71.7721 Y19.8144
 X71.6196 Y18.9157
 X71.5463 Y18.4825
 X71.4887 Y18.0929
 X71.4485 Y17.7433
 X71.4269 Y17.4304
 X71.4256 Y17.1506
 X71.4457 Y16.9003
 X71.4890 Y16.6760
 X71.5569 Y16.4742
 X71.6508 Y16.2912
 X71.7724 Y16.1238
 X71.9228 Y15.9681
 X72.1038 Y15.8208
 X72.3167 Y15.6785
 X72.5629 Y15.5372
 X72.8440 Y15.3939
 X73.1615 Y15.2447
 X73.3725 Y15.1406
 X73.5868 Y15.0193
 X73.8025 Y14.8826
 X74.0183 Y14.7321
 X74.2329 Y14.5690
 X74.4446 Y14.3950
 X74.6518 Y14.2113
 X74.8533 Y14.0196
 X75.0475 Y13.8213
 X75.2328 Y13.6178
 X75.4078 Y13.4106
 X75.5710 Y13.2013
 X75.7208 Y12.9912
 X75.8558 Y12.7819
 X75.9747 Y12.5748
 X76.0758 Y12.3714
 X76.2679 Y11.9724
 X76.4599 Y11.6223
 X76.6537 Y11.3206
 X76.8519 Y11.0669
 X77.0569 Y10.8608
 X77.2708 Y10.7020
 X77.4961 Y10.5901
 X77.7351 Y10.5246
 X77.9899 Y10.5052
 X78.2631 Y10.5315
 X78.5568 Y10.6031
 X78.8735 Y10.7197
 X79.2153 Y10.8808
 X79.5847 Y11.0860
 X79.9839 Y11.3350
 X80.4154 Y11.6274
 X80.6086 Y11.7734
 X80.7907 Y11.9324
 X80.9614 Y12.1033
 X81.1208 Y12.2854
 X81.2689 Y12.4775
 X81.4056 Y12.6789
 X81.5307 Y12.8885
 X81.6444 Y13.1055
 X81.7465 Y13.3290
 X81.8371 Y13.5579
 X81.9158 Y13.7914
 X81.9829 Y14.0286
 X82.0382 Y14.2685
 X82.0815 Y14.5101
 X82.1131 Y14.7526
 X82.1328 Y14.9951
 X82.1404 Y15.2367
 X82.1360 Y15.4763
 X82.1194 Y15.7129
 X82.0908 Y15.9458
 X82.0499 Y16.1742
 X81.9968 Y16.3968
 X81.9314 Y16.6129
 X81.8536 Y16.8214
 X81.7633 Y17.0217
 X81.6608 Y17.2125
 X81.5457 Y17.3931
 X81.4179 Y17.5625
 X81.2776 Y17.7197
 X81.1246 Y17.8640
 X80.9589 Y17.9943
 X80.7806 Y18.1096
 X80.5257 Y18.2694
 X80.3217 Y18.4197
 X80.1706 Y18.5571
 X80.0743 Y18.6782
 X80.0349 Y18.7794
 X80.0543 Y18.8574
 X80.1346 Y18.9086
 X80.2778 Y18.9296
 X80.4338 Y18.9250
 X80.5912 Y18.9033
 X80.7494 Y18.8650
 X80.9079 Y18.8110
 X81.0663 Y18.7418
 X81.2239 Y18.6585
 X81.3806 Y18.5615
 X81.5354 Y18.4518
 X81.6883 Y18.3300
 X81.8386 Y18.1971
 X81.9858 Y18.0535
 X82.1294 Y17.9001
 X82.2690 Y17.7378
 X82.4040 Y17.5672
 X82.5342 Y17.3890
 X82.6588 Y17.2042
 X82.7774 Y17.0132
 X82.8894 Y16.8169
 X82.9947 Y16.6161
 X83.0924 Y16.4117
 X83.1822 Y16.2040
 X83.2636 Y15.9942
 X83.3363 Y15.7828
 X83.3994 Y15.5707
 X83.4526 Y15.3585
 X83.4957 Y15.1471
 X83.5278 Y14.9371
 X83.5486 Y14.7294
 X83.5578 Y14.5246
 X83.5544 Y14.3236
 X83.5385 Y14.1269
 X83.5092 Y13.9356
 X83.4451 Y13.5583
 X83.4063 Y13.2237
 X83.3936 Y12.9315
 X83.4081 Y12.6812
 X83.4507 Y12.4724
 X83.5225 Y12.3045
 X83.6244 Y12.1771
 X83.7576 Y12.0898
 X83.9229 Y12.0421
 X84.1213 Y12.0335
 X84.3539 Y12.0636
 X84.6217 Y12.1319
 X84.9256 Y12.2380
 X85.2665 Y12.3813
 X85.6457 Y12.5615
 X86.0640 Y12.7781
 X86.3668 Y12.9793
 X86.6372 Y13.2372
 X86.8746 Y13.5445
 X87.0781 Y13.8942
 X87.2471 Y14.2790
 X87.3810 Y14.6918
 X87.4790 Y15.1256
 X87.5406 Y15.5732
 X87.5649 Y16.0274
 X87.5512 Y16.4810
 X87.4992 Y16.9269
 X87.4078 Y17.3581
 X87.2764 Y17.7674
 X87.1044 Y18.1475
 X86.8911 Y18.4914
 X86.6358 Y18.7919
 X86.4633 Y18.9807
 X86.3336 Y19.1564
 X86.2475 Y19.3156
 X86.2051 Y19.4543
 X86.2071 Y19.5687
 X86.2539 Y19.6553
 X86.3461 Y19.7099
 X86.4842 Y19.7289
 X86.7215 Y19.7089
 X86.9593 Y19.6506
 X87.1954 Y19.5567
 X87.4275 Y19.4303
 X87.6535 Y19.2737
 X87.8713 Y19.0903
 X88.0785 Y18.8824
 X88.2732 Y18.6528
 X88.4531 Y18.4046
 X88.6160 Y18.1403
 X88.7599 Y17.8629
 X88.8824 Y17.5750
 X88.9814 Y17.2794
 X89.0549 Y16.9790
 X89.1006 Y16.6765
 X89.1163 Y16.3747
 X89.1187 Y16.1561
 X89.1267 Y15.9640
 X89.1410 Y15.7981
 X89.1624 Y15.6581
 X89.1918 Y15.5433
 X89.2300 Y15.4538
 X89.2779 Y15.3887
 X89.3363 Y15.3481
 X89.4060 Y15.3312
 X89.4878 Y15.3381
 X89.5826 Y15.3679
 X89.6913 Y15.4206
 X89.8146 Y15.4956
 X89.9533 Y15.5926
 X90.1085 Y15.7112
 X90.2807 Y15.8513
 X90.5693 Y16.1218
 X90.8142 Y16.4164
 X91.0156 Y16.7328
 X91.1733 Y17.0687
 X91.2882 Y17.4219
 X91.3600 Y17.7903
 X91.3889 Y18.1714
 X91.3754 Y18.5632
 X91.3194 Y18.9633
 X91.2213 Y19.3694
 X91.0811 Y19.7794
 X90.8992 Y20.1913
 X90.6756 Y20.6024
 X90.4106 Y21.0106
 X90.1044 Y21.4138
 X89.7572 Y21.8096
 X89.3475 Y22.2156
 X88.9321 Y22.5664
 X88.5094 Y22.8618
 X88.0781 Y23.1021
 X87.6367 Y23.2871
 X87.1835 Y23.4167
 X86.7171 Y23.4910
 X86.2361 Y23.5099
 X85.7387 Y23.4735
 X85.2237 Y23.3815
 X84.6893 Y23.2342
 X84.1343 Y23.0314
 X83.5569 Y22.7731
 X82.9558 Y22.4593
 X82.3293 Y22.0899
 X81.6761 Y21.6650
 X81.3788 Y21.4675
 X81.0769 Y21.2757
 X80.7728 Y21.0906
 X80.4685 Y20.9131
 X80.1661 Y20.7442
 X79.8679 Y20.5849
 X79.5757 Y20.4361
 X79.2919 Y20.2990
 X79.0183 Y20.1743
 X78.7574 Y20.0632
 X78.5110 Y19.9667
 X78.2811 Y19.8857
 X78.0701 Y19.8210
 X77.8801 Y19.7739
 X77.7131 Y19.7453
 X77.5712 Y19.7360
 X77.4611 Y19.7469
 X77.3876 Y19.7778
 X77.3499 Y19.8274
 X77.3467 Y19.8947
 X77.3771 Y19.9789
 X77.4400 Y20.0788
 X77.5344 Y20.1935
 X77.6592 Y20.3217
 X77.8132 Y20.4628
 X77.9956 Y20.6154
 X78.2050 Y20.7789
 X78.4406 Y20.9519
 X78.7013 Y21.1335
 X78.9858 Y21.3228
 X79.2935 Y21.5186
 X79.6231 Y21.7200
 X80.2642 Y22.1217
 X80.8624 Y22.5332
 X81.4194 Y22.9574
 X81.9368 Y23.3961
 X82.4161 Y23.8518
 X82.8589 Y24.3271
 X83.2667 Y24.8242
 X83.6411 Y25.3454
 X83.9838 Y25.8932
 X84.2961 Y26.4697
 X84.5797 Y27.0776
 X84.8363 Y27.7190
 X85.0674 Y28.3965
 X85.2744 Y29.1121
 X85.4592 Y29.8686
 X85.6231 Y30.6679
 X85.6786 Y31.0201
 X85.7131 Y31.3710
 X85.7265 Y31.7197
 X85.7196 Y32.0663
 X85.6925 Y32.4099
 X85.6454 Y32.7506
 X85.5789 Y33.0875
 X85.4932 Y33.4207
 X85.3885 Y33.7494
 X85.2654 Y34.0736
 X85.1240 Y34.3926
 X84.9647 Y34.7061
 X84.7878 Y35.0139
 X84.5938 Y35.3151
 X84.3828 Y35.6099
 X84.1553 Y35.8975
 X83.9114 Y36.1776
 X83.6517 Y36.4500
 X83.3762 Y36.7140
 X83.0857 Y36.9694
 X82.7803 Y37.2158
 X82.4600 Y37.4528
 X82.1257 Y37.6799
 X81.7772 Y37.8968
 X81.4153 Y38.1031
 X81.0400 Y38.2983
 X80.6518 Y38.4824
 X80.2510 Y38.6544
 X79.8378 Y38.8143
 X79.4125 Y38.9617
 X78.9757 Y39.0961
 X78.5276 Y39.2171
 X78.0472 Y39.3465
 X77.5878 Y39.4887
 X77.1465 Y39.6456
 X76.7207 Y39.8186
 X76.3078 Y40.0100
 X75.9050 Y40.2215
 X75.5096 Y40.4549
 X75.1189 Y40.7119
 X74.7301 Y40.9947
 X74.3408 Y41.3049
 X73.9481 Y41.6443
 X73.5492 Y42.0150
 X73.1414 Y42.4186
 X72.7222 Y42.8571
 X72.2889 Y43.3322
 X71.8386 Y43.8458
 X71.5600 Y44.1687
 X71.2961 Y44.4725
 X71.0463 Y44.7575
 X70.8093 Y45.0244
 X70.5844 Y45.2736
 X70.3704 Y45.5057
 X70.1665 Y45.7212
 X69.9717 Y45.9206
 X69.7849 Y46.1043
 X69.6051 Y46.2731
 X69.4315 Y46.4272
 X69.2632 Y46.5674
 X69.0990 Y46.6939
 X68.9381 Y46.8075
 X68.7794 Y46.9086
 X68.6221 Y46.9976
 X68.4650 Y47.0753
 X68.3072 Y47.1421
 X68.1479 Y47.1983
 X67.9860 Y47.2446
 X67.8204 Y47.2817
 X67.6504 Y47.3097
 X67.4749 Y47.3293
 X67.2929 Y47.3413
 X67.1033 Y47.3457
 X66.9056 Y47.3435
 X66.6982 Y47.3349
 X66.4807 Y47.3204
 X66.2517 Y47.3008
 X66.0104 Y47.2762
 X65.7560 Y47.2476
 X65.4872 Y47.2153
 X65.1485 Y47.1757
 X64.8426 Y47.1449
 X64.5694 Y47.1225
 X64.3282 Y47.1085
 X64.1187 Y47.1024
 X63.9406 Y47.1042
 X63.7933 Y47.1135
 X63.6768 Y47.1301
 X63.5903 Y47.1540
 X63.5336 Y47.1849
 X63.5063 Y47.2225
 X63.5079 Y47.2665
 X63.5382 Y47.3169
 X63.5967 Y47.3733
 X63.6829 Y47.4358
 X63.7967 Y47.5038
 X63.9375 Y47.5772
 X64.1049 Y47.6558
 X64.2986 Y47.7396
 X64.5181 Y47.8279
 X64.7632 Y47.9210
 X65.0332 Y48.0183
 X65.3281 Y48.1200
 X65.6472 Y48.2254
 X65.9903 Y48.3346
 X66.3569 Y48.4472
 X66.7465 Y48.5632
 X67.1590 Y48.6822
 X67.5939 Y48.8040
 X68.0507 Y48.9285
 X68.5292 Y49.0554
 X69.0287 Y49.1844
 X69.4028 Y49.2864
 X69.7889 Y49.4035
 X70.1844 Y49.5346
 X70.5862 Y49.6782
 X70.9914 Y49.8329
 X71.3968 Y49.9974
 X71.7996 Y50.1701
 X72.1967 Y50.3499
 X72.5853 Y50.5351
 X72.9624 Y50.7246
 X73.3249 Y50.9169
 X73.6697 Y51.1106
 X73.9943 Y51.3043
 X74.2953 Y51.4965
 X74.5699 Y51.6861
 X74.8150 Y51.8715
 X77.0407 Y53.6425
 X73.1957 Y55.7013
 X72.8501 Y55.8892
 X72.5383 Y56.0647
 X72.2596 Y56.2276
 X72.0131 Y56.3782
 X71.7982 Y56.5164
 X71.6143 Y56.6421
 X71.4606 Y56.7556
 X71.3365 Y56.8565
 X71.2411 Y56.9453
 X71.1740 Y57.0217
 X71.1343 Y57.0858
 X71.1214 Y57.1376
 X71.1346 Y57.1772
 X71.1731 Y57.2046
 X71.2362 Y57.2197
 X71.3235 Y57.2228
 X71.4339 Y57.2136
 X71.5669 Y57.1924
 X71.7219 Y57.1590
 X71.8982 Y57.1135
 X72.0950 Y57.0558
 X72.3115 Y56.9862
 X72.5471 Y56.9046
 X72.8012 Y56.8110
 X73.0731 Y56.7054
 X73.3619 Y56.5878
 X73.6672 Y56.4582
 X73.9881 Y56.3168
 X74.3239 Y56.1635
 X74.6742 Y55.9982
 X75.0378 Y55.8211
 X75.4144 Y55.6322
 X75.7222 Y55.4797
 X76.0089 Y55.3462
 X76.2761 Y55.2318
 X76.5253 Y55.1361
 X76.7583 Y55.0593
 X76.9767 Y55.0013
 X77.1819 Y54.9618
 X77.3758 Y54.9410
 X77.5597 Y54.9385
 X77.7354 Y54.9546
 X77.9044 Y54.9890
 X78.0686 Y55.0417
 X78.2292 Y55.1126
 X78.3879 Y55.2017
 X78.5465 Y55.3088
 X78.7065 Y55.4339
 X78.8647 Y55.5675
 X79.0101 Y55.6954
 X79.1422 Y55.8179
 X79.2607 Y55.9354
 X79.3651 Y56.0485
 X79.4553 Y56.1575
 X79.5306 Y56.2626
 X79.5908 Y56.3644
 X79.6356 Y56.4635
 X79.6644 Y56.5597
 X79.6772 Y56.6540
 X79.6733 Y56.7465
 X79.6525 Y56.8378
 X79.6143 Y56.9279
 X79.5585 Y57.0176
 X79.4846 Y57.1071
 X79.3922 Y57.1968
 X79.2810 Y57.2872
 X79.1508 Y57.3786
 X79.0010 Y57.4715
 X78.8313 Y57.5663
 X78.6412 Y57.6632
 X78.4306 Y57.7628
 X78.1989 Y57.8654
 X77.9460 Y57.9714
 X77.6713 Y58.0814
 X77.3744 Y58.1954
 X77.0550 Y58.3142
 X76.7129 Y58.4379
 X76.3475 Y58.5669
 X75.9585 Y58.7019
 X75.5457 Y58.8432
 X75.0442 Y59.0158
 X74.5786 Y59.1804
 X74.1483 Y59.3371
 X73.7535 Y59.4854
 X73.3938 Y59.6254
 X73.0689 Y59.7568
 X72.7790 Y59.8794
 X72.5237 Y59.9932
 X72.3028 Y60.0978
 X72.1163 Y60.1932
 X71.9638 Y60.2793
 X71.8453 Y60.3557
 X71.7606 Y60.4224
 X71.7094 Y60.4792
 X71.6917 Y60.5258
 X71.7072 Y60.5622
 X71.7558 Y60.5883
 X71.8374 Y60.6038
 X71.9517 Y60.6085
 X72.0985 Y60.6022
 X72.2776 Y60.5849
 X72.4892 Y60.5562
 X72.7326 Y60.5164
 X73.0081 Y60.4647
 X73.3151 Y60.4014
 X73.6537 Y60.3261
 X74.0236 Y60.2387
 X74.4249 Y60.1392
 X74.8569 Y60.0271
 X75.3200 Y59.9025
 X75.8137 Y59.7651
 X76.3379 Y59.6147
 X76.8003 Y59.4812
 X77.2357 Y59.3581
 X77.6449 Y59.2460
 X78.0289 Y59.1453
 X78.3886 Y59.0569
 X78.7251 Y58.9814
 X79.0394 Y58.9194
 X79.3324 Y58.8713
 X79.6050 Y58.8381
 X79.8583 Y58.8200
 X80.0932 Y58.8178
 X80.3106 Y58.8322
 X80.5115 Y58.8637
 X80.6969 Y58.9131
 X80.8679 Y58.9807
 X81.0253 Y59.0674
 X81.1701 Y59.1736
 X81.3032 Y59.3001
 X81.4257 Y59.4475
 X81.5386 Y59.6164
 X81.6426 Y59.8072
 X81.7390 Y60.0208
 X81.8286 Y60.2578
 X81.9124 Y60.5186
 X81.9913 Y60.8040
 X82.0663 Y61.1146
 X82.1383 Y61.4508
 X82.2086 Y61.8136
 X82.2778 Y62.2033
 X82.3469 Y62.6207
 X82.4172 Y63.0663
 X82.4893 Y63.5407
 X82.5353 Y63.8744
 X82.5739 Y64.2115
 X82.6049 Y64.5524
 X82.6283 Y64.8975
 X82.6440 Y65.2475
 X82.6518 Y65.6028
 Y65.9638
 X82.6439 Y66.3308
 X82.6278 Y66.7047
 X82.6035 Y67.0856
 X82.5711 Y67.4742
 X82.5303 Y67.8707
 X82.4811 Y68.2758
 X82.4235 Y68.6900
 X82.3572 Y69.1136
 X82.2824 Y69.5472
 X82.1988 Y69.9913
 X82.1062 Y70.4461
 X82.0049 Y70.9124
 X81.8944 Y71.3904
 X81.7750 Y71.8808
 X81.6464 Y72.3840
 X81.5085 Y72.9004
 X81.3612 Y73.4306
 X81.2046 Y73.9747
 X81.0385 Y74.5338
 X80.8626 Y75.1078
 X80.6771 Y75.6974
 X80.4819 Y76.3031
 X80.2768 Y76.9253
 X80.0618 Y77.5646
 X79.8368 Y78.2213
 X78.2381 Y82.8363
 X81.9037 Y86.5571
 X82.3489 Y87.0054
 X82.7714 Y87.4239
 X83.1710 Y87.8124
 X83.5472 Y88.1710
 X83.8999 Y88.4997
 X84.2288 Y88.7989
 X84.5333 Y89.0682
 X84.8135 Y89.3079
 X85.0689 Y89.5179
 X85.2993 Y89.6985
 X85.5043 Y89.8494
 X85.6838 Y89.9711
 X85.8371 Y90.0632
 X85.9643 Y90.1260
 X86.0650 Y90.1594
 X86.1388 Y90.1638
 X86.1853 Y90.1388
 X86.2046 Y90.0847
 X86.1960 Y90.0015
 X86.1594 Y89.8892
 X86.0946 Y89.7479
 X86.0011 Y89.5778
 X85.8786 Y89.3786
 X85.7269 Y89.1507
 X85.5458 Y88.8940
 X85.3349 Y88.6085
 X85.0938 Y88.2943
 X84.8222 Y87.9515
 X84.5201 Y87.5801
 X84.1869 Y87.1803
 X83.8224 Y86.7518
 X83.4264 Y86.2949
 X79.9468 Y82.3124
 X81.5178 Y77.9590
 X81.6794 Y77.5101
 X81.8397 Y77.0629
 X81.9978 Y76.6200
 X82.1526 Y76.1844
 X82.3032 Y75.7586
 X82.4486 Y75.3457
 X82.5879 Y74.9485
 X82.7201 Y74.5693
 X82.8443 Y74.2114
 X82.9593 Y73.8774
 X83.0644 Y73.5701
 X83.1585 Y73.2922
 X83.2406 Y73.0467
 X83.3099 Y72.8361
 X83.3653 Y72.6633
 X83.4058 Y72.5313
 X83.4546 Y72.3833
 X83.5083 Y72.2575
 X83.5679 Y72.1539
 X83.6343 Y72.0728
 X83.7086 Y72.0144
 X83.7918 Y71.9789
 X83.8850 Y71.9665
 X83.9892 Y71.9772
 X84.1054 Y72.0115
 X84.2346 Y72.0694
 X84.3778 Y72.1511
 X84.5361 Y72.2568
 X84.7106 Y72.3868
 X84.9021 Y72.5413
 X85.1117 Y72.7203
 X85.3406 Y72.9239
 X85.6999 Y73.2718
 X86.0543 Y73.6594
 X86.4029 Y74.0843
 X86.7450 Y74.5440
 X87.0799 Y75.0360
 X87.4068 Y75.5576
 X87.7249 Y76.1065
 X88.0335 Y76.6801
 X88.3321 Y77.2760
 X88.6196 Y77.8914
 X88.8956 Y78.5242
 X89.1592 Y79.1715
 X89.4097 Y79.8311
 X89.6464 Y80.5004
 X89.8685 Y81.1768
 X90.0753 Y81.8578
 X90.2661 Y82.5410
 X90.4401 Y83.2237
 X90.5967 Y83.9036
 X90.7350 Y84.5781
 X90.8543 Y85.2447
 X90.9540 Y85.9008
 X91.0333 Y86.5440
 X91.0915 Y87.1718
 X91.1278 Y87.7817
 X91.1414 Y88.3711
 X91.1318 Y88.9375
 X91.0981 Y89.4785
 X91.0396 Y89.9914
 X90.9556 Y90.4737
 X90.8453 Y90.9232
 X90.7081 Y91.3371
 X90.6328 Y91.5325
 X90.5604 Y91.7160
 X90.4903 Y91.8879
 X90.4214 Y92.0486
 X90.3528 Y92.1982
 X90.2839 Y92.3372
 X90.2136 Y92.4658
 X90.1414 Y92.5844
 X90.0660 Y92.6933
 X89.9869 Y92.7928
 X89.9033 Y92.8831
 X89.8140 Y92.9644
 X89.7185 Y93.0375
 X89.6158 Y93.1022
 X89.5051 Y93.1590
 X89.3857 Y93.2082
 X89.2564 Y93.2501
 X89.1165 Y93.2850
 X88.9654 Y93.3132
 X88.8021 Y93.3351
 X88.6257 Y93.3510
 X88.4353 Y93.3610
 X88.2303 Y93.3656
 X88.0096 Y93.3650
 X87.7725 Y93.3596
 X87.5181 Y93.3496
 X87.2456 Y93.3353
 X86.9542 Y93.3172
 X86.6428 Y93.2954
 X86.3108 Y93.2704
 X85.9575 Y93.2424
 X85.5818 Y93.2115
 X85.0107 Y93.1575
 X84.4622 Y93.0919
 X83.9342 Y93.0139
 X83.4247 Y92.9228
 X82.9318 Y92.8179
 X82.4533 Y92.6985
 X81.9875 Y92.5639
 X81.5322 Y92.4133
 X81.0857 Y92.2463
 X80.6456 Y92.0618
 X80.2101 Y91.8593
 X79.7774 Y91.6382
 X79.3451 Y91.3975
 X78.9117 Y91.1367
 X78.4749 Y90.8551
 X78.0326 Y90.5518
 X74.7671 Y88.2503
 X70.5308 Y90.7861
 X70.0961 Y91.0396
 X69.6418 Y91.2897
 X69.1693 Y91.5361
 X68.6796 Y91.7785
 X68.1736 Y92.0167
 X67.6528 Y92.2501
 X67.1181 Y92.4788
 X66.5706 Y92.7022
 X66.0115 Y92.9201
 X65.4419 Y93.1322
 X64.8629 Y93.3382
 X64.2757 Y93.5376
 X63.6814 Y93.7304
 X63.0810 Y93.9163
 X62.4757 Y94.0946
 X61.8667 Y94.2653
 X61.2550 Y94.4281
 X60.6418 Y94.5825
 X60.0281 Y94.7285
 X59.4151 Y94.8654
 X58.8040 Y94.9932
 X58.1958 Y95.1115
 X57.5918 Y95.2200
 X56.9928 Y95.3183
 X56.4003 Y95.4063
 X55.8150 Y95.4835
 X55.2383 Y95.5496
 X54.6714 Y95.6044
 X54.1153 Y95.6476
 X53.5710 Y95.6789
 X53.0397 Y95.6979
 X52.5226 Y95.7042
 X52.2342 Y95.7049
 X51.9619 Y95.7071
 X51.7051 Y95.7113
 X51.4629 Y95.7183
 X51.2344 Y95.7285
 X51.0189 Y95.7424
 X50.8156 Y95.7607
 X50.6235 Y95.7838
 X50.4419 Y95.8122
 X50.2703 Y95.8465
 X50.1075 Y95.8874
 X49.9529 Y95.9353
 X49.8056 Y95.9908
 X49.6647 Y96.0543
 X49.5297 Y96.1265
 X49.3996 Y96.2079
 X49.2735 Y96.2990
 X49.1507 Y96.4004
 X49.0306 Y96.5126
 X48.9119 Y96.6363
 X48.7943 Y96.7718
 X48.6767 Y96.9199
 X48.5585 Y97.0808
 X48.4386 Y97.2553
 X48.3165 Y97.4439
 X48.1913 Y97.6472
 X48.0619 Y97.8656
 X47.9281 Y98.0997
 X47.7885 Y98.3501
 X47.6426 Y98.6174
 X47.4896 Y98.9019
 X47.3286 Y99.2044
 X47.1047 Y99.6133
 X46.8672 Y100.0220
 X46.6172 Y100.4290
 X46.3554 Y100.8350
 X46.0828 Y101.2370
 X45.8004 Y101.6360
 X45.5090 Y102.0300
 X45.2094 Y102.4180
 X44.9028 Y102.8010
 X44.5899 Y103.1760
 X44.2715 Y103.5440
 X43.9489 Y103.9030
 X43.6225 Y104.2520
 X43.2936 Y104.5910
 X42.9631 Y104.9190
 X42.6315 Y105.2350
 X42.3001 Y105.5380
 X41.9696 Y105.8270
 X41.6411 Y106.1020
 X41.3153 Y106.3620
 X40.9933 Y106.6050
 X40.6758 Y106.8320
 X40.3639 Y107.0400
 X40.0583 Y107.2300
 X39.7601 Y107.4010
 X39.4703 Y107.5510
 X39.1894 Y107.6800
 X38.9186 Y107.7870
 X38.6587 Y107.8720
 X38.4107 Y107.9320
 X38.1756 Y107.9690
 X37.9539 Y107.9800
G0 Z5
 X83.5419 Y43.2175
G1 Z#2
 X83.5600 Y43.5367
 X83.5622 Y43.8776
 X83.5489 Y44.2381
 X83.5208 Y44.6156
 X83.4785 Y45.0079
 X83.4222 Y45.4122
 X83.3526 Y45.8265
 X83.2703 Y46.2481
 X83.1756 Y46.6746
 X83.0692 Y47.1036
 X82.9514 Y47.5326
 X82.8228 Y47.9593
 X82.6840 Y48.3812
 X82.5354 Y48.7958
 X82.3775 Y49.2008
 X82.2110 Y49.5936
 X81.9597 Y50.1556
 X81.7304 Y50.6525
 X81.5200 Y51.0872
 X81.3251 Y51.4624
 X81.1431 Y51.7806
 X80.9703 Y52.0447
 X80.8039 Y52.2575
 X80.6406 Y52.4215
 X80.4774 Y52.5396
 X80.3110 Y52.6143
 X80.1386 Y52.6485
 X79.9567 Y52.6449
 X79.7624 Y52.6060
 X79.5525 Y52.5347
 X79.3239 Y52.4338
 X79.0735 Y52.3058
 X78.9112 Y52.2096
 X78.7488 Y52.0946
 X78.5868 Y51.9624
 X78.4264 Y51.8142
 X78.2689 Y51.6518
 X78.1150 Y51.4768
 X77.9660 Y51.2904
 X77.8229 Y51.0944
 X77.6868 Y50.8901
 X77.5586 Y50.6793
 X77.4396 Y50.4632
 X77.3306 Y50.2433
 X77.2328 Y50.0215
 X77.1472 Y49.7989
 X77.0749 Y49.5774
 X77.0171 Y49.3581
 X76.9614 Y49.1336
 X76.8957 Y48.8971
 X76.8208 Y48.6503
 X76.7376 Y48.3953
 X76.6469 Y48.1342
 X76.5494 Y47.8688
 X76.4462 Y47.6014
 X76.3379 Y47.3338
 X76.2254 Y47.0679
 X76.1096 Y46.8061
 X75.9913 Y46.5501
 X75.8713 Y46.3021
 X75.7503 Y46.0640
 X75.6294 Y45.8378
 X75.5094 Y45.6257
 X75.3911 Y45.4294
 X75.2074 Y45.1312
 X75.0503 Y44.8632
 X74.9204 Y44.6219
 X74.8188 Y44.4038
 X74.7457 Y44.2054
 X74.7021 Y44.0232
 X74.6889 Y43.8537
 X74.7067 Y43.6936
 X74.7563 Y43.5392
 X74.8383 Y43.3872
 X74.9536 Y43.2340
 X75.1029 Y43.0761
 X75.2869 Y42.9101
 X75.5067 Y42.7325
 X75.7625 Y42.5399
 X76.0553 Y42.3286
 X76.4186 Y42.0844
 X76.8099 Y41.8482
 X77.2242 Y41.6213
 X77.6568 Y41.4053
 X78.1029 Y41.2018
 X78.5576 Y41.0124
 X79.0164 Y40.8386
 X79.4742 Y40.6819
 X79.9262 Y40.5440
 X80.3678 Y40.4264
 X80.7942 Y40.3307
 X81.2003 Y40.2583
 X81.5817 Y40.2110
 X81.9332 Y40.1900
 X82.2503 Y40.1972
 X82.5282 Y40.2342
 X82.6082 Y40.2646
 X82.6885 Y40.3231
 X82.7685 Y40.4081
 X82.8476 Y40.5178
 X82.9254 Y40.6508
 X83.0012 Y40.8058
 X83.0747 Y40.9810
 X83.1453 Y41.1750
 X83.2124 Y41.3861
 X83.2756 Y41.6131
 X83.3342 Y41.8540
 X83.3878 Y42.1076
 X83.4360 Y42.3724
 X83.4779 Y42.6465
 X83.5135 Y42.9289
 X83.5419 Y43.2175
G0 Z5
 X48.3761 Y14.6947
G1 Z#2
 X48.4201 Y14.9931
 X48.4601 Y15.2750
 X48.4961 Y15.5417
 X48.5275 Y15.7938
 X48.5542 Y16.0321
 X48.5757 Y16.2575
 X48.5921 Y16.4708
 X48.6026 Y16.6729
 X48.6072 Y16.8646
 X48.6057 Y17.0467
 X48.5978 Y17.2199
 X48.5829 Y17.3851
 X48.5610 Y17.5432
 X48.5317 Y17.6950
 X48.4947 Y17.8412
 X48.4499 Y17.9829
 X48.3968 Y18.1206
 X48.3351 Y18.2553
 X48.2647 Y18.3878
 X48.1853 Y18.5189
 X48.0962 Y18.6494
 X47.9978 Y18.7801
 X47.8892 Y18.9121
 X47.7703 Y19.0458
 X47.6410 Y19.1822
 X47.5008 Y19.3222
 X47.3496 Y19.4667
 X47.1869 Y19.6163
 X47.0125 Y19.7718
 X46.8261 Y19.9342
 X46.6275 Y20.1043
 X46.4164 Y20.2828
 X46.1768 Y20.4972
 X45.9272 Y20.7453
 X45.6686 Y21.0246
 X45.4022 Y21.3332
 X45.1293 Y21.6688
 X44.8510 Y22.0293
 X44.5682 Y22.4126
 X44.2822 Y22.8165
 X43.9944 Y23.2387
 X43.7058 Y23.6774
 X43.4175 Y24.1303
 X43.1307 Y24.5950
 X42.8467 Y25.0696
 X42.5664 Y25.5519
 X42.2910 Y26.0399
 X42.0219 Y26.5311
 X41.7601 Y27.0237
 X41.5067 Y27.5154
 X41.2631 Y28.0040
 X41.0301 Y28.4874
 X40.8092 Y28.9635
 X40.6013 Y29.4300
 X40.4078 Y29.8849
 X40.2297 Y30.3260
 X40.0682 Y30.7511
 X39.9244 Y31.1582
 X39.7996 Y31.5450
 X39.6949 Y31.9093
 X39.6114 Y32.2492
 X39.5504 Y32.5624
 X39.5129 Y32.8467
 X39.5001 Y33.0999
 X39.4919 Y33.2686
 X39.4681 Y33.4258
 X39.4293 Y33.5715
 X39.3764 Y33.7058
 X39.3103 Y33.8286
 X39.2318 Y33.9403
 X39.1419 Y34.0404
 X39.0414 Y34.1293
 X38.9310 Y34.2069
 X38.8117 Y34.2733
 X38.6843 Y34.3286
 X38.5497 Y34.3725
 X38.4087 Y34.4054
 X38.2622 Y34.4272
 X38.1110 Y34.4379
 X37.9558 Y34.4376
 X37.7979 Y34.4262
 X37.6378 Y34.4040
 X37.4763 Y34.3707
 X37.3144 Y34.3265
 X37.1531 Y34.2714
 X36.9929 Y34.2056
 X36.8350 Y34.1288
 X36.6800 Y34.0412
 X36.5289 Y33.9429
 X36.3824 Y33.8340
 X36.2415 Y33.7143
 X36.1069 Y33.5840
 X35.9797 Y33.4429
 X35.8606 Y33.2914
 X35.7503 Y33.1293
 X35.6500 Y32.9567
 X35.4692 Y32.5733
 X35.3125 Y32.1471
 X35.1799 Y31.6842
 X35.0711 Y31.1907
 X34.9865 Y30.6728
 X34.9260 Y30.1365
 X34.8894 Y29.5881
 X34.8768 Y29.0336
 X34.8883 Y28.4792
 X34.9239 Y27.9311
 X34.9833 Y27.3951
 X35.0669 Y26.8779
 X35.1746 Y26.3851
 X35.3061 Y25.9231
 X35.4618 Y25.4981
 X35.6415 Y25.1158
 X35.7336 Y24.9588
 X35.8446 Y24.7944
 X35.9729 Y24.6240
 X36.1172 Y24.4492
 X36.2760 Y24.2710
 X36.4476 Y24.0910
 X36.6308 Y23.9104
 X36.8239 Y23.7307
 X37.0256 Y23.5531
 X37.2342 Y23.3790
 X37.4482 Y23.2099
 X37.6662 Y23.0469
 X37.8869 Y22.8917
 X38.1086 Y22.7453
 X38.3299 Y22.6093
 X38.5492 Y22.4849
 X38.7589 Y22.3678
 X38.9521 Y22.2538
 X39.1282 Y22.1433
 X39.2869 Y22.0369
 X39.4274 Y21.9356
 X39.5492 Y21.8394
 X39.6517 Y21.7493
 X39.7344 Y21.6658
 X39.7969 Y21.5896
 X39.8385 Y21.5210
 X39.8586 Y21.4608
 X39.8568 Y21.4097
 X39.8324 Y21.3681
 X39.7850 Y21.3367
 X39.7139 Y21.3161
 X39.6188 Y21.3068
 X39.5011 Y21.3106
 X39.3646 Y21.3272
 X39.2107 Y21.3563
 X39.0411 Y21.3971
 X38.8574 Y21.4490
 X38.6614 Y21.5114
 X38.4547 Y21.5838
 X38.2389 Y21.6651
 X38.0157 Y21.7550
 X37.7868 Y21.8529
 X37.5539 Y21.9579
 X37.3185 Y22.0696
 X37.0822 Y22.1871
 X36.8469 Y22.3100
 X36.6143 Y22.4376
 X36.3858 Y22.5692
 X36.0221 Y22.7815
 X35.6950 Y22.9657
 X35.3996 Y23.1214
 X35.1308 Y23.2488
 X34.8840 Y23.3476
 X34.6540 Y23.4181
 X34.4360 Y23.4599
 X34.2250 Y23.4733
 X34.0160 Y23.4582
 X33.8042 Y23.4146
 X33.5846 Y23.3422
 X33.3522 Y23.2414
 X33.1021 Y23.1118
 X32.8294 Y22.9536
 X32.5293 Y22.7668
 X32.1967 Y22.5511
 X31.8313 Y22.2800
 X31.4981 Y21.9697
 X31.1982 Y21.6267
 X30.9333 Y21.2569
 X30.7046 Y20.8669
 X30.5133 Y20.4628
 X30.3611 Y20.0507
 X30.2492 Y19.6369
 X30.1790 Y19.2276
 X30.1518 Y18.8292
 X30.1692 Y18.4476
 X30.2325 Y18.0893
 X30.3429 Y17.7604
 X30.5019 Y17.4674
 X30.7110 Y17.2160
 X30.9714 Y17.0129
 X31.1269 Y16.9399
 X31.2721 Y16.9172
 X31.4035 Y16.9422
 X31.5182 Y17.0124
 X31.6131 Y17.1244
 X31.6846 Y17.2761
 X31.7299 Y17.4644
 X31.7458 Y17.6867
 X31.7689 Y17.9396
 X31.8356 Y18.2112
 X31.9413 Y18.4969
 X32.0818 Y18.7917
 X32.2531 Y19.0908
 X32.4506 Y19.3893
 X32.6700 Y19.6825
 X32.9072 Y19.9653
 X33.1578 Y20.2331
 X33.4174 Y20.4808
 X33.6819 Y20.7038
 X33.9469 Y20.8971
 X34.2082 Y21.0558
 X34.4614 Y21.1751
 X34.7022 Y21.2504
 X34.9264 Y21.2765
 X34.9936 Y21.2653
 X35.0426 Y21.2322
 X35.0738 Y21.1783
 X35.0876 Y21.1050
 X35.0846 Y21.0131
 X35.0650 Y20.9039
 X35.0294 Y20.7783
 X34.9785 Y20.6378
 X34.9121 Y20.4832
 X34.8311 Y20.3157
 X34.7358 Y20.1364
 X34.6268 Y19.9464
 X34.5043 Y19.7468
 X34.3689 Y19.5389
 X34.2210 Y19.3235
 X34.0610 Y19.1019
 X33.7381 Y18.6389
 X33.4682 Y18.1940
 X33.2514 Y17.7674
 X33.0876 Y17.3581
 X32.9772 Y16.9657
 X32.9203 Y16.5899
 X32.9168 Y16.2300
 X32.9671 Y15.8857
 X33.0710 Y15.5563
 X33.2289 Y15.2414
 X33.4407 Y14.9404
 X33.7067 Y14.6531
 X34.0268 Y14.3786
 X34.4012 Y14.1167
 X34.8301 Y13.8668
 X35.3138 Y13.6283
 X35.5728 Y13.5113
 X35.8175 Y13.4032
 X36.0482 Y13.3039
 X36.2653 Y13.2137
 X36.4689 Y13.1328
 X36.6594 Y13.0614
 X36.8374 Y12.9996
 X37.0028 Y12.9476
 X37.1563 Y12.9055
 X37.2979 Y12.8736
 X37.4282 Y12.8520
 X37.5474 Y12.8409
 X37.6558 Y12.8404
 X37.7539 Y12.8507
 X37.8418 Y12.8720
 X37.9201 Y12.9045
 X37.9889 Y12.9483
 X38.0485 Y13.0036
 X38.0994 Y13.0706
 X38.1418 Y13.1494
 X38.1762 Y13.2402
 X38.2028 Y13.3432
 X38.2219 Y13.4586
 X38.2339 Y13.5864
 X38.2390 Y13.7270
 X38.2376 Y13.8804
 X38.2303 Y14.0469
 X38.2169 Y14.2267
 X38.1982 Y14.4196
 X38.1743 Y14.6262
 X38.1456 Y14.8465
 X38.1124 Y15.0807
 X38.0665 Y15.5129
 X38.0547 Y15.9422
 X38.0750 Y16.3656
 X38.1257 Y16.7792
 X38.2050 Y17.1797
 X38.3111 Y17.5637
 X38.4425 Y17.9276
 X38.5971 Y18.2679
 X38.7733 Y18.5814
 X38.9694 Y18.8642
 X39.1838 Y19.1131
 X39.4143 Y19.3244
 X39.6594 Y19.4950
 X39.9174 Y19.6210
 X40.1864 Y19.6993
 X40.4647 Y19.7261
 X40.6083 Y19.7046
 X40.7046 Y19.6422
 X40.7539 Y19.5426
 X40.7568 Y19.4093
 X40.7137 Y19.2458
 X40.6250 Y19.0558
 X40.4914 Y18.8426
 X40.3131 Y18.6099
 X40.0914 Y18.3194
 X39.9028 Y18.0225
 X39.7463 Y17.7203
 X39.6213 Y17.4139
 X39.5268 Y17.1042
 X39.4622 Y16.7922
 X39.4267 Y16.4789
 X39.4196 Y16.1656
 X39.4403 Y15.8529
 X39.4876 Y15.5419
 X39.5612 Y15.2339
 X39.6601 Y14.9297
 X39.7837 Y14.6303
 X39.9311 Y14.3368
 X40.1017 Y14.0501
 X40.2946 Y13.7713
 X40.5090 Y13.5014
 X40.7443 Y13.2414
 X40.9997 Y12.9923
 X41.2746 Y12.7552
 X41.5679 Y12.5309
 X41.8792 Y12.3207
 X42.2076 Y12.1254
 X42.5522 Y11.9461
 X42.9125 Y11.7837
 X43.2875 Y11.6395
 X43.6768 Y11.5142
 X44.0792 Y11.4090
 X44.4943 Y11.3248
 X44.9213 Y11.2626
 X45.3592 Y11.2236
 X45.8075 Y11.2086
 X46.1329 Y11.2117
 X46.4243 Y11.2271
 X46.6843 Y11.2582
 X46.9153 Y11.3085
 X47.1200 Y11.3817
 X47.3011 Y11.4812
 X47.4610 Y11.6104
 X47.6022 Y11.7730
 X47.7276 Y11.9724
 X47.8397 Y12.2122
 X47.9410 Y12.4958
 X48.0340 Y12.8268
 X48.1214 Y13.2087
 X48.2058 Y13.6450
 X48.2899 Y14.1392
 X48.3761 Y14.6947
G0 Z5
G0 Z5
M2 (end program)
