(Botomata bottom)
G90 G21

T1 M6 (Reset tool)
(Reset coordinate systems)
G10 L2 P1 X0.0000 Y0.0000 Z0.0000
G10 L2 P2 X0.0000 Y0.0000 Z0.0000
G55 (Select Coordinate System 2)
G49 (Reset tool length compensation)
G10 L2 P2 X0.0000 Y0.0000 Z0.0000
G55 (Select Coordinate System 2)

(Pockets)
(Tool: 1/4 in Carbide End Mill)
T1 M6

(Pocket: Layer 6)
G00 Z2 S10000M03
X1.292 Y3.752
Z0
G01 Z-1.27 F600
G03X3.343 Y3.372 I5.635 J24.689
X4.054 Y-1.269 I32.958 J2.674
X3.661 Y-3.32 I24.35 J-5.729
X-1.27 Y-4.053 I2.551 J-34.117
X-3.32 Y-3.659 I-5.839 J-24.855
X-4.053 Y1.27 I-34.03 J-2.541
X-3.704 Y3.052 I-21.26 J5.088
X1.292 Y3.752 I-2.126 J33.353
G01 X1.267 Y7.789
G03X7.142 Y6.936 I7.435 J30.554
X8.092 Y-1.268 I32.014 J-0.449
X7.204 Y-7.14 I30.189 J-7.568
X-1.001 Y-8.023 I-0.612 J-32.872
G01 X-1.265 Y-8.091
G03X-7.14 Y-7.203 I-7.574 J-30.231
X-8.023 Y1.003 I-32.898 J0.61
G01 X-8.092 Y1.265
G03X-7.22 Y6.885 I-29.718 J7.488
X-1.809 Y7.202 I0.643 J35.352
X1.267 Y7.789 I-3.417 J26.259
G01 X1.268 Y11.85
G03X8.836 Y10.826 I7.564 J27.425
G01 X11.081 Y10.826
G03X11.082 Y6.4 I225.726 J-2.162
X12.161 Y-1.267 I28.165 J0.054
X11.081 Y-9.039 I27.262 J-7.749
G01 X11.081 Y-11.081
G03X6.4 Y-11.082 I-2.289 J-238.731
X-1.265 Y-12.16 I0.056 J-28.191
X-9.039 Y-11.081 I-7.744 J-27.251
G01 X-11.081 Y-11.081
G03X-11.082 Y-6.4 I-238.731 J2.289
X-12.16 Y1.265 I-28.191 J-0.056
X-11.081 Y9.039 I-27.18 J7.734
G01 X-11.081 Y10.826
G03X-6.196 Y10.828 I2.339 J252.014
X1.268 Y11.85 I-0.082 J28.369
G01 X1.269 Y15.956
G03X8.836 Y14.764 I7.56 J23.383
G01 X15.018 Y14.764
X15.018 Y6.502
G03X16.277 Y-1.268 I24.467 J-0.022
X15.018 Y-9.039 I23.22 J-7.749
G01 X15.018 Y-15.018
X6.502 Y-15.018
G03X-1.266 Y-16.276 I-0.021 J-24.479
X-9.04 Y-15.018 I-7.746 J-23.219
G01 X-15.018 Y-15.018
X-15.018 Y-6.502
G03X-16.276 Y1.265 I-24.467 J0.022
X-15.018 Y9.039 I-23.231 J7.748
G01 X-15.018 Y14.763
X-6.298 Y14.764
G03X1.269 Y15.956 I0.008 J24.562
G01 X1.27 Y20.131
G03X8.837 Y18.701 I7.57 J19.322
G01 X18.955 Y18.701
X18.955 Y6.502
G03X20.467 Y-1.268 I20.673 J-0.009
X18.955 Y-9.039 I19.182 J-7.764
G01 X18.955 Y-18.955
X6.502 Y-18.955
G03X-1.268 Y-20.467 I-0.009 J-20.673
X-9.041 Y-18.955 I-7.75 J-19.11
G01 X-18.955 Y-18.955
X-18.955 Y-6.502
G03X-20.467 Y1.268 I-20.673 J0.009
X-18.955 Y9.04 I-19.11 J7.75
G01 X-18.955 Y15.24
G03X-19.255 Y18.701 I-20.077 J0.003
G01 X-6.299 Y18.701
G03X1.27 Y20.131 I-0.003 J20.763
G01 X1.27 Y24.424
G03X8.837 Y22.638 I7.579 J15.189
G01 X22.892 Y22.638
X22.892 Y6.502
G03X24.784 Y-1.269 I16.918 J0.003
X22.892 Y-9.04 I15.015 J-7.771
G01 X22.892 Y-22.892
X6.502 Y-22.892
G03X-1.269 Y-24.784 I0.003 J-16.918
X-9.041 Y-22.892 I-7.771 J-15.015
G01 X-22.892 Y-22.892
X-22.892 Y-6.502
G03X-24.784 Y1.269 I-16.918 J-0.003
X-22.892 Y9.041 I-15.015 J7.771
G01 X-22.892 Y15.24
G03X-23.491 Y19.684 I-16.843 J-0.007
X-22.963 Y22.638 I-15.502 J4.295
G01 X-6.299 Y22.638
G03X1.27 Y24.424 I-0.01 J16.976
G01 X1.271 Y29.001
G03X8.838 Y26.575 I7.573 J10.609
G01 X26.829 Y26.575
X26.829 Y6.502
G03X29.402 Y-1.27 I13.036 J0.003
G01 X29.394 Y-1.28
G03X26.829 Y-9.041 I10.482 J-7.768
G01 X26.829 Y-26.829
X6.502 Y-26.829
G03X-1.27 Y-29.402 I0.003 J-13.036
G01 X-1.28 Y-29.394
G03X-9.041 Y-26.829 I-7.768 J-10.482
G01 X-26.829 Y-26.829
X-26.829 Y-6.502
G03X-29.402 Y1.27 I-13.036 J-0.003
G01 X-29.394 Y1.28
G03X-26.829 Y9.041 I-10.482 J7.768
G01 X-26.829 Y15.24
G03X-27.615 Y19.685 I-12.997 J-0.006
X-26.829 Y24.128 I-12.197 J4.448
G01 X-26.829 Y26.575
X-6.299 Y26.575
G03X1.271 Y29.001 I-0.006 J13.042
G01 X1.27 Y34.564
G03X8.839 Y30.512 I7.568 J5.042
G01 X30.766 Y30.512
X30.766 Y6.502
G03X35.137 Y-1.27 I9.087 J-0.004
X30.766 Y-9.042 I4.717 J-7.768
G01 X30.766 Y-30.766
X6.502 Y-30.766
G03X-1.27 Y-35.137 I-0.004 J-9.087
X-9.042 Y-30.766 I-7.768 J-4.717
G01 X-30.766 Y-30.766
X-30.766 Y-6.502
G03X-35.137 Y1.27 I-9.087 J0.004
X-30.766 Y9.042 I-4.717 J7.768
G01 X-30.766 Y15.24
G03X-31.932 Y19.684 I-9.014 J0.009
X-30.766 Y24.129 I-7.869 J4.439
G01 X-30.766 Y30.512
X-6.299 Y30.512
G03X1.27 Y34.564 I0.003 J9.089
G01 X3.752 Y40.545
G03X8.839 Y34.449 I5.082 J-0.929
G01 X34.703 Y34.449
X34.703 Y6.502
G03X40.545 Y1.378 I5.161 J-0.007
G01 X40.545 Y-3.918
G03X34.703 Y-9.042 I-0.679 J-5.117
G01 X34.703 Y-34.703
X6.502 Y-34.703
G03X1.378 Y-40.545 I-0.007 J-5.161
G01 X-3.918 Y-40.545
G03X-9.042 Y-34.703 I-5.117 J0.679
G01 X-34.703 Y-34.703
X-34.703 Y-6.502
G03X-40.545 Y-1.378 I-5.161 J0.007
G01 X-40.545 Y3.918
G03X-34.703 Y9.042 I0.679 J5.117
G01 X-34.703 Y15.24
G03X-37.246 Y19.684 I-5.132 J0.012
X-34.703 Y24.13 I-2.597 J4.436
G01 X-34.703 Y34.449
X-6.299 Y34.449
G03X-1.212 Y40.545 I0.005 J5.165
G01 X3.752 Y40.545
G00 Z2
Z2

(Pocket: Layer 5)
Z2 S10000M03
X1.275 Y2.437
Z-1.27
G01 Z-2.54
X1.94 Y2.31
G03X2.436 Y-1.273 I29.795 J2.298
G01 X2.309 Y-1.94
G03X-1.272 Y-2.436 I2.305 J-29.822
G01 X-1.94 Y-2.309
G03X-2.436 Y1.273 I-29.682 J-2.284
G01 X-2.308 Y1.94
G03X1.275 Y2.437 I-2.247 J29.365
G01 X1.275 Y6.446
G03X5.745 Y5.826 I6.258 J28.697
X6.446 Y-1.274 I31.624 J-0.462
X5.825 Y-5.745 I28.85 J-6.285
X-1.273 Y-6.446 I-0.462 J-31.606
X-5.745 Y-5.826 I-6.261 J-28.724
X-6.446 Y1.275 I-31.641 J0.461
X-5.826 Y5.745 I-28.651 J6.252
X1.275 Y6.446 I0.461 J31.641
G01 X1.272 Y10.476
G03X7.923 Y9.682 I6.654 J27.49
G01 X9.684 Y9.682
G03X9.685 Y5.279 I233.359 J-2.148
X10.476 Y-1.271 I27.741 J0.027
X9.682 Y-7.922 I27.474 J-6.652
G01 X9.682 Y-9.684
G03X5.279 Y-9.685 I-2.148 J-233.359
X-1.272 Y-10.476 I0.029 J-27.767
X-7.921 Y-9.684 I-6.625 J-27.313
G01 X-9.684 Y-9.684
G03X-9.685 Y-5.279 I-233.465 J2.149
X-10.476 Y1.272 I-27.741 J-0.026
X-9.682 Y7.922 I-27.474 J6.652
G01 X-9.682 Y9.684
G03X-5.279 Y9.685 I2.148 J233.359
X1.272 Y10.476 I-0.026 J27.741
G01 X1.272 Y14.536
G03X7.924 Y13.62 I6.675 J23.867
G01 X13.621 Y13.62
X13.621 Y5.385
G03X14.536 Y-1.271 I24.624 J-0.005
X13.62 Y-7.922 I23.867 J-6.675
G01 X13.62 Y-13.621
X5.385 Y-13.621
G03X-1.271 Y-14.536 I-0.005 J-24.624
X-7.922 Y-13.621 I-6.663 J-23.803
G01 X-13.621 Y-13.621
X-13.621 Y-5.385
G03X-14.536 Y1.272 I-24.642 J0.004
X-13.62 Y7.923 I-23.867 J6.675
G01 X-13.62 Y13.621
X-5.385 Y13.621
G03X1.272 Y14.536 I0.004 J24.642
G01 X1.271 Y18.655
G03X7.924 Y17.557 I6.667 J19.697
G01 X17.558 Y17.557
X17.558 Y5.385
G03X18.655 Y-1.27 I20.677 J-0.009
X17.557 Y-7.923 I19.697 J-6.667
G01 X17.557 Y-17.558
X5.385 Y-17.558
G03X-1.27 Y-18.655 I-0.009 J-20.677
X-7.923 Y-17.558 I-6.657 J-19.654
G01 X-17.558 Y-17.558
X-17.558 Y-5.385
G03X-18.655 Y1.271 I-20.698 J0.006
X-17.557 Y7.924 I-19.697 J6.667
G01 X-17.558 Y15.24
G03X-17.696 Y17.558 I-19.339 J0.011
G01 X-5.385 Y17.558
G03X1.271 Y18.655 I0.006 J20.698
G01 X1.27 Y22.863
G03X7.924 Y21.495 I6.658 J15.518
G01 X21.495 Y21.495
X21.495 Y5.385
G03X22.863 Y-1.269 I16.824 J-0.008
X21.495 Y-7.923 I15.518 J-6.658
G01 X21.495 Y-21.495
X5.385 Y-21.495
G03X-1.269 Y-22.863 I-0.008 J-16.824
X-7.924 Y-21.495 I-6.658 J-15.518
G01 X-21.495 Y-21.495
X-21.495 Y-5.385
G03X-22.863 Y1.27 I-16.835 J0.007
X-21.495 Y7.924 I-15.518 J6.658
G01 X-21.495 Y15.24
G03X-22.093 Y19.682 I-16.882 J-0.011
X-21.706 Y21.495 I-15.135 J4.178
G01 X-5.385 Y21.495
G03X1.27 Y22.863 I0.007 J16.835
G01 X1.269 Y27.263
G03X7.925 Y25.432 I6.664 J11.214
G01 X25.432 Y25.432
X25.432 Y5.385
G03X27.263 Y-1.269 I13.026 J0.005
X25.432 Y-7.924 I11.214 J-6.664
G01 X25.432 Y-25.432
X5.385 Y-25.432
G03X-1.269 Y-27.263 I0.005 J-13.026
X-7.924 Y-25.432 I-6.664 J-11.214
G01 X-25.432 Y-25.432
X-25.432 Y-5.385
G03X-27.263 Y1.269 I-13.026 J-0.005
X-25.432 Y7.925 I-11.214 J6.664
G01 X-25.432 Y15.24
G03X-26.217 Y19.683 I-13.005 J-0.007
X-25.432 Y24.13 I-12.258 J4.456
G01 X-25.432 Y25.432
X-5.385 Y25.432
G03X1.269 Y27.263 I-0.005 J13.026
G01 X1.27 Y32.267
G03X7.925 Y29.369 I6.655 J6.194
G01 X29.369 Y29.369
X29.369 Y5.385
G03X32.267 Y-1.27 I9.092 J0
X29.369 Y-7.925 I6.194 J-6.655
G01 X29.369 Y-29.369
X5.385 Y-29.369
G03X-1.27 Y-32.267 I0 J-9.092
X-7.924 Y-29.369 I-6.655 J-6.194
G01 X-29.369 Y-29.369
X-29.369 Y-5.385
G03X-32.267 Y1.27 I-9.092 J-0
X-29.369 Y7.925 I-6.194 J6.655
G01 X-29.369 Y15.24
G03X-30.535 Y19.684 I-9.014 J0.009
X-29.369 Y24.13 I-7.869 J4.439
G01 X-29.369 Y29.369
X-5.385 Y29.369
G03X1.27 Y32.267 I-0 J9.092
G00 Z2
X3.186 Y40.545
Z-1.27
G01 Z-2.54
G03X7.925 Y33.306 I4.734 J-2.071
G01 X33.306 Y33.306
X33.306 Y5.385
G03X40.545 Y0.646 I5.167 J-0.005
G01 X40.545 Y-3.186
G03X33.306 Y-7.925 I-2.071 J-4.734
G01 X33.306 Y-33.306
X5.385 Y-33.306
G03X0.646 Y-40.545 I-0.005 J-5.167
G01 X-3.186 Y-40.545
G03X-7.925 Y-33.306 I-4.734 J2.071
G01 X-33.306 Y-33.306
X-33.306 Y-5.385
G03X-40.545 Y-0.646 I-5.167 J0.005
G01 X-40.545 Y3.186
G03X-33.306 Y7.925 I2.071 J4.734
G01 X-33.306 Y15.24
G03X-35.849 Y19.684 I-5.132 J0.012
X-33.306 Y24.13 I-2.597 J4.436
G01 X-33.306 Y33.306
X-5.385 Y33.306
G03X-0.646 Y40.545 I0.005 J5.167
G01 X3.186 Y40.545
G00 Z2
Z2

(Pocket: Layer 4)
Z2 S10000M03
X1.81 Y1.81
Z-2.54
G01 Z-3.81
X1.81 Y-1.81
X-1.81 Y-1.81
X-1.81 Y1.81
X1.81 Y1.81
X5.747 Y5.747
X5.747 Y-5.747
X-5.747 Y-5.747
X-5.747 Y5.747
X5.747 Y5.747
X9.684 Y9.684
X9.684 Y-9.684
X-9.684 Y-9.684
X-9.684 Y9.684
X9.684 Y9.684
X13.621 Y13.621
X13.621 Y-13.621
X-13.621 Y-13.621
X-13.621 Y13.621
X13.621 Y13.621
X17.558 Y17.558
X17.558 Y-17.558
X-17.558 Y-17.558
X-17.558 Y17.558
X17.558 Y17.558
X21.495 Y21.495
X21.495 Y-21.495
X-21.495 Y-21.495
X-21.495 Y21.495
X21.495 Y21.495
X25.432 Y25.432
X25.432 Y-25.432
X-25.432 Y-25.432
X-25.432 Y25.432
X25.432 Y25.432
X29.369 Y29.369
X29.369 Y-29.369
X-29.369 Y-29.369
X-29.369 Y29.369
X29.369 Y29.369
X33.306 Y33.306
X33.306 Y-33.306
X-33.306 Y-33.306
X-33.306 Y33.306
X33.306 Y33.306
G00 Z2
Z2
X1.81 Y1.81
Z-3.81
G01 Z-5.08
X1.81 Y-1.81
X-1.81 Y-1.81
X-1.81 Y1.81
X1.81 Y1.81
X5.747 Y5.747
X5.747 Y-5.747
X-5.747 Y-5.747
X-5.747 Y5.747
X5.747 Y5.747
X9.684 Y9.684
X9.684 Y-9.684
X-9.684 Y-9.684
X-9.684 Y9.684
X9.684 Y9.684
X13.621 Y13.621
X13.621 Y-13.621
X-13.621 Y-13.621
X-13.621 Y13.621
X13.621 Y13.621
X17.558 Y17.558
X17.558 Y-17.558
X-17.558 Y-17.558
X-17.558 Y17.558
X17.558 Y17.558
X21.495 Y21.495
X21.495 Y-21.495
X-21.495 Y-21.495
X-21.495 Y21.495
X21.495 Y21.495
X25.432 Y25.432
X25.432 Y-25.432
X-25.432 Y-25.432
X-25.432 Y25.432
X25.432 Y25.432
X29.369 Y29.369
X29.369 Y-29.369
X-29.369 Y-29.369
X-29.369 Y29.369
X29.369 Y29.369
X33.306 Y33.306
X33.306 Y-33.306
X-33.306 Y-33.306
X-33.306 Y33.306
X33.306 Y33.306
G00 Z2
Z2

(Pocket: Layer 3)
Z2 S10000M03
X1.81 Y1.809
Z-5.08
G01 Z-6.096
X1.81 Y-1.809
X-1.809 Y-1.809
X-1.809 Y1.809
X1.81 Y1.809
X5.747 Y5.746
X5.747 Y-5.746
X-5.746 Y-5.746
X-5.746 Y5.746
X5.747 Y5.746
X9.684 Y9.683
X9.684 Y-9.683
X-9.683 Y-9.683
X-9.683 Y9.683
X9.684 Y9.683
X13.621 Y13.62
X13.621 Y-13.62
X-13.62 Y-13.62
X-13.62 Y13.62
X13.621 Y13.62
X17.023 Y17.557
X17.558 Y17.007
X17.558 Y-17.018
X17.006 Y-17.557
X-17.023 Y-17.557
X-17.557 Y-17.009
X-17.557 Y17.022
X-17.007 Y17.557
X17.023 Y17.557
X18.771 Y21.494
G03X20.471 Y19.66 I19.968 J16.804
G01 X21.495 Y18.766
X21.495 Y-18.768
G03X19.658 Y-20.472 I15.676 J-18.742
G01 X18.766 Y-21.494
X-18.771 Y-21.494
G03X-20.471 Y-19.66 I-19.968 J-16.804
G01 X-21.494 Y-18.767
X-21.494 Y18.772
G03X-19.657 Y20.473 I-16.127 J19.259
G01 X-18.767 Y21.494
X18.771 Y21.494
X20.643 Y25.432
G03X23.061 Y22.626 I24.102 J18.324
X25.432 Y20.641 I25.39 J27.919
G01 X25.432 Y-20.643
G03X22.626 Y-23.061 I17.586 J-23.246
X20.642 Y-25.432 I27.454 J-24.988
G01 X-20.644 Y-25.432
G03X-23.061 Y-22.626 I-23.999 J-18.228
X-25.432 Y-20.641 I-25.39 J-27.919
G01 X-25.432 Y20.643
G03X-22.626 Y23.061 I-18.567 J24.383
X-20.641 Y25.432 I-27.919 J25.39
G01 X20.643 Y25.432
X22.784 Y29.369
G03X23.892 Y27.665 I8.709 J4.45
X25.144 Y26.144 I36.055 J28.403
X26.29 Y25.019 I7.135 J6.122
X27.812 Y23.777 I28.068 J32.842
X29.369 Y22.784 I6.442 J8.384
G01 X29.369 Y-22.784
G03X27.663 Y-23.892 I4.505 J-8.804
X26.144 Y-25.144 I24.784 J-31.616
X25.019 Y-26.29 I6.122 J-7.135
X23.777 Y-27.812 I32.842 J-28.068
X22.784 Y-29.369 I8.384 J-6.442
G01 X-22.784 Y-29.369
G03X-23.892 Y-27.665 I-8.709 J-4.45
X-25.144 Y-26.144 I-36.055 J-28.403
X-26.29 Y-25.019 I-7.135 J-6.122
X-27.812 Y-23.777 I-28.068 J-32.842
X-29.369 Y-22.784 I-6.442 J-8.384
G01 X-29.369 Y22.784
G03X-27.665 Y23.892 I-4.45 J8.709
X-26.144 Y25.144 I-28.403 J36.055
X-25.019 Y26.29 I-6.122 J7.135
X-23.777 Y27.812 I-32.842 J28.068
X-22.784 Y29.369 I-8.305 J6.392
G01 X22.784 Y29.369
X25.221 Y33.306
G03X25.538 Y32.568 I3.819 J1.203
G01 X26.377 Y31
G03X26.937 Y30.161 I4.507 J2.402
G01 X28.064 Y28.786
G03X28.786 Y28.064 I3.972 J3.25
G01 X30.161 Y26.937
G03X31 Y26.377 I3.241 J3.947
G01 X32.568 Y25.538
G03X33.306 Y25.221 I1.941 J3.502
G01 X33.306 Y-25.221
G03X32.568 Y-25.538 I1.203 J-3.819
G01 X31 Y-26.377
G03X30.161 Y-26.937 I2.402 J-4.507
G01 X28.786 Y-28.064
G03X28.064 Y-28.786 I3.25 J-3.972
G01 X26.937 Y-30.161
G03X26.377 Y-31 I3.947 J-3.241
G01 X25.538 Y-32.568
G03X25.221 Y-33.306 I3.502 J-1.941
G01 X-25.221 Y-33.306
G03X-25.538 Y-32.568 I-3.819 J-1.203
G01 X-26.377 Y-31
G03X-26.937 Y-30.161 I-4.507 J-2.402
G01 X-28.064 Y-28.786
G03X-28.786 Y-28.064 I-3.972 J-3.25
G01 X-30.161 Y-26.937
G03X-31 Y-26.377 I-3.241 J-3.947
G01 X-32.568 Y-25.538
G03X-33.306 Y-25.221 I-1.941 J-3.502
G01 X-33.306 Y25.221
G03X-32.568 Y25.538 I-1.203 J3.819
G01 X-31 Y26.377
G03X-30.161 Y26.937 I-2.402 J4.507
G01 X-28.786 Y28.064
G03X-28.064 Y28.786 I-3.25 J3.972
G01 X-26.937 Y30.161
G03X-26.377 Y31 I-3.947 J3.241
G01 X-25.538 Y32.568
G03X-25.221 Y33.306 I-3.502 J1.941
G01 X25.221 Y33.306
G00 Z2
Z2
X1.81 Y1.809
Z-6.096
G01 Z-7.112
X1.81 Y-1.809
X-1.809 Y-1.809
X-1.809 Y1.809
X1.81 Y1.809
X5.747 Y5.746
X5.747 Y-5.746
X-5.746 Y-5.746
X-5.746 Y5.746
X5.747 Y5.746
X9.684 Y9.683
X9.684 Y-9.683
X-9.683 Y-9.683
X-9.683 Y9.683
X9.684 Y9.683
X13.621 Y13.62
X13.621 Y-13.62
X-13.62 Y-13.62
X-13.62 Y13.62
X13.621 Y13.62
X17.023 Y17.557
X17.558 Y17.007
X17.558 Y-17.018
X17.006 Y-17.557
X-17.023 Y-17.557
X-17.557 Y-17.009
X-17.557 Y17.022
X-17.007 Y17.557
X17.023 Y17.557
X18.771 Y21.494
G03X20.471 Y19.66 I19.968 J16.804
G01 X21.495 Y18.766
X21.495 Y-18.768
G03X19.658 Y-20.472 I15.676 J-18.742
G01 X18.766 Y-21.494
X-18.771 Y-21.494
G03X-20.471 Y-19.66 I-19.968 J-16.804
G01 X-21.494 Y-18.767
X-21.494 Y18.772
G03X-19.657 Y20.473 I-16.127 J19.259
G01 X-18.767 Y21.494
X18.771 Y21.494
X20.643 Y25.432
G03X23.061 Y22.626 I24.102 J18.324
X25.432 Y20.641 I25.39 J27.919
G01 X25.432 Y-20.643
G03X22.626 Y-23.061 I17.586 J-23.246
X20.642 Y-25.432 I27.454 J-24.988
G01 X-20.644 Y-25.432
G03X-23.061 Y-22.626 I-23.999 J-18.228
X-25.432 Y-20.641 I-25.39 J-27.919
G01 X-25.432 Y20.643
G03X-22.626 Y23.061 I-18.567 J24.383
X-20.641 Y25.432 I-27.919 J25.39
G01 X20.643 Y25.432
X22.784 Y29.369
G03X23.892 Y27.665 I8.709 J4.45
X25.144 Y26.144 I36.055 J28.403
X26.29 Y25.019 I7.135 J6.122
X27.812 Y23.777 I28.068 J32.842
X29.369 Y22.784 I6.442 J8.384
G01 X29.369 Y-22.784
G03X27.663 Y-23.892 I4.505 J-8.804
X26.144 Y-25.144 I24.784 J-31.616
X25.019 Y-26.29 I6.122 J-7.135
X23.777 Y-27.812 I32.842 J-28.068
X22.784 Y-29.369 I8.384 J-6.442
G01 X-22.784 Y-29.369
G03X-23.892 Y-27.665 I-8.709 J-4.45
X-25.144 Y-26.144 I-36.055 J-28.403
X-26.29 Y-25.019 I-7.135 J-6.122
X-27.812 Y-23.777 I-28.068 J-32.842
X-29.369 Y-22.784 I-6.442 J-8.384
G01 X-29.369 Y22.784
G03X-27.665 Y23.892 I-4.45 J8.709
X-26.144 Y25.144 I-28.403 J36.055
X-25.019 Y26.29 I-6.122 J7.135
X-23.777 Y27.812 I-32.842 J28.068
X-22.784 Y29.369 I-8.305 J6.392
G01 X22.784 Y29.369
X25.221 Y33.306
G03X25.538 Y32.568 I3.819 J1.203
G01 X26.377 Y31
G03X26.937 Y30.161 I4.507 J2.402
G01 X28.064 Y28.786
G03X28.786 Y28.064 I3.972 J3.25
G01 X30.161 Y26.937
G03X31 Y26.377 I3.241 J3.947
G01 X32.568 Y25.538
G03X33.306 Y25.221 I1.941 J3.502
G01 X33.306 Y-25.221
G03X32.568 Y-25.538 I1.203 J-3.819
G01 X31 Y-26.377
G03X30.161 Y-26.937 I2.402 J-4.507
G01 X28.786 Y-28.064
G03X28.064 Y-28.786 I3.25 J-3.972
G01 X26.937 Y-30.161
G03X26.377 Y-31 I3.947 J-3.241
G01 X25.538 Y-32.568
G03X25.221 Y-33.306 I3.502 J-1.941
G01 X-25.221 Y-33.306
G03X-25.538 Y-32.568 I-3.819 J-1.203
G01 X-26.377 Y-31
G03X-26.937 Y-30.161 I-4.507 J-2.402
G01 X-28.064 Y-28.786
G03X-28.786 Y-28.064 I-3.972 J-3.25
G01 X-30.161 Y-26.937
G03X-31 Y-26.377 I-3.241 J-3.947
G01 X-32.568 Y-25.538
G03X-33.306 Y-25.221 I-1.941 J-3.502
G01 X-33.306 Y25.221
G03X-32.568 Y25.538 I-1.203 J3.819
G01 X-31 Y26.377
G03X-30.161 Y26.937 I-2.402 J4.507
G01 X-28.786 Y28.064
G03X-28.064 Y28.786 I-3.25 J3.972
G01 X-26.937 Y30.161
G03X-26.377 Y31 I-3.947 J3.241
G01 X-25.538 Y32.568
G03X-25.221 Y33.306 I-3.502 J1.941
G01 X25.221 Y33.306
G00 Z2
Z2

(Pocket: Layer 2)
Z2 S10000M03
X29.369 Y-18.288
Z-7.112
G01 Z-8.382
X29.369 Y-22.784
G03X27.663 Y-23.892 I4.505 J-8.804
X26.144 Y-25.144 I24.784 J-31.616
X25.019 Y-26.29 I6.122 J-7.135
X23.777 Y-27.812 I32.842 J-28.068
X22.784 Y-29.369 I8.384 J-6.442
G01 X20.514 Y-29.369
X23.486 Y-26.397
G03X25.985 Y-21.671 I-6.427 J6.422
G01 X29.369 Y-18.288
G00 Z2
X-22.784 Y29.369
Z-7.112
G01 Z-8.382
X-20.513 Y29.369
X-23.486 Y26.397
G03X-25.985 Y21.671 I6.427 J-6.422
G01 X-29.369 Y18.288
X-29.369 Y22.784
G03X-27.665 Y23.892 I-4.45 J8.709
X-26.144 Y25.144 I-28.403 J36.055
X-25.019 Y26.29 I-6.122 J7.135
X-23.777 Y27.812 I-32.842 J28.068
X-22.784 Y29.369 I-8.305 J6.392
G00 Z2
X17.019 Y17.555
Z-7.112
G01 Z-8.382
G03X17.558 Y17.006 I4.366 J3.747
G01 X17.558 Y14.226
G03X14.929 Y12.005 I11.897 J-16.749
G01 X-12.007 Y-14.929
G03X-14.223 Y-17.558 I14.673 J-14.616
G01 X-17.015 Y-17.558
G03X-17.558 Y-17.014 I-6.389 J-5.834
G01 X-17.558 Y-14.226
G03X-14.929 Y-12.006 I-12.096 J16.992
G01 X12.007 Y14.929
G03X14.225 Y17.555 I-14.545 J14.534
G01 X17.019 Y17.555
X18.772 Y21.493
G03X21.218 Y18.992 I15.415 J12.629
G01 X21.495 Y18.765
X21.495 Y12.059
G03X17.713 Y9.222 I8.084 J-14.716
G01 X-9.224 Y-17.713
G03X-12.052 Y-21.495 I11.879 J-11.831
G01 X-18.766 Y-21.495
G03X-21.495 Y-18.763 I-15.775 J-13.029
G01 X-21.495 Y-12.059
G03X-17.713 Y-9.224 I-8.134 J14.791
G01 X9.224 Y17.713
G03X12.057 Y21.493 I-11.83 J11.818
G01 X18.772 Y21.493
X20.644 Y25.431
G03X22.982 Y22.711 I23.604 J17.925
X23.72 Y22.033 I12.107 J12.438
G01 X25.154 Y20.853
G03X25.432 Y20.644 I3.05 J3.768
G01 X25.432 Y9.529
G03X20.497 Y6.44 I4.29 J-12.341
G01 X-6.441 Y-20.497
G03X-9.52 Y-25.432 I9.288 J-9.223
G01 X-20.643 Y-25.432
G03X-22.132 Y-23.595 I-127.219 J-101.597
X-24.589 Y-21.31 I-15.336 J-14.027
X-25.432 Y-20.641 I-14.986 J-18.018
G01 X-25.432 Y-9.528
G03X-20.497 Y-6.441 I-4.287 J12.341
G01 X6.441 Y20.497
G03X9.528 Y25.431 I-9.259 J9.225
G01 X20.644 Y25.431
X22.784 Y29.369
G03X23.892 Y27.665 I8.709 J4.45
X25.144 Y26.144 I36.055 J28.403
X26.81 Y24.592 I9.123 J8.123
X28.548 Y23.255 I10.991 J12.49
X29.369 Y22.784 I6.204 J9.864
G01 X29.369 Y10.569
X29.369 Y6.314
G03X23.281 Y3.657 I0.347 J-9.098
G01 X-3.658 Y-23.281
G03X-6.305 Y-29.369 I6.487 J-6.44
G01 X-22.784 Y-29.369
G03X-24.446 Y-26.988 I-11.213 J-6.056
X-26.29 Y-25.019 I-9.338 J-6.897
X-27.812 Y-23.777 I-28.068 J-32.842
X-29.369 Y-22.784 I-6.442 J-8.384
G01 X-29.369 Y-6.315
G03X-23.281 Y-3.658 I-0.351 J9.109
G01 X3.658 Y23.281
G03X6.315 Y29.369 I-6.452 J6.439
G01 X22.784 Y29.369
X25.221 Y33.306
G03X25.538 Y32.568 I3.819 J1.203
G01 X26.377 Y31
G03X26.937 Y30.161 I4.507 J2.402
G01 X28.064 Y28.786
G03X28.786 Y28.064 I3.972 J3.25
G01 X30.161 Y26.937
G03X31 Y26.377 I3.241 J3.947
G01 X32.568 Y25.538
G03X33.306 Y25.221 I1.941 J3.502
G01 X33.306 Y0.944
G03X26.065 Y0.875 I-3.585 J-3.721
G01 X-0.875 Y-26.065
G03X-0.944 Y-33.306 I3.684 J-3.655
G01 X-25.221 Y-33.306
G03X-25.538 Y-32.568 I-3.819 J-1.203
G01 X-26.377 Y-31
G03X-27.484 Y-29.494 I-8.187 J-4.858
X-28.407 Y-28.407 I-11.491 J-8.822
G01 X-28.786 Y-28.064
X-30.161 Y-26.937
G03X-31 Y-26.377 I-3.241 J-3.947
G01 X-32.568 Y-25.538
G03X-33.306 Y-25.221 I-1.941 J-3.502
G01 X-33.306 Y-2.037
X-33.306 Y-0.944
G03X-26.065 Y-0.875 I3.585 J3.719
G01 X0.875 Y26.065
G03X0.944 Y33.306 I-3.65 J3.655
G01 X25.221 Y33.306
G00 Z2
X-11.011 Y33.306
Z-7.112
G01 Z-8.382
G03X-12.599 Y30.02 I3.517 J-3.726
X-15.781 Y28.534 I0.436 J-5.084
G01 X-20.703 Y23.613
G03X-22.21 Y19.88 I3.596 J-3.622
G01 X-28.861 Y13.229
G03X-32.592 Y11.723 I-0.104 J-5.116
G01 X-33.306 Y11.01
X-33.306 Y25.221
G03X-32.568 Y25.538 I-1.203 J3.819
G01 X-31 Y26.377
G03X-30.161 Y26.937 I-2.402 J4.507
G01 X-28.786 Y28.064
G03X-28.064 Y28.786 I-3.25 J3.972
G01 X-26.937 Y30.161
G03X-26.377 Y31 I-3.947 J3.241
G01 X-25.538 Y32.568
G03X-25.221 Y33.306 I-3.502 J1.941
G01 X-11.011 Y33.306
G00 Z2
X33.306 Y-11.01
Z-7.112
G01 Z-8.382
X33.306 Y-25.221
G03X32.568 Y-25.538 I1.203 J-3.819
G01 X31 Y-26.377
G03X30.161 Y-26.937 I2.402 J-4.507
G01 X28.786 Y-28.064
G03X28.064 Y-28.786 I3.25 J-3.972
G01 X26.937 Y-30.161
G03X26.377 Y-31 I3.947 J-3.241
G01 X25.538 Y-32.568
G03X25.221 Y-33.306 I3.502 J-1.941
G01 X11.011 Y-33.306
G03X12.599 Y-30.02 I-3.517 J3.726
X15.781 Y-28.534 I-0.436 J5.084
G01 X20.703 Y-23.613
G03X22.21 Y-19.88 I-3.596 J3.622
G01 X28.861 Y-13.229
G03X32.592 Y-11.723 I0.104 J5.116
G01 X33.306 Y-11.01
G00 Z2
Z2
X29.369 Y-18.288
Z-8.382
G01 Z-9.652
X29.369 Y-22.784
G03X27.663 Y-23.892 I4.505 J-8.804
X26.144 Y-25.144 I24.784 J-31.616
X25.019 Y-26.29 I6.122 J-7.135
X23.777 Y-27.812 I32.842 J-28.068
X22.784 Y-29.369 I8.384 J-6.442
G01 X20.514 Y-29.369
X23.486 Y-26.397
G03X25.985 Y-21.671 I-6.427 J6.422
G01 X29.369 Y-18.288
G00 Z2
X-22.784 Y29.369
Z-8.382
G01 Z-9.652
X-20.513 Y29.369
X-23.486 Y26.397
G03X-25.985 Y21.671 I6.427 J-6.422
G01 X-29.369 Y18.288
X-29.369 Y22.784
G03X-27.665 Y23.892 I-4.45 J8.709
X-26.144 Y25.144 I-28.403 J36.055
X-25.019 Y26.29 I-6.122 J7.135
X-23.777 Y27.812 I-32.842 J28.068
X-22.784 Y29.369 I-8.305 J6.392
G00 Z2
X17.019 Y17.555
Z-8.382
G01 Z-9.652
G03X17.558 Y17.006 I4.366 J3.747
G01 X17.558 Y14.226
G03X14.929 Y12.005 I11.897 J-16.749
G01 X-12.007 Y-14.929
G03X-14.223 Y-17.558 I14.673 J-14.616
G01 X-17.015 Y-17.558
G03X-17.558 Y-17.014 I-6.389 J-5.834
G01 X-17.558 Y-14.226
G03X-14.929 Y-12.006 I-12.096 J16.992
G01 X12.007 Y14.929
G03X14.225 Y17.555 I-14.545 J14.534
G01 X17.019 Y17.555
X18.772 Y21.493
G03X21.218 Y18.992 I15.415 J12.629
G01 X21.495 Y18.765
X21.495 Y12.059
G03X17.713 Y9.222 I8.084 J-14.716
G01 X-9.224 Y-17.713
G03X-12.052 Y-21.495 I11.879 J-11.831
G01 X-18.766 Y-21.495
G03X-21.495 Y-18.763 I-15.775 J-13.029
G01 X-21.495 Y-12.059
G03X-17.713 Y-9.224 I-8.134 J14.791
G01 X9.224 Y17.713
G03X12.057 Y21.493 I-11.83 J11.818
G01 X18.772 Y21.493
X20.644 Y25.431
G03X22.982 Y22.711 I23.604 J17.925
X23.72 Y22.033 I12.107 J12.438
G01 X25.154 Y20.853
G03X25.432 Y20.644 I3.05 J3.768
G01 X25.432 Y9.529
G03X20.497 Y6.44 I4.29 J-12.341
G01 X-6.441 Y-20.497
G03X-9.52 Y-25.432 I9.288 J-9.223
G01 X-20.643 Y-25.432
G03X-22.132 Y-23.595 I-127.219 J-101.597
X-24.589 Y-21.31 I-15.336 J-14.027
X-25.432 Y-20.641 I-14.986 J-18.018
G01 X-25.432 Y-9.528
G03X-20.497 Y-6.441 I-4.287 J12.341
G01 X6.441 Y20.497
G03X9.528 Y25.431 I-9.259 J9.225
G01 X20.644 Y25.431
X22.784 Y29.369
G03X23.892 Y27.665 I8.709 J4.45
X25.144 Y26.144 I36.055 J28.403
X26.81 Y24.592 I9.123 J8.123
X28.548 Y23.255 I10.991 J12.49
X29.369 Y22.784 I6.204 J9.864
G01 X29.369 Y10.569
X29.369 Y6.314
G03X23.281 Y3.657 I0.347 J-9.098
G01 X-3.658 Y-23.281
G03X-6.305 Y-29.369 I6.487 J-6.44
G01 X-22.784 Y-29.369
G03X-24.446 Y-26.988 I-11.213 J-6.056
X-26.29 Y-25.019 I-9.338 J-6.897
X-27.812 Y-23.777 I-28.068 J-32.842
X-29.369 Y-22.784 I-6.442 J-8.384
G01 X-29.369 Y-6.315
G03X-23.281 Y-3.658 I-0.351 J9.109
G01 X3.658 Y23.281
G03X6.315 Y29.369 I-6.452 J6.439
G01 X22.784 Y29.369
X25.221 Y33.306
G03X25.538 Y32.568 I3.819 J1.203
G01 X26.377 Y31
G03X26.937 Y30.161 I4.507 J2.402
G01 X28.064 Y28.786
G03X28.786 Y28.064 I3.972 J3.25
G01 X30.161 Y26.937
G03X31 Y26.377 I3.241 J3.947
G01 X32.568 Y25.538
G03X33.306 Y25.221 I1.941 J3.502
G01 X33.306 Y0.944
G03X26.065 Y0.875 I-3.585 J-3.721
G01 X-0.875 Y-26.065
G03X-0.944 Y-33.306 I3.684 J-3.655
G01 X-25.221 Y-33.306
G03X-25.538 Y-32.568 I-3.819 J-1.203
G01 X-26.377 Y-31
G03X-27.484 Y-29.494 I-8.187 J-4.858
X-28.407 Y-28.407 I-11.491 J-8.822
G01 X-28.786 Y-28.064
X-30.161 Y-26.937
G03X-31 Y-26.377 I-3.241 J-3.947
G01 X-32.568 Y-25.538
G03X-33.306 Y-25.221 I-1.941 J-3.502
G01 X-33.306 Y-2.037
X-33.306 Y-0.944
G03X-26.065 Y-0.875 I3.585 J3.719
G01 X0.875 Y26.065
G03X0.944 Y33.306 I-3.65 J3.655
G01 X25.221 Y33.306
G00 Z2
X-11.011 Y33.306
Z-8.382
G01 Z-9.652
G03X-12.599 Y30.02 I3.517 J-3.726
X-15.781 Y28.534 I0.436 J-5.084
G01 X-20.703 Y23.613
G03X-22.21 Y19.88 I3.596 J-3.622
G01 X-28.861 Y13.229
G03X-32.592 Y11.723 I-0.104 J-5.116
G01 X-33.306 Y11.01
X-33.306 Y25.221
G03X-32.568 Y25.538 I-1.203 J3.819
G01 X-31 Y26.377
G03X-30.161 Y26.937 I-2.402 J4.507
G01 X-28.786 Y28.064
G03X-28.064 Y28.786 I-3.25 J3.972
G01 X-26.937 Y30.161
G03X-26.377 Y31 I-3.947 J3.241
G01 X-25.538 Y32.568
G03X-25.221 Y33.306 I-3.502 J1.941
G01 X-11.011 Y33.306
G00 Z2
X33.306 Y-11.01
Z-8.382
G01 Z-9.652
X33.306 Y-25.221
G03X32.568 Y-25.538 I1.203 J-3.819
G01 X31 Y-26.377
G03X30.161 Y-26.937 I2.402 J-4.507
G01 X28.786 Y-28.064
G03X28.064 Y-28.786 I3.25 J-3.972
G01 X26.937 Y-30.161
G03X26.377 Y-31 I3.947 J-3.241
G01 X25.538 Y-32.568
G03X25.221 Y-33.306 I3.502 J-1.941
G01 X11.011 Y-33.306
G03X12.599 Y-30.02 I-3.517 J3.726
X15.781 Y-28.534 I-0.436 J5.084
G01 X20.703 Y-23.613
G03X22.21 Y-19.88 I-3.596 J3.622
G01 X28.861 Y-13.229
G03X32.592 Y-11.723 I0.104 J5.116
G01 X33.306 Y-11.01
G00 Z2
Z2
X29.369 Y-18.288
Z-9.652
G01 Z-10.922
X29.369 Y-22.784
G03X27.663 Y-23.892 I4.505 J-8.804
X26.144 Y-25.144 I24.784 J-31.616
X25.019 Y-26.29 I6.122 J-7.135
X23.777 Y-27.812 I32.842 J-28.068
X22.784 Y-29.369 I8.384 J-6.442
G01 X20.514 Y-29.369
X23.486 Y-26.397
G03X25.985 Y-21.671 I-6.427 J6.422
G01 X29.369 Y-18.288
G00 Z2
X-22.784 Y29.369
Z-9.652
G01 Z-10.922
X-20.513 Y29.369
X-23.486 Y26.397
G03X-25.985 Y21.671 I6.427 J-6.422
G01 X-29.369 Y18.288
X-29.369 Y22.784
G03X-27.665 Y23.892 I-4.45 J8.709
X-26.144 Y25.144 I-28.403 J36.055
X-25.019 Y26.29 I-6.122 J7.135
X-23.777 Y27.812 I-32.842 J28.068
X-22.784 Y29.369 I-8.305 J6.392
G00 Z2
X17.019 Y17.555
Z-9.652
G01 Z-10.922
G03X17.558 Y17.006 I4.366 J3.747
G01 X17.558 Y14.226
G03X14.929 Y12.005 I11.897 J-16.749
G01 X-12.007 Y-14.929
G03X-14.223 Y-17.558 I14.673 J-14.616
G01 X-17.015 Y-17.558
G03X-17.558 Y-17.014 I-6.389 J-5.834
G01 X-17.558 Y-14.226
G03X-14.929 Y-12.006 I-12.096 J16.992
G01 X12.007 Y14.929
G03X14.225 Y17.555 I-14.545 J14.534
G01 X17.019 Y17.555
X18.772 Y21.493
G03X21.218 Y18.992 I15.415 J12.629
G01 X21.495 Y18.765
X21.495 Y12.059
G03X17.713 Y9.222 I8.084 J-14.716
G01 X-9.224 Y-17.713
G03X-12.052 Y-21.495 I11.879 J-11.831
G01 X-18.766 Y-21.495
G03X-21.495 Y-18.763 I-15.775 J-13.029
G01 X-21.495 Y-12.059
G03X-17.713 Y-9.224 I-8.134 J14.791
G01 X9.224 Y17.713
G03X12.057 Y21.493 I-11.83 J11.818
G01 X18.772 Y21.493
X20.644 Y25.431
G03X22.982 Y22.711 I23.604 J17.925
X23.72 Y22.033 I12.107 J12.438
G01 X25.154 Y20.853
G03X25.432 Y20.644 I3.05 J3.768
G01 X25.432 Y9.529
G03X20.497 Y6.44 I4.29 J-12.341
G01 X-6.441 Y-20.497
G03X-9.52 Y-25.432 I9.288 J-9.223
G01 X-20.643 Y-25.432
G03X-22.132 Y-23.595 I-127.219 J-101.597
X-24.589 Y-21.31 I-15.336 J-14.027
X-25.432 Y-20.641 I-14.986 J-18.018
G01 X-25.432 Y-9.528
G03X-20.497 Y-6.441 I-4.287 J12.341
G01 X6.441 Y20.497
G03X9.528 Y25.431 I-9.259 J9.225
G01 X20.644 Y25.431
X22.784 Y29.369
G03X23.892 Y27.665 I8.709 J4.45
X25.144 Y26.144 I36.055 J28.403
X26.81 Y24.592 I9.123 J8.123
X28.548 Y23.255 I10.991 J12.49
X29.369 Y22.784 I6.204 J9.864
G01 X29.369 Y10.569
X29.369 Y6.314
G03X23.281 Y3.657 I0.347 J-9.098
G01 X-3.658 Y-23.281
G03X-6.305 Y-29.369 I6.487 J-6.44
G01 X-22.784 Y-29.369
G03X-24.446 Y-26.988 I-11.213 J-6.056
X-26.29 Y-25.019 I-9.338 J-6.897
X-27.812 Y-23.777 I-28.068 J-32.842
X-29.369 Y-22.784 I-6.442 J-8.384
G01 X-29.369 Y-6.315
G03X-23.281 Y-3.658 I-0.351 J9.109
G01 X3.658 Y23.281
G03X6.315 Y29.369 I-6.452 J6.439
G01 X22.784 Y29.369
X25.221 Y33.306
G03X25.538 Y32.568 I3.819 J1.203
G01 X26.377 Y31
G03X26.937 Y30.161 I4.507 J2.402
G01 X28.064 Y28.786
G03X28.786 Y28.064 I3.972 J3.25
G01 X30.161 Y26.937
G03X31 Y26.377 I3.241 J3.947
G01 X32.568 Y25.538
G03X33.306 Y25.221 I1.941 J3.502
G01 X33.306 Y0.944
G03X26.065 Y0.875 I-3.585 J-3.721
G01 X-0.875 Y-26.065
G03X-0.944 Y-33.306 I3.684 J-3.655
G01 X-25.221 Y-33.306
G03X-25.538 Y-32.568 I-3.819 J-1.203
G01 X-26.377 Y-31
G03X-27.484 Y-29.494 I-8.187 J-4.858
X-28.407 Y-28.407 I-11.491 J-8.822
G01 X-28.786 Y-28.064
X-30.161 Y-26.937
G03X-31 Y-26.377 I-3.241 J-3.947
G01 X-32.568 Y-25.538
G03X-33.306 Y-25.221 I-1.941 J-3.502
G01 X-33.306 Y-2.037
X-33.306 Y-0.944
G03X-26.065 Y-0.875 I3.585 J3.719
G01 X0.875 Y26.065
G03X0.944 Y33.306 I-3.65 J3.655
G01 X25.221 Y33.306
G00 Z2
X-11.011 Y33.306
Z-9.652
G01 Z-10.922
G03X-12.599 Y30.02 I3.517 J-3.726
X-15.781 Y28.534 I0.436 J-5.084
G01 X-20.703 Y23.613
G03X-22.21 Y19.88 I3.596 J-3.622
G01 X-28.861 Y13.229
G03X-32.592 Y11.723 I-0.104 J-5.116
G01 X-33.306 Y11.01
X-33.306 Y25.221
G03X-32.568 Y25.538 I-1.203 J3.819
G01 X-31 Y26.377
G03X-30.161 Y26.937 I-2.402 J4.507
G01 X-28.786 Y28.064
G03X-28.064 Y28.786 I-3.25 J3.972
G01 X-26.937 Y30.161
G03X-26.377 Y31 I-3.947 J3.241
G01 X-25.538 Y32.568
G03X-25.221 Y33.306 I-3.502 J1.941
G01 X-11.011 Y33.306
G00 Z2
X33.306 Y-11.01
Z-9.652
G01 Z-10.922
X33.306 Y-25.221
G03X32.568 Y-25.538 I1.203 J-3.819
G01 X31 Y-26.377
G03X30.161 Y-26.937 I2.402 J-4.507
G01 X28.786 Y-28.064
G03X28.064 Y-28.786 I3.25 J-3.972
G01 X26.937 Y-30.161
G03X26.377 Y-31 I3.947 J-3.241
G01 X25.538 Y-32.568
G03X25.221 Y-33.306 I3.502 J-1.941
G01 X11.011 Y-33.306
G03X12.599 Y-30.02 I-3.517 J3.726
X15.781 Y-28.534 I-0.436 J5.084
G01 X20.703 Y-23.613
G03X22.21 Y-19.88 I-3.596 J3.622
G01 X28.861 Y-13.229
G03X32.592 Y-11.723 I0.104 J5.116
G01 X33.306 Y-11.01
G00 Z2
Z2

(Pocket: Layer 1)
Z2 S10000M03
X29.369 Y-18.288
Z-10.922
G01 Z-12.319
X29.369 Y-22.784
G03X27.663 Y-23.892 I4.505 J-8.804
X26.144 Y-25.144 I24.784 J-31.616
X25.019 Y-26.29 I6.122 J-7.135
X23.777 Y-27.812 I32.842 J-28.068
X22.784 Y-29.369 I8.384 J-6.442
G01 X20.514 Y-29.369
X23.486 Y-26.397
G03X25.985 Y-21.671 I-6.427 J6.422
G01 X29.369 Y-18.288
G00 Z2
X-25.432 Y-20.641
Z-10.922
G01 Z-12.319
X-25.432 Y-19.96
X-19.961 Y-25.431
X-20.644 Y-25.431
G03X-23.061 Y-22.626 I-24.16 J-18.374
X-25.432 Y-20.641 I-25.39 J-27.919
G01 X-29.369 Y-22.784
X-29.369 Y-10.455
X-10.457 Y-29.368
X-22.784 Y-29.368
G03X-23.892 Y-27.665 I-8.745 J-4.478
X-25.144 Y-26.144 I-36.055 J-28.403
X-26.29 Y-25.019 I-7.135 J-6.122
X-27.812 Y-23.777 I-28.068 J-32.842
X-29.369 Y-22.784 I-6.442 J-8.384
G00 Z2
X20.644 Y25.431
Z-10.922
G01 Z-12.319
G03X22.982 Y22.711 I23.604 J17.925
X23.72 Y22.033 I12.107 J12.438
G01 X25.154 Y20.853
G03X25.432 Y20.644 I3.05 J3.768
G01 X25.432 Y19.961
X19.962 Y25.431
X20.644 Y25.431
X22.784 Y29.368
G03X23.892 Y27.665 I8.745 J4.478
X25.144 Y26.144 I36.055 J28.403
X26.81 Y24.592 I9.123 J8.123
X28.548 Y23.255 I10.991 J12.49
X29.369 Y22.784 I6.204 J9.864
G01 X29.369 Y10.569
X29.369 Y10.457
X13.764 Y26.062
X13.561 Y26.265
G03X11.975 Y27.85 I-1424.915 J-1424.228
X10.457 Y29.368 I-416.439 J-414.921
G01 X15.662 Y29.368
X17.986 Y29.368
X18.701 Y29.368
X18.993 Y29.368
X22.784 Y29.368
G00 Z2
X-22.784 Y29.369
Z-10.922
G01 Z-12.319
X-20.513 Y29.369
X-23.486 Y26.397
G03X-25.985 Y21.671 I6.427 J-6.422
G01 X-29.369 Y18.288
X-29.369 Y22.784
G03X-27.665 Y23.892 I-4.45 J8.709
X-26.144 Y25.144 I-28.403 J36.055
X-25.019 Y26.29 I-6.122 J7.135
X-23.777 Y27.812 I-32.842 J28.068
X-22.784 Y29.369 I-8.305 J6.392
G00 Z2
X25.221 Y33.306
Z-10.922
G01 Z-12.319
G03X25.538 Y32.568 I3.819 J1.203
G01 X26.377 Y31
G03X26.937 Y30.161 I4.507 J2.402
G01 X28.064 Y28.786
G03X28.786 Y28.064 I3.972 J3.25
G01 X30.161 Y26.937
G03X31 Y26.377 I3.241 J3.947
G01 X32.568 Y25.538
G03X33.306 Y25.221 I1.941 J3.502
G01 X33.306 Y0.953
X0.953 Y33.306
X25.221 Y33.306
G00 Z2
X-11.011 Y33.306
Z-10.922
G01 Z-12.319
G03X-12.599 Y30.02 I3.517 J-3.726
X-15.781 Y28.534 I0.436 J-5.084
G01 X-20.703 Y23.613
G03X-22.21 Y19.88 I3.596 J-3.622
G01 X-28.861 Y13.229
G03X-32.592 Y11.723 I-0.104 J-5.116
G01 X-33.306 Y11.01
X-33.306 Y25.221
G03X-32.568 Y25.538 I-1.203 J3.819
G01 X-31 Y26.377
G03X-30.161 Y26.937 I-2.402 J4.507
G01 X-28.786 Y28.064
G03X-28.064 Y28.786 I-3.25 J3.972
G01 X-26.937 Y30.161
G03X-26.377 Y31 I-3.947 J3.241
G01 X-25.538 Y32.568
G03X-25.221 Y33.306 I-3.502 J1.941
G01 X-11.011 Y33.306
G00 Z2
X-3.861 Y21.328
Z-10.922
G01 Z-12.319
X21.328 Y-3.861
X21.283 Y-3.906
X-3.906 Y21.283
X-3.861 Y21.328
G00 Z2
X-12.302 Y12.887
Z-10.922
G01 Z-12.319
X12.887 Y-12.302
X12.841 Y-12.348
X-12.348 Y12.841
X-12.302 Y12.887
G00 Z2
X-21.283 Y3.906
Z-10.922
G01 Z-12.319
G02X3.906 Y-21.283 I-11496.194 J-11521.383
G01 X3.861 Y-21.328
G03X-20.849 Y3.382 I-25994.609 J-25969.899
G01 X-21.328 Y3.861
X-21.283 Y3.906
G00 Z2
X-33.306 Y-2.037
Z-10.922
G01 Z-12.319
X-33.306 Y-0.953
G03X-29.523 Y-4.735 I12386.05 J12385.542
X-0.953 Y-33.306 I48656.412 J48626.139
G01 X-25.221 Y-33.306
G03X-25.538 Y-32.568 I-3.819 J-1.203
G01 X-26.377 Y-31
G03X-26.937 Y-30.161 I-4.507 J-2.402
G01 X-28.064 Y-28.786
G03X-28.786 Y-28.064 I-3.972 J-3.25
G01 X-30.161 Y-26.937
G03X-31 Y-26.377 I-3.241 J-3.947
G01 X-32.568 Y-25.538
G03X-33.306 Y-25.221 I-1.941 J-3.502
G01 X-33.306 Y-19.785
X-33.306 Y-17.788
X-33.306 Y-11.901
X-33.306 Y-2.037
G00 Z2
X33.306 Y-11.01
Z-10.922
G01 Z-12.319
X33.306 Y-25.221
G03X32.568 Y-25.538 I1.203 J-3.819
G01 X31 Y-26.377
G03X30.161 Y-26.937 I2.402 J-4.507
G01 X28.786 Y-28.064
G03X28.064 Y-28.786 I3.25 J-3.972
G01 X26.937 Y-30.161
G03X26.377 Y-31 I3.947 J-3.241
G01 X25.538 Y-32.568
G03X25.221 Y-33.306 I3.502 J-1.941
G01 X11.011 Y-33.306
G03X12.599 Y-30.02 I-3.517 J3.726
X15.781 Y-28.534 I-0.436 J5.084
G01 X20.703 Y-23.613
G03X22.21 Y-19.88 I-3.596 J3.622
G01 X28.861 Y-13.229
G03X32.592 Y-11.723 I0.104 J5.116
G01 X33.306 Y-11.01
G00 Z2
Z2
X29.369 Y-18.288
Z-12.319
G01 Z-13.716
X29.369 Y-22.784
G03X27.663 Y-23.892 I4.505 J-8.804
X26.144 Y-25.144 I24.784 J-31.616
X25.019 Y-26.29 I6.122 J-7.135
X23.777 Y-27.812 I32.842 J-28.068
X22.784 Y-29.369 I8.384 J-6.442
G01 X20.514 Y-29.369
X23.486 Y-26.397
G03X25.985 Y-21.671 I-6.427 J6.422
G01 X29.369 Y-18.288
G00 Z2
X-25.432 Y-20.641
Z-12.319
G01 Z-13.716
X-25.432 Y-19.96
X-19.961 Y-25.431
X-20.644 Y-25.431
G03X-23.061 Y-22.626 I-24.16 J-18.374
X-25.432 Y-20.641 I-25.39 J-27.919
G01 X-29.369 Y-22.784
X-29.369 Y-10.455
X-10.457 Y-29.368
X-22.784 Y-29.368
G03X-23.892 Y-27.665 I-8.745 J-4.478
X-25.144 Y-26.144 I-36.055 J-28.403
X-26.29 Y-25.019 I-7.135 J-6.122
X-27.812 Y-23.777 I-28.068 J-32.842
X-29.369 Y-22.784 I-6.442 J-8.384
G00 Z2
X20.644 Y25.431
Z-12.319
G01 Z-13.716
G03X22.982 Y22.711 I23.604 J17.925
X23.72 Y22.033 I12.107 J12.438
G01 X25.154 Y20.853
G03X25.432 Y20.644 I3.05 J3.768
G01 X25.432 Y19.961
X19.962 Y25.431
X20.644 Y25.431
X22.784 Y29.368
G03X23.892 Y27.665 I8.745 J4.478
X25.144 Y26.144 I36.055 J28.403
X26.81 Y24.592 I9.123 J8.123
X28.548 Y23.255 I10.991 J12.49
X29.369 Y22.784 I6.204 J9.864
G01 X29.369 Y10.569
X29.369 Y10.457
X13.764 Y26.062
X13.561 Y26.265
G03X11.975 Y27.85 I-1424.915 J-1424.228
X10.457 Y29.368 I-416.439 J-414.921
G01 X15.662 Y29.368
X17.986 Y29.368
X18.701 Y29.368
X18.993 Y29.368
X22.784 Y29.368
G00 Z2
X-22.784 Y29.369
Z-12.319
G01 Z-13.716
X-20.513 Y29.369
X-23.486 Y26.397
G03X-25.985 Y21.671 I6.427 J-6.422
G01 X-29.369 Y18.288
X-29.369 Y22.784
G03X-27.665 Y23.892 I-4.45 J8.709
X-26.144 Y25.144 I-28.403 J36.055
X-25.019 Y26.29 I-6.122 J7.135
X-23.777 Y27.812 I-32.842 J28.068
X-22.784 Y29.369 I-8.305 J6.392
G00 Z2
X25.221 Y33.306
Z-12.319
G01 Z-13.716
G03X25.538 Y32.568 I3.819 J1.203
G01 X26.377 Y31
G03X26.937 Y30.161 I4.507 J2.402
G01 X28.064 Y28.786
G03X28.786 Y28.064 I3.972 J3.25
G01 X30.161 Y26.937
G03X31 Y26.377 I3.241 J3.947
G01 X32.568 Y25.538
G03X33.306 Y25.221 I1.941 J3.502
G01 X33.306 Y0.953
X0.953 Y33.306
X25.221 Y33.306
G00 Z2
X-11.011 Y33.306
Z-12.319
G01 Z-13.716
G03X-12.599 Y30.02 I3.517 J-3.726
X-15.781 Y28.534 I0.436 J-5.084
G01 X-20.703 Y23.613
G03X-22.21 Y19.88 I3.596 J-3.622
G01 X-28.861 Y13.229
G03X-32.592 Y11.723 I-0.104 J-5.116
G01 X-33.306 Y11.01
X-33.306 Y25.221
G03X-32.568 Y25.538 I-1.203 J3.819
G01 X-31 Y26.377
G03X-30.161 Y26.937 I-2.402 J4.507
G01 X-28.786 Y28.064
G03X-28.064 Y28.786 I-3.25 J3.972
G01 X-26.937 Y30.161
G03X-26.377 Y31 I-3.947 J3.241
G01 X-25.538 Y32.568
G03X-25.221 Y33.306 I-3.502 J1.941
G01 X-11.011 Y33.306
G00 Z2
X-3.861 Y21.328
Z-12.319
G01 Z-13.716
X21.328 Y-3.861
X21.283 Y-3.906
X-3.906 Y21.283
X-3.861 Y21.328
G00 Z2
X-12.302 Y12.887
Z-12.319
G01 Z-13.716
X12.887 Y-12.302
X12.841 Y-12.348
X-12.348 Y12.841
X-12.302 Y12.887
G00 Z2
X-21.283 Y3.906
Z-12.319
G01 Z-13.716
G02X3.906 Y-21.283 I-11496.194 J-11521.383
G01 X3.861 Y-21.328
G03X-20.849 Y3.382 I-25994.609 J-25969.899
G01 X-21.328 Y3.861
X-21.283 Y3.906
G00 Z2
X-33.306 Y-2.037
Z-12.319
G01 Z-13.716
X-33.306 Y-0.953
G03X-29.523 Y-4.735 I12386.05 J12385.542
X-0.953 Y-33.306 I48656.412 J48626.139
G01 X-25.221 Y-33.306
G03X-25.538 Y-32.568 I-3.819 J-1.203
G01 X-26.377 Y-31
G03X-26.937 Y-30.161 I-4.507 J-2.402
G01 X-28.064 Y-28.786
G03X-28.786 Y-28.064 I-3.972 J-3.25
G01 X-30.161 Y-26.937
G03X-31 Y-26.377 I-3.241 J-3.947
G01 X-32.568 Y-25.538
G03X-33.306 Y-25.221 I-1.941 J-3.502
G01 X-33.306 Y-19.785
X-33.306 Y-17.788
X-33.306 Y-11.901
X-33.306 Y-2.037
G00 Z2
X33.306 Y-11.01
Z-12.319
G01 Z-13.716
X33.306 Y-25.221
G03X32.568 Y-25.538 I1.203 J-3.819
G01 X31 Y-26.377
G03X30.161 Y-26.937 I2.402 J-4.507
G01 X28.786 Y-28.064
G03X28.064 Y-28.786 I3.25 J-3.972
G01 X26.937 Y-30.161
G03X26.377 Y-31 I3.947 J-3.241
G01 X25.538 Y-32.568
G03X25.221 Y-33.306 I3.502 J-1.941
G01 X11.011 Y-33.306
G03X12.599 Y-30.02 I-3.517 J3.726
X15.781 Y-28.534 I-0.436 J5.084
G01 X20.703 Y-23.613
G03X22.21 Y-19.88 I-3.596 J3.622
G01 X28.861 Y-13.229
G03X32.592 Y-11.723 I0.104 J5.116
G01 X33.306 Y-11.01
G00 Z2
Z2
X29.369 Y-18.288
Z-13.716
G01 Z-15.113
X29.369 Y-22.784
G03X27.663 Y-23.892 I4.505 J-8.804
X26.144 Y-25.144 I24.784 J-31.616
X25.019 Y-26.29 I6.122 J-7.135
X23.777 Y-27.812 I32.842 J-28.068
X22.784 Y-29.369 I8.384 J-6.442
G01 X20.514 Y-29.369
X23.486 Y-26.397
G03X25.985 Y-21.671 I-6.427 J6.422
G01 X29.369 Y-18.288
G00 Z2
X-25.432 Y-20.641
Z-13.716
G01 Z-15.113
X-25.432 Y-19.96
X-19.961 Y-25.431
X-20.644 Y-25.431
G03X-23.061 Y-22.626 I-24.16 J-18.374
X-25.432 Y-20.641 I-25.39 J-27.919
G01 X-29.369 Y-22.784
X-29.369 Y-10.455
X-10.457 Y-29.368
X-22.784 Y-29.368
G03X-23.892 Y-27.665 I-8.745 J-4.478
X-25.144 Y-26.144 I-36.055 J-28.403
X-26.29 Y-25.019 I-7.135 J-6.122
X-27.812 Y-23.777 I-28.068 J-32.842
X-29.369 Y-22.784 I-6.442 J-8.384
G00 Z2
X20.644 Y25.431
Z-13.716
G01 Z-15.113
G03X22.982 Y22.711 I23.604 J17.925
X23.72 Y22.033 I12.107 J12.438
G01 X25.154 Y20.853
G03X25.432 Y20.644 I3.05 J3.768
G01 X25.432 Y19.961
X19.962 Y25.431
X20.644 Y25.431
X22.784 Y29.368
G03X23.892 Y27.665 I8.745 J4.478
X25.144 Y26.144 I36.055 J28.403
X26.81 Y24.592 I9.123 J8.123
X28.548 Y23.255 I10.991 J12.49
X29.369 Y22.784 I6.204 J9.864
G01 X29.369 Y10.569
X29.369 Y10.457
X13.764 Y26.062
X13.561 Y26.265
G03X11.975 Y27.85 I-1424.915 J-1424.228
X10.457 Y29.368 I-416.439 J-414.921
G01 X15.662 Y29.368
X17.986 Y29.368
X18.701 Y29.368
X18.993 Y29.368
X22.784 Y29.368
G00 Z2
X-22.784 Y29.369
Z-13.716
G01 Z-15.113
X-20.513 Y29.369
X-23.486 Y26.397
G03X-25.985 Y21.671 I6.427 J-6.422
G01 X-29.369 Y18.288
X-29.369 Y22.784
G03X-27.665 Y23.892 I-4.45 J8.709
X-26.144 Y25.144 I-28.403 J36.055
X-25.019 Y26.29 I-6.122 J7.135
X-23.777 Y27.812 I-32.842 J28.068
X-22.784 Y29.369 I-8.305 J6.392
G00 Z2
X25.221 Y33.306
Z-13.716
G01 Z-15.113
G03X25.538 Y32.568 I3.819 J1.203
G01 X26.377 Y31
G03X26.937 Y30.161 I4.507 J2.402
G01 X28.064 Y28.786
G03X28.786 Y28.064 I3.972 J3.25
G01 X30.161 Y26.937
G03X31 Y26.377 I3.241 J3.947
G01 X32.568 Y25.538
G03X33.306 Y25.221 I1.941 J3.502
G01 X33.306 Y0.953
X0.953 Y33.306
X25.221 Y33.306
G00 Z2
X-11.011 Y33.306
Z-13.716
G01 Z-15.113
G03X-12.599 Y30.02 I3.517 J-3.726
X-15.781 Y28.534 I0.436 J-5.084
G01 X-20.703 Y23.613
G03X-22.21 Y19.88 I3.596 J-3.622
G01 X-28.861 Y13.229
G03X-32.592 Y11.723 I-0.104 J-5.116
G01 X-33.306 Y11.01
X-33.306 Y25.221
G03X-32.568 Y25.538 I-1.203 J3.819
G01 X-31 Y26.377
G03X-30.161 Y26.937 I-2.402 J4.507
G01 X-28.786 Y28.064
G03X-28.064 Y28.786 I-3.25 J3.972
G01 X-26.937 Y30.161
G03X-26.377 Y31 I-3.947 J3.241
G01 X-25.538 Y32.568
G03X-25.221 Y33.306 I-3.502 J1.941
G01 X-11.011 Y33.306
G00 Z2
X-3.861 Y21.328
Z-13.716
G01 Z-15.113
X21.328 Y-3.861
X21.283 Y-3.906
X-3.906 Y21.283
X-3.861 Y21.328
G00 Z2
X-12.302 Y12.887
Z-13.716
G01 Z-15.113
X12.887 Y-12.302
X12.841 Y-12.348
X-12.348 Y12.841
X-12.302 Y12.887
G00 Z2
X-21.283 Y3.906
Z-13.716
G01 Z-15.113
G02X3.906 Y-21.283 I-11496.194 J-11521.383
G01 X3.861 Y-21.328
G03X-20.849 Y3.382 I-25994.609 J-25969.899
G01 X-21.328 Y3.861
X-21.283 Y3.906
G00 Z2
X-33.306 Y-2.037
Z-13.716
G01 Z-15.113
X-33.306 Y-0.953
G03X-29.523 Y-4.735 I12386.05 J12385.542
X-0.953 Y-33.306 I48656.412 J48626.139
G01 X-25.221 Y-33.306
G03X-25.538 Y-32.568 I-3.819 J-1.203
G01 X-26.377 Y-31
G03X-26.937 Y-30.161 I-4.507 J-2.402
G01 X-28.064 Y-28.786
G03X-28.786 Y-28.064 I-3.972 J-3.25
G01 X-30.161 Y-26.937
G03X-31 Y-26.377 I-3.241 J-3.947
G01 X-32.568 Y-25.538
G03X-33.306 Y-25.221 I-1.941 J-3.502
G01 X-33.306 Y-19.785
X-33.306 Y-17.788
X-33.306 Y-11.901
X-33.306 Y-2.037
G00 Z2
X33.306 Y-11.01
Z-13.716
G01 Z-15.113
X33.306 Y-25.221
G03X32.568 Y-25.538 I1.203 J-3.819
G01 X31 Y-26.377
G03X30.161 Y-26.937 I2.402 J-4.507
G01 X28.786 Y-28.064
G03X28.064 Y-28.786 I3.25 J-3.972
G01 X26.937 Y-30.161
G03X26.377 Y-31 I3.947 J-3.241
G01 X25.538 Y-32.568
G03X25.221 Y-33.306 I3.502 J-1.941
G01 X11.011 Y-33.306
G03X12.599 Y-30.02 I-3.517 J3.726
X15.781 Y-28.534 I-0.436 J5.084
G01 X20.703 Y-23.613
G03X22.21 Y-19.88 I-3.596 J3.622
G01 X28.861 Y-13.229
G03X32.592 Y-11.723 I0.104 J5.116
G01 X33.306 Y-11.01
G00 Z2
Z2
X29.369 Y-18.288
Z-15.113
G01 Z-16.51
X29.369 Y-22.784
G03X27.663 Y-23.892 I4.505 J-8.804
X26.144 Y-25.144 I24.784 J-31.616
X25.019 Y-26.29 I6.122 J-7.135
X23.777 Y-27.812 I32.842 J-28.068
X22.784 Y-29.369 I8.384 J-6.442
G01 X20.514 Y-29.369
X23.486 Y-26.397
G03X25.985 Y-21.671 I-6.427 J6.422
G01 X29.369 Y-18.288
G00 Z2
X-25.432 Y-20.641
Z-15.113
G01 Z-16.51
X-25.432 Y-19.96
X-19.961 Y-25.431
X-20.644 Y-25.431
G03X-23.061 Y-22.626 I-24.16 J-18.374
X-25.432 Y-20.641 I-25.39 J-27.919
G01 X-29.369 Y-22.784
X-29.369 Y-10.455
X-10.457 Y-29.368
X-22.784 Y-29.368
G03X-23.892 Y-27.665 I-8.745 J-4.478
X-25.144 Y-26.144 I-36.055 J-28.403
X-26.29 Y-25.019 I-7.135 J-6.122
X-27.812 Y-23.777 I-28.068 J-32.842
X-29.369 Y-22.784 I-6.442 J-8.384
G00 Z2
X20.644 Y25.431
Z-15.113
G01 Z-16.51
G03X22.982 Y22.711 I23.604 J17.925
X23.72 Y22.033 I12.107 J12.438
G01 X25.154 Y20.853
G03X25.432 Y20.644 I3.05 J3.768
G01 X25.432 Y19.961
X19.962 Y25.431
X20.644 Y25.431
X22.784 Y29.368
G03X23.892 Y27.665 I8.745 J4.478
X25.144 Y26.144 I36.055 J28.403
X26.81 Y24.592 I9.123 J8.123
X28.548 Y23.255 I10.991 J12.49
X29.369 Y22.784 I6.204 J9.864
G01 X29.369 Y10.569
X29.369 Y10.457
X13.764 Y26.062
X13.561 Y26.265
G03X11.975 Y27.85 I-1424.915 J-1424.228
X10.457 Y29.368 I-416.439 J-414.921
G01 X15.662 Y29.368
X17.986 Y29.368
X18.701 Y29.368
X18.993 Y29.368
X22.784 Y29.368
G00 Z2
X-22.784 Y29.369
Z-15.113
G01 Z-16.51
X-20.513 Y29.369
X-23.486 Y26.397
G03X-25.985 Y21.671 I6.427 J-6.422
G01 X-29.369 Y18.288
X-29.369 Y22.784
G03X-27.665 Y23.892 I-4.45 J8.709
X-26.144 Y25.144 I-28.403 J36.055
X-25.019 Y26.29 I-6.122 J7.135
X-23.777 Y27.812 I-32.842 J28.068
X-22.784 Y29.369 I-8.305 J6.392
G00 Z2
X25.221 Y33.306
Z-15.113
G01 Z-16.51
G03X25.538 Y32.568 I3.819 J1.203
G01 X26.377 Y31
G03X26.937 Y30.161 I4.507 J2.402
G01 X28.064 Y28.786
G03X28.786 Y28.064 I3.972 J3.25
G01 X30.161 Y26.937
G03X31 Y26.377 I3.241 J3.947
G01 X32.568 Y25.538
G03X33.306 Y25.221 I1.941 J3.502
G01 X33.306 Y0.953
X0.953 Y33.306
X25.221 Y33.306
G00 Z2
X-11.011 Y33.306
Z-15.113
G01 Z-16.51
G03X-12.599 Y30.02 I3.517 J-3.726
X-15.781 Y28.534 I0.436 J-5.084
G01 X-20.703 Y23.613
G03X-22.21 Y19.88 I3.596 J-3.622
G01 X-28.861 Y13.229
G03X-32.592 Y11.723 I-0.104 J-5.116
G01 X-33.306 Y11.01
X-33.306 Y25.221
G03X-32.568 Y25.538 I-1.203 J3.819
G01 X-31 Y26.377
G03X-30.161 Y26.937 I-2.402 J4.507
G01 X-28.786 Y28.064
G03X-28.064 Y28.786 I-3.25 J3.972
G01 X-26.937 Y30.161
G03X-26.377 Y31 I-3.947 J3.241
G01 X-25.538 Y32.568
G03X-25.221 Y33.306 I-3.502 J1.941
G01 X-11.011 Y33.306
G00 Z2
X-3.861 Y21.328
Z-15.113
G01 Z-16.51
X21.328 Y-3.861
X21.283 Y-3.906
X-3.906 Y21.283
X-3.861 Y21.328
G00 Z2
X-12.302 Y12.887
Z-15.113
G01 Z-16.51
X12.887 Y-12.302
X12.841 Y-12.348
X-12.348 Y12.841
X-12.302 Y12.887
G00 Z2
X-21.283 Y3.906
Z-15.113
G01 Z-16.51
G02X3.906 Y-21.283 I-11496.194 J-11521.383
G01 X3.861 Y-21.328
G03X-20.849 Y3.382 I-25994.609 J-25969.899
G01 X-21.328 Y3.861
X-21.283 Y3.906
G00 Z2
X-33.306 Y-2.037
Z-15.113
G01 Z-16.51
X-33.306 Y-0.953
G03X-29.523 Y-4.735 I12386.05 J12385.542
X-0.953 Y-33.306 I48656.412 J48626.139
G01 X-25.221 Y-33.306
G03X-25.538 Y-32.568 I-3.819 J-1.203
G01 X-26.377 Y-31
G03X-26.937 Y-30.161 I-4.507 J-2.402
G01 X-28.064 Y-28.786
G03X-28.786 Y-28.064 I-3.972 J-3.25
G01 X-30.161 Y-26.937
G03X-31 Y-26.377 I-3.241 J-3.947
G01 X-32.568 Y-25.538
G03X-33.306 Y-25.221 I-1.941 J-3.502
G01 X-33.306 Y-19.785
X-33.306 Y-17.788
X-33.306 Y-11.901
X-33.306 Y-2.037
G00 Z2
X33.306 Y-11.01
Z-15.113
G01 Z-16.51
X33.306 Y-25.221
G03X32.568 Y-25.538 I1.203 J-3.819
G01 X31 Y-26.377
G03X30.161 Y-26.937 I2.402 J-4.507
G01 X28.786 Y-28.064
G03X28.064 Y-28.786 I3.25 J-3.972
G01 X26.937 Y-30.161
G03X26.377 Y-31 I3.947 J-3.241
G01 X25.538 Y-32.568
G03X25.221 Y-33.306 I3.502 J-1.941
G01 X11.011 Y-33.306
G03X12.599 Y-30.02 I-3.517 J3.726
X15.781 Y-28.534 I-0.436 J5.084
G01 X20.703 Y-23.613
G03X22.21 Y-19.88 I-3.596 J3.622
G01 X28.861 Y-13.229
G03X32.592 Y-11.723 I0.104 J5.116
G01 X33.306 Y-11.01
G00 Z2
Z2
G10 L2 P2 X0.0000 Y-101.6000 Z0.0000
G55 (Select Coordinate System 2)

(Pockets)

(Pocket: Layer 6)
Z2 S10000M03
X1.292 Y3.752
Z0
G01 Z-1.27
G03X3.343 Y3.372 I5.635 J24.689
X4.054 Y-1.269 I32.958 J2.674
X3.661 Y-3.32 I24.35 J-5.729
X-1.27 Y-4.053 I2.551 J-34.117
X-3.32 Y-3.659 I-5.839 J-24.855
X-4.053 Y1.27 I-34.03 J-2.541
X-3.704 Y3.052 I-21.26 J5.088
X1.292 Y3.752 I-2.126 J33.353
G01 X1.267 Y7.789
G03X7.142 Y6.936 I7.435 J30.554
X8.092 Y-1.268 I32.014 J-0.449
X7.204 Y-7.14 I30.189 J-7.568
X-1.001 Y-8.023 I-0.612 J-32.872
G01 X-1.265 Y-8.091
G03X-7.14 Y-7.203 I-7.574 J-30.231
X-8.023 Y1.003 I-32.898 J0.61
G01 X-8.092 Y1.265
G03X-7.22 Y6.885 I-29.718 J7.488
X-1.809 Y7.202 I0.643 J35.352
X1.267 Y7.789 I-3.417 J26.259
G01 X1.268 Y11.85
G03X8.836 Y10.826 I7.564 J27.425
G01 X11.081 Y10.826
G03X11.082 Y6.4 I225.726 J-2.162
X12.161 Y-1.267 I28.165 J0.054
X11.081 Y-9.039 I27.262 J-7.749
G01 X11.081 Y-11.081
G03X6.4 Y-11.082 I-2.289 J-238.731
X-1.265 Y-12.16 I0.056 J-28.191
X-9.039 Y-11.081 I-7.744 J-27.251
G01 X-11.081 Y-11.081
G03X-11.082 Y-6.4 I-238.731 J2.289
X-12.16 Y1.265 I-28.191 J-0.056
X-11.081 Y9.039 I-27.18 J7.734
G01 X-11.081 Y10.826
G03X-6.196 Y10.828 I2.339 J252.014
X1.268 Y11.85 I-0.082 J28.369
G01 X1.269 Y15.956
G03X8.836 Y14.764 I7.56 J23.383
G01 X15.018 Y14.764
X15.018 Y6.502
G03X16.277 Y-1.268 I24.467 J-0.022
X15.018 Y-9.039 I23.22 J-7.749
G01 X15.018 Y-15.018
X6.502 Y-15.018
G03X-1.266 Y-16.276 I-0.021 J-24.479
X-9.04 Y-15.018 I-7.746 J-23.219
G01 X-15.018 Y-15.018
X-15.018 Y-6.502
G03X-16.276 Y1.265 I-24.467 J0.022
X-15.018 Y9.039 I-23.231 J7.748
G01 X-15.018 Y14.763
X-6.298 Y14.764
G03X1.269 Y15.956 I0.008 J24.562
G01 X1.27 Y20.131
G03X8.837 Y18.701 I7.57 J19.322
G01 X18.955 Y18.701
X18.955 Y6.502
G03X20.467 Y-1.268 I20.673 J-0.009
X18.955 Y-9.039 I19.182 J-7.764
G01 X18.955 Y-18.955
X6.502 Y-18.955
G03X-1.268 Y-20.467 I-0.009 J-20.673
X-9.041 Y-18.955 I-7.75 J-19.11
G01 X-18.955 Y-18.955
X-18.955 Y-6.502
G03X-20.467 Y1.268 I-20.673 J0.009
X-18.955 Y9.04 I-19.11 J7.75
G01 X-18.955 Y15.24
G03X-19.255 Y18.701 I-20.077 J0.003
G01 X-6.299 Y18.701
G03X1.27 Y20.131 I-0.003 J20.763
G01 X1.27 Y24.424
G03X8.837 Y22.638 I7.579 J15.189
G01 X22.892 Y22.638
X22.892 Y6.502
G03X24.784 Y-1.269 I16.918 J0.003
X22.892 Y-9.04 I15.015 J-7.771
G01 X22.892 Y-22.892
X6.502 Y-22.892
G03X-1.269 Y-24.784 I0.003 J-16.918
X-9.041 Y-22.892 I-7.771 J-15.015
G01 X-22.892 Y-22.892
X-22.892 Y-6.502
G03X-24.784 Y1.269 I-16.918 J-0.003
X-22.892 Y9.041 I-15.015 J7.771
G01 X-22.892 Y15.24
G03X-23.491 Y19.684 I-16.843 J-0.007
X-22.963 Y22.638 I-15.502 J4.295
G01 X-6.299 Y22.638
G03X1.27 Y24.424 I-0.01 J16.976
G01 X1.271 Y29.001
G03X8.838 Y26.575 I7.573 J10.609
G01 X26.829 Y26.575
X26.829 Y6.502
G03X29.402 Y-1.27 I13.036 J0.003
G01 X29.394 Y-1.28
G03X26.829 Y-9.041 I10.482 J-7.768
G01 X26.829 Y-26.829
X6.502 Y-26.829
G03X-1.27 Y-29.402 I0.003 J-13.036
G01 X-1.28 Y-29.394
G03X-9.041 Y-26.829 I-7.768 J-10.482
G01 X-26.829 Y-26.829
X-26.829 Y-6.502
G03X-29.402 Y1.27 I-13.036 J-0.003
G01 X-29.394 Y1.28
G03X-26.829 Y9.041 I-10.482 J7.768
G01 X-26.829 Y15.24
G03X-27.615 Y19.685 I-12.997 J-0.006
X-26.829 Y24.128 I-12.197 J4.448
G01 X-26.829 Y26.575
X-6.299 Y26.575
G03X1.271 Y29.001 I-0.006 J13.042
G01 X1.27 Y34.564
G03X8.839 Y30.512 I7.568 J5.042
G01 X30.766 Y30.512
X30.766 Y6.502
G03X35.137 Y-1.27 I9.087 J-0.004
X30.766 Y-9.042 I4.717 J-7.768
G01 X30.766 Y-30.766
X6.502 Y-30.766
G03X-1.27 Y-35.137 I-0.004 J-9.087
X-9.042 Y-30.766 I-7.768 J-4.717
G01 X-30.766 Y-30.766
X-30.766 Y-6.502
G03X-35.137 Y1.27 I-9.087 J0.004
X-30.766 Y9.042 I-4.717 J7.768
G01 X-30.766 Y15.24
G03X-31.932 Y19.684 I-9.014 J0.009
X-30.766 Y24.129 I-7.869 J4.439
G01 X-30.766 Y30.512
X-6.299 Y30.512
G03X1.27 Y34.564 I0.003 J9.089
G01 X3.752 Y40.545
G03X8.839 Y34.449 I5.082 J-0.929
G01 X34.703 Y34.449
X34.703 Y6.502
G03X40.545 Y1.378 I5.161 J-0.007
G01 X40.545 Y-3.918
G03X34.703 Y-9.042 I-0.679 J-5.117
G01 X34.703 Y-34.703
X6.502 Y-34.703
G03X1.378 Y-40.545 I-0.007 J-5.161
G01 X-3.918 Y-40.545
G03X-9.042 Y-34.703 I-5.117 J0.679
G01 X-34.703 Y-34.703
X-34.703 Y-6.502
G03X-40.545 Y-1.378 I-5.161 J0.007
G01 X-40.545 Y3.918
G03X-34.703 Y9.042 I0.679 J5.117
G01 X-34.703 Y15.24
G03X-37.246 Y19.684 I-5.132 J0.012
X-34.703 Y24.13 I-2.597 J4.436
G01 X-34.703 Y34.449
X-6.299 Y34.449
G03X-1.212 Y40.545 I0.005 J5.165
G01 X3.752 Y40.545
G00 Z2
Z2

(Pocket: Layer 5)
Z2 S10000M03
X1.275 Y2.437
Z-1.27
G01 Z-2.54
X1.94 Y2.31
G03X2.436 Y-1.273 I29.795 J2.298
G01 X2.309 Y-1.94
G03X-1.272 Y-2.436 I2.305 J-29.822
G01 X-1.94 Y-2.309
G03X-2.436 Y1.273 I-29.682 J-2.284
G01 X-2.308 Y1.94
G03X1.275 Y2.437 I-2.247 J29.365
G01 X1.275 Y6.446
G03X5.745 Y5.826 I6.258 J28.697
X6.446 Y-1.274 I31.624 J-0.462
X5.825 Y-5.745 I28.85 J-6.285
X-1.273 Y-6.446 I-0.462 J-31.606
X-5.745 Y-5.826 I-6.261 J-28.724
X-6.446 Y1.275 I-31.641 J0.461
X-5.826 Y5.745 I-28.651 J6.252
X1.275 Y6.446 I0.461 J31.641
G01 X1.272 Y10.476
G03X7.923 Y9.682 I6.654 J27.49
G01 X9.684 Y9.682
G03X9.685 Y5.279 I233.359 J-2.148
X10.476 Y-1.271 I27.741 J0.027
X9.682 Y-7.922 I27.474 J-6.652
G01 X9.682 Y-9.684
G03X5.279 Y-9.685 I-2.148 J-233.359
X-1.272 Y-10.476 I0.029 J-27.767
X-7.921 Y-9.684 I-6.625 J-27.313
G01 X-9.684 Y-9.684
G03X-9.685 Y-5.279 I-233.465 J2.149
X-10.476 Y1.272 I-27.741 J-0.026
X-9.682 Y7.922 I-27.474 J6.652
G01 X-9.682 Y9.684
G03X-5.279 Y9.685 I2.148 J233.359
X1.272 Y10.476 I-0.026 J27.741
G01 X1.272 Y14.536
G03X7.924 Y13.62 I6.675 J23.867
G01 X13.621 Y13.62
X13.621 Y5.385
G03X14.536 Y-1.271 I24.624 J-0.005
X13.62 Y-7.922 I23.867 J-6.675
G01 X13.62 Y-13.621
X5.385 Y-13.621
G03X-1.271 Y-14.536 I-0.005 J-24.624
X-7.922 Y-13.621 I-6.663 J-23.803
G01 X-13.621 Y-13.621
X-13.621 Y-5.385
G03X-14.536 Y1.272 I-24.642 J0.004
X-13.62 Y7.923 I-23.867 J6.675
G01 X-13.62 Y13.621
X-5.385 Y13.621
G03X1.272 Y14.536 I0.004 J24.642
G01 X1.271 Y18.655
G03X7.924 Y17.557 I6.667 J19.697
G01 X17.558 Y17.557
X17.558 Y5.385
G03X18.655 Y-1.27 I20.677 J-0.009
X17.557 Y-7.923 I19.697 J-6.667
G01 X17.557 Y-17.558
X5.385 Y-17.558
G03X-1.27 Y-18.655 I-0.009 J-20.677
X-7.923 Y-17.558 I-6.657 J-19.654
G01 X-17.558 Y-17.558
X-17.558 Y-5.385
G03X-18.655 Y1.271 I-20.698 J0.006
X-17.557 Y7.924 I-19.697 J6.667
G01 X-17.558 Y15.24
G03X-17.696 Y17.558 I-19.339 J0.011
G01 X-5.385 Y17.558
G03X1.271 Y18.655 I0.006 J20.698
G01 X1.27 Y22.863
G03X7.924 Y21.495 I6.658 J15.518
G01 X21.495 Y21.495
X21.495 Y5.385
G03X22.863 Y-1.269 I16.824 J-0.008
X21.495 Y-7.923 I15.518 J-6.658
G01 X21.495 Y-21.495
X5.385 Y-21.495
G03X-1.269 Y-22.863 I-0.008 J-16.824
X-7.924 Y-21.495 I-6.658 J-15.518
G01 X-21.495 Y-21.495
X-21.495 Y-5.385
G03X-22.863 Y1.27 I-16.835 J0.007
X-21.495 Y7.924 I-15.518 J6.658
G01 X-21.495 Y15.24
G03X-22.093 Y19.682 I-16.882 J-0.011
X-21.706 Y21.495 I-15.135 J4.178
G01 X-5.385 Y21.495
G03X1.27 Y22.863 I0.007 J16.835
G01 X1.269 Y27.263
G03X7.925 Y25.432 I6.664 J11.214
G01 X25.432 Y25.432
X25.432 Y5.385
G03X27.263 Y-1.269 I13.026 J0.005
X25.432 Y-7.924 I11.214 J-6.664
G01 X25.432 Y-25.432
X5.385 Y-25.432
G03X-1.269 Y-27.263 I0.005 J-13.026
X-7.924 Y-25.432 I-6.664 J-11.214
G01 X-25.432 Y-25.432
X-25.432 Y-5.385
G03X-27.263 Y1.269 I-13.026 J-0.005
X-25.432 Y7.925 I-11.214 J6.664
G01 X-25.432 Y15.24
G03X-26.217 Y19.683 I-13.005 J-0.007
X-25.432 Y24.13 I-12.258 J4.456
G01 X-25.432 Y25.432
X-5.385 Y25.432
G03X1.269 Y27.263 I-0.005 J13.026
G01 X1.27 Y32.267
G03X7.925 Y29.369 I6.655 J6.194
G01 X29.369 Y29.369
X29.369 Y5.385
G03X32.267 Y-1.27 I9.092 J0
X29.369 Y-7.925 I6.194 J-6.655
G01 X29.369 Y-29.369
X5.385 Y-29.369
G03X-1.27 Y-32.267 I0 J-9.092
X-7.924 Y-29.369 I-6.655 J-6.194
G01 X-29.369 Y-29.369
X-29.369 Y-5.385
G03X-32.267 Y1.27 I-9.092 J-0
X-29.369 Y7.925 I-6.194 J6.655
G01 X-29.369 Y15.24
G03X-30.535 Y19.684 I-9.014 J0.009
X-29.369 Y24.13 I-7.869 J4.439
G01 X-29.369 Y29.369
X-5.385 Y29.369
G03X1.27 Y32.267 I-0 J9.092
G00 Z2
X3.186 Y40.545
Z-1.27
G01 Z-2.54
G03X7.925 Y33.306 I4.734 J-2.071
G01 X33.306 Y33.306
X33.306 Y5.385
G03X40.545 Y0.646 I5.167 J-0.005
G01 X40.545 Y-3.186
G03X33.306 Y-7.925 I-2.071 J-4.734
G01 X33.306 Y-33.306
X5.385 Y-33.306
G03X0.646 Y-40.545 I-0.005 J-5.167
G01 X-3.186 Y-40.545
G03X-7.925 Y-33.306 I-4.734 J2.071
G01 X-33.306 Y-33.306
X-33.306 Y-5.385
G03X-40.545 Y-0.646 I-5.167 J0.005
G01 X-40.545 Y3.186
G03X-33.306 Y7.925 I2.071 J4.734
G01 X-33.306 Y15.24
G03X-35.849 Y19.684 I-5.132 J0.012
X-33.306 Y24.13 I-2.597 J4.436
G01 X-33.306 Y33.306
X-5.385 Y33.306
G03X-0.646 Y40.545 I0.005 J5.167
G01 X3.186 Y40.545
G00 Z2
Z2

(Pocket: Layer 4)
Z2 S10000M03
X1.81 Y1.81
Z-2.54
G01 Z-3.81
X1.81 Y-1.81
X-1.81 Y-1.81
X-1.81 Y1.81
X1.81 Y1.81
X5.747 Y5.747
X5.747 Y-5.747
X-5.747 Y-5.747
X-5.747 Y5.747
X5.747 Y5.747
X9.684 Y9.684
X9.684 Y-9.684
X-9.684 Y-9.684
X-9.684 Y9.684
X9.684 Y9.684
X13.621 Y13.621
X13.621 Y-13.621
X-13.621 Y-13.621
X-13.621 Y13.621
X13.621 Y13.621
X17.558 Y17.558
X17.558 Y-17.558
X-17.558 Y-17.558
X-17.558 Y17.558
X17.558 Y17.558
X21.495 Y21.495
X21.495 Y-21.495
X-21.495 Y-21.495
X-21.495 Y21.495
X21.495 Y21.495
X25.432 Y25.432
X25.432 Y-25.432
X-25.432 Y-25.432
X-25.432 Y25.432
X25.432 Y25.432
X29.369 Y29.369
X29.369 Y-29.369
X-29.369 Y-29.369
X-29.369 Y29.369
X29.369 Y29.369
X33.306 Y33.306
X33.306 Y-33.306
X-33.306 Y-33.306
X-33.306 Y33.306
X33.306 Y33.306
G00 Z2
Z2
X1.81 Y1.81
Z-3.81
G01 Z-5.08
X1.81 Y-1.81
X-1.81 Y-1.81
X-1.81 Y1.81
X1.81 Y1.81
X5.747 Y5.747
X5.747 Y-5.747
X-5.747 Y-5.747
X-5.747 Y5.747
X5.747 Y5.747
X9.684 Y9.684
X9.684 Y-9.684
X-9.684 Y-9.684
X-9.684 Y9.684
X9.684 Y9.684
X13.621 Y13.621
X13.621 Y-13.621
X-13.621 Y-13.621
X-13.621 Y13.621
X13.621 Y13.621
X17.558 Y17.558
X17.558 Y-17.558
X-17.558 Y-17.558
X-17.558 Y17.558
X17.558 Y17.558
X21.495 Y21.495
X21.495 Y-21.495
X-21.495 Y-21.495
X-21.495 Y21.495
X21.495 Y21.495
X25.432 Y25.432
X25.432 Y-25.432
X-25.432 Y-25.432
X-25.432 Y25.432
X25.432 Y25.432
X29.369 Y29.369
X29.369 Y-29.369
X-29.369 Y-29.369
X-29.369 Y29.369
X29.369 Y29.369
X33.306 Y33.306
X33.306 Y-33.306
X-33.306 Y-33.306
X-33.306 Y33.306
X33.306 Y33.306
G00 Z2
Z2

(Pocket: Layer 3)
Z2 S10000M03
X1.81 Y1.809
Z-5.08
G01 Z-6.096
X1.81 Y-1.809
X-1.809 Y-1.809
X-1.809 Y1.809
X1.81 Y1.809
X5.747 Y5.746
X5.747 Y-5.746
X-5.746 Y-5.746
X-5.746 Y5.746
X5.747 Y5.746
X9.684 Y9.683
X9.684 Y-9.683
X-9.683 Y-9.683
X-9.683 Y9.683
X9.684 Y9.683
X13.621 Y13.62
X13.621 Y-13.62
X-13.62 Y-13.62
X-13.62 Y13.62
X13.621 Y13.62
X17.023 Y17.557
X17.558 Y17.007
X17.558 Y-17.018
X17.006 Y-17.557
X-17.023 Y-17.557
X-17.557 Y-17.009
X-17.557 Y17.022
X-17.007 Y17.557
X17.023 Y17.557
X18.771 Y21.494
G03X20.471 Y19.66 I19.968 J16.804
G01 X21.495 Y18.766
X21.495 Y-18.768
G03X19.658 Y-20.472 I15.676 J-18.742
G01 X18.766 Y-21.494
X-18.771 Y-21.494
G03X-20.471 Y-19.66 I-19.968 J-16.804
G01 X-21.494 Y-18.767
X-21.494 Y18.772
G03X-19.657 Y20.473 I-16.127 J19.259
G01 X-18.767 Y21.494
X18.771 Y21.494
X20.643 Y25.432
G03X23.061 Y22.626 I24.102 J18.324
X25.432 Y20.641 I25.39 J27.919
G01 X25.432 Y-20.643
G03X22.626 Y-23.061 I17.586 J-23.246
X20.642 Y-25.432 I27.454 J-24.988
G01 X-20.644 Y-25.432
G03X-23.061 Y-22.626 I-23.999 J-18.228
X-25.432 Y-20.641 I-25.39 J-27.919
G01 X-25.432 Y20.643
G03X-22.626 Y23.061 I-18.567 J24.383
X-20.641 Y25.432 I-27.919 J25.39
G01 X20.643 Y25.432
X22.784 Y29.369
G03X23.892 Y27.665 I8.709 J4.45
X25.144 Y26.144 I36.055 J28.403
X26.29 Y25.019 I7.135 J6.122
X27.812 Y23.777 I28.068 J32.842
X29.369 Y22.784 I6.442 J8.384
G01 X29.369 Y-22.784
G03X27.663 Y-23.892 I4.505 J-8.804
X26.144 Y-25.144 I24.784 J-31.616
X25.019 Y-26.29 I6.122 J-7.135
X23.777 Y-27.812 I32.842 J-28.068
X22.784 Y-29.369 I8.384 J-6.442
G01 X-22.784 Y-29.369
G03X-23.892 Y-27.665 I-8.709 J-4.45
X-25.144 Y-26.144 I-36.055 J-28.403
X-26.29 Y-25.019 I-7.135 J-6.122
X-27.812 Y-23.777 I-28.068 J-32.842
X-29.369 Y-22.784 I-6.442 J-8.384
G01 X-29.369 Y22.784
G03X-27.665 Y23.892 I-4.45 J8.709
X-26.144 Y25.144 I-28.403 J36.055
X-25.019 Y26.29 I-6.122 J7.135
X-23.777 Y27.812 I-32.842 J28.068
X-22.784 Y29.369 I-8.305 J6.392
G01 X22.784 Y29.369
X25.221 Y33.306
G03X25.538 Y32.568 I3.819 J1.203
G01 X26.377 Y31
G03X26.937 Y30.161 I4.507 J2.402
G01 X28.064 Y28.786
G03X28.786 Y28.064 I3.972 J3.25
G01 X30.161 Y26.937
G03X31 Y26.377 I3.241 J3.947
G01 X32.568 Y25.538
G03X33.306 Y25.221 I1.941 J3.502
G01 X33.306 Y-25.221
G03X32.568 Y-25.538 I1.203 J-3.819
G01 X31 Y-26.377
G03X30.161 Y-26.937 I2.402 J-4.507
G01 X28.786 Y-28.064
G03X28.064 Y-28.786 I3.25 J-3.972
G01 X26.937 Y-30.161
G03X26.377 Y-31 I3.947 J-3.241
G01 X25.538 Y-32.568
G03X25.221 Y-33.306 I3.502 J-1.941
G01 X-25.221 Y-33.306
G03X-25.538 Y-32.568 I-3.819 J-1.203
G01 X-26.377 Y-31
G03X-26.937 Y-30.161 I-4.507 J-2.402
G01 X-28.064 Y-28.786
G03X-28.786 Y-28.064 I-3.972 J-3.25
G01 X-30.161 Y-26.937
G03X-31 Y-26.377 I-3.241 J-3.947
G01 X-32.568 Y-25.538
G03X-33.306 Y-25.221 I-1.941 J-3.502
G01 X-33.306 Y25.221
G03X-32.568 Y25.538 I-1.203 J3.819
G01 X-31 Y26.377
G03X-30.161 Y26.937 I-2.402 J4.507
G01 X-28.786 Y28.064
G03X-28.064 Y28.786 I-3.25 J3.972
G01 X-26.937 Y30.161
G03X-26.377 Y31 I-3.947 J3.241
G01 X-25.538 Y32.568
G03X-25.221 Y33.306 I-3.502 J1.941
G01 X25.221 Y33.306
G00 Z2
Z2
X1.81 Y1.809
Z-6.096
G01 Z-7.112
X1.81 Y-1.809
X-1.809 Y-1.809
X-1.809 Y1.809
X1.81 Y1.809
X5.747 Y5.746
X5.747 Y-5.746
X-5.746 Y-5.746
X-5.746 Y5.746
X5.747 Y5.746
X9.684 Y9.683
X9.684 Y-9.683
X-9.683 Y-9.683
X-9.683 Y9.683
X9.684 Y9.683
X13.621 Y13.62
X13.621 Y-13.62
X-13.62 Y-13.62
X-13.62 Y13.62
X13.621 Y13.62
X17.023 Y17.557
X17.558 Y17.007
X17.558 Y-17.018
X17.006 Y-17.557
X-17.023 Y-17.557
X-17.557 Y-17.009
X-17.557 Y17.022
X-17.007 Y17.557
X17.023 Y17.557
X18.771 Y21.494
G03X20.471 Y19.66 I19.968 J16.804
G01 X21.495 Y18.766
X21.495 Y-18.768
G03X19.658 Y-20.472 I15.676 J-18.742
G01 X18.766 Y-21.494
X-18.771 Y-21.494
G03X-20.471 Y-19.66 I-19.968 J-16.804
G01 X-21.494 Y-18.767
X-21.494 Y18.772
G03X-19.657 Y20.473 I-16.127 J19.259
G01 X-18.767 Y21.494
X18.771 Y21.494
X20.643 Y25.432
G03X23.061 Y22.626 I24.102 J18.324
X25.432 Y20.641 I25.39 J27.919
G01 X25.432 Y-20.643
G03X22.626 Y-23.061 I17.586 J-23.246
X20.642 Y-25.432 I27.454 J-24.988
G01 X-20.644 Y-25.432
G03X-23.061 Y-22.626 I-23.999 J-18.228
X-25.432 Y-20.641 I-25.39 J-27.919
G01 X-25.432 Y20.643
G03X-22.626 Y23.061 I-18.567 J24.383
X-20.641 Y25.432 I-27.919 J25.39
G01 X20.643 Y25.432
X22.784 Y29.369
G03X23.892 Y27.665 I8.709 J4.45
X25.144 Y26.144 I36.055 J28.403
X26.29 Y25.019 I7.135 J6.122
X27.812 Y23.777 I28.068 J32.842
X29.369 Y22.784 I6.442 J8.384
G01 X29.369 Y-22.784
G03X27.663 Y-23.892 I4.505 J-8.804
X26.144 Y-25.144 I24.784 J-31.616
X25.019 Y-26.29 I6.122 J-7.135
X23.777 Y-27.812 I32.842 J-28.068
X22.784 Y-29.369 I8.384 J-6.442
G01 X-22.784 Y-29.369
G03X-23.892 Y-27.665 I-8.709 J-4.45
X-25.144 Y-26.144 I-36.055 J-28.403
X-26.29 Y-25.019 I-7.135 J-6.122
X-27.812 Y-23.777 I-28.068 J-32.842
X-29.369 Y-22.784 I-6.442 J-8.384
G01 X-29.369 Y22.784
G03X-27.665 Y23.892 I-4.45 J8.709
X-26.144 Y25.144 I-28.403 J36.055
X-25.019 Y26.29 I-6.122 J7.135
X-23.777 Y27.812 I-32.842 J28.068
X-22.784 Y29.369 I-8.305 J6.392
G01 X22.784 Y29.369
X25.221 Y33.306
G03X25.538 Y32.568 I3.819 J1.203
G01 X26.377 Y31
G03X26.937 Y30.161 I4.507 J2.402
G01 X28.064 Y28.786
G03X28.786 Y28.064 I3.972 J3.25
G01 X30.161 Y26.937
G03X31 Y26.377 I3.241 J3.947
G01 X32.568 Y25.538
G03X33.306 Y25.221 I1.941 J3.502
G01 X33.306 Y-25.221
G03X32.568 Y-25.538 I1.203 J-3.819
G01 X31 Y-26.377
G03X30.161 Y-26.937 I2.402 J-4.507
G01 X28.786 Y-28.064
G03X28.064 Y-28.786 I3.25 J-3.972
G01 X26.937 Y-30.161
G03X26.377 Y-31 I3.947 J-3.241
G01 X25.538 Y-32.568
G03X25.221 Y-33.306 I3.502 J-1.941
G01 X-25.221 Y-33.306
G03X-25.538 Y-32.568 I-3.819 J-1.203
G01 X-26.377 Y-31
G03X-26.937 Y-30.161 I-4.507 J-2.402
G01 X-28.064 Y-28.786
G03X-28.786 Y-28.064 I-3.972 J-3.25
G01 X-30.161 Y-26.937
G03X-31 Y-26.377 I-3.241 J-3.947
G01 X-32.568 Y-25.538
G03X-33.306 Y-25.221 I-1.941 J-3.502
G01 X-33.306 Y25.221
G03X-32.568 Y25.538 I-1.203 J3.819
G01 X-31 Y26.377
G03X-30.161 Y26.937 I-2.402 J4.507
G01 X-28.786 Y28.064
G03X-28.064 Y28.786 I-3.25 J3.972
G01 X-26.937 Y30.161
G03X-26.377 Y31 I-3.947 J3.241
G01 X-25.538 Y32.568
G03X-25.221 Y33.306 I-3.502 J1.941
G01 X25.221 Y33.306
G00 Z2
Z2

(Pocket: Layer 2)
Z2 S10000M03
X29.369 Y-18.288
Z-7.112
G01 Z-8.382
X29.369 Y-22.784
G03X27.663 Y-23.892 I4.505 J-8.804
X26.144 Y-25.144 I24.784 J-31.616
X25.019 Y-26.29 I6.122 J-7.135
X23.777 Y-27.812 I32.842 J-28.068
X22.784 Y-29.369 I8.384 J-6.442
G01 X20.514 Y-29.369
X23.486 Y-26.397
G03X25.985 Y-21.671 I-6.427 J6.422
G01 X29.369 Y-18.288
G00 Z2
X-22.784 Y29.369
Z-7.112
G01 Z-8.382
X-20.513 Y29.369
X-23.486 Y26.397
G03X-25.985 Y21.671 I6.427 J-6.422
G01 X-29.369 Y18.288
X-29.369 Y22.784
G03X-27.665 Y23.892 I-4.45 J8.709
X-26.144 Y25.144 I-28.403 J36.055
X-25.019 Y26.29 I-6.122 J7.135
X-23.777 Y27.812 I-32.842 J28.068
X-22.784 Y29.369 I-8.305 J6.392
G00 Z2
X17.019 Y17.555
Z-7.112
G01 Z-8.382
G03X17.558 Y17.006 I4.366 J3.747
G01 X17.558 Y14.226
G03X14.929 Y12.005 I11.897 J-16.749
G01 X-12.007 Y-14.929
G03X-14.223 Y-17.558 I14.673 J-14.616
G01 X-17.015 Y-17.558
G03X-17.558 Y-17.014 I-6.389 J-5.834
G01 X-17.558 Y-14.226
G03X-14.929 Y-12.006 I-12.096 J16.992
G01 X12.007 Y14.929
G03X14.225 Y17.555 I-14.545 J14.534
G01 X17.019 Y17.555
X18.772 Y21.493
G03X21.218 Y18.992 I15.415 J12.629
G01 X21.495 Y18.765
X21.495 Y12.059
G03X17.713 Y9.222 I8.084 J-14.716
G01 X-9.224 Y-17.713
G03X-12.052 Y-21.495 I11.879 J-11.831
G01 X-18.766 Y-21.495
G03X-21.495 Y-18.763 I-15.775 J-13.029
G01 X-21.495 Y-12.059
G03X-17.713 Y-9.224 I-8.134 J14.791
G01 X9.224 Y17.713
G03X12.057 Y21.493 I-11.83 J11.818
G01 X18.772 Y21.493
X20.644 Y25.431
G03X22.982 Y22.711 I23.604 J17.925
X23.72 Y22.033 I12.107 J12.438
G01 X25.154 Y20.853
G03X25.432 Y20.644 I3.05 J3.768
G01 X25.432 Y9.529
G03X20.497 Y6.44 I4.29 J-12.341
G01 X-6.441 Y-20.497
G03X-9.52 Y-25.432 I9.288 J-9.223
G01 X-20.643 Y-25.432
G03X-22.132 Y-23.595 I-127.219 J-101.597
X-24.589 Y-21.31 I-15.336 J-14.027
X-25.432 Y-20.641 I-14.986 J-18.018
G01 X-25.432 Y-9.528
G03X-20.497 Y-6.441 I-4.287 J12.341
G01 X6.441 Y20.497
G03X9.528 Y25.431 I-9.259 J9.225
G01 X20.644 Y25.431
X22.784 Y29.369
G03X23.892 Y27.665 I8.709 J4.45
X25.144 Y26.144 I36.055 J28.403
X26.81 Y24.592 I9.123 J8.123
X28.548 Y23.255 I10.991 J12.49
X29.369 Y22.784 I6.204 J9.864
G01 X29.369 Y10.569
X29.369 Y6.314
G03X23.281 Y3.657 I0.347 J-9.098
G01 X-3.658 Y-23.281
G03X-6.305 Y-29.369 I6.487 J-6.44
G01 X-22.784 Y-29.369
G03X-24.446 Y-26.988 I-11.213 J-6.056
X-26.29 Y-25.019 I-9.338 J-6.897
X-27.812 Y-23.777 I-28.068 J-32.842
X-29.369 Y-22.784 I-6.442 J-8.384
G01 X-29.369 Y-6.315
G03X-23.281 Y-3.658 I-0.351 J9.109
G01 X3.658 Y23.281
G03X6.315 Y29.369 I-6.452 J6.439
G01 X22.784 Y29.369
X25.221 Y33.306
G03X25.538 Y32.568 I3.819 J1.203
G01 X26.377 Y31
G03X26.937 Y30.161 I4.507 J2.402
G01 X28.064 Y28.786
G03X28.786 Y28.064 I3.972 J3.25
G01 X30.161 Y26.937
G03X31 Y26.377 I3.241 J3.947
G01 X32.568 Y25.538
G03X33.306 Y25.221 I1.941 J3.502
G01 X33.306 Y0.944
G03X26.065 Y0.875 I-3.585 J-3.721
G01 X-0.875 Y-26.065
G03X-0.944 Y-33.306 I3.684 J-3.655
G01 X-25.221 Y-33.306
G03X-25.538 Y-32.568 I-3.819 J-1.203
G01 X-26.377 Y-31
G03X-27.484 Y-29.494 I-8.187 J-4.858
X-28.407 Y-28.407 I-11.491 J-8.822
G01 X-28.786 Y-28.064
X-30.161 Y-26.937
G03X-31 Y-26.377 I-3.241 J-3.947
G01 X-32.568 Y-25.538
G03X-33.306 Y-25.221 I-1.941 J-3.502
G01 X-33.306 Y-2.037
X-33.306 Y-0.944
G03X-26.065 Y-0.875 I3.585 J3.719
G01 X0.875 Y26.065
G03X0.944 Y33.306 I-3.65 J3.655
G01 X25.221 Y33.306
G00 Z2
X-11.011 Y33.306
Z-7.112
G01 Z-8.382
G03X-12.599 Y30.02 I3.517 J-3.726
X-15.781 Y28.534 I0.436 J-5.084
G01 X-20.703 Y23.613
G03X-22.21 Y19.88 I3.596 J-3.622
G01 X-28.861 Y13.229
G03X-32.592 Y11.723 I-0.104 J-5.116
G01 X-33.306 Y11.01
X-33.306 Y25.221
G03X-32.568 Y25.538 I-1.203 J3.819
G01 X-31 Y26.377
G03X-30.161 Y26.937 I-2.402 J4.507
G01 X-28.786 Y28.064
G03X-28.064 Y28.786 I-3.25 J3.972
G01 X-26.937 Y30.161
G03X-26.377 Y31 I-3.947 J3.241
G01 X-25.538 Y32.568
G03X-25.221 Y33.306 I-3.502 J1.941
G01 X-11.011 Y33.306
G00 Z2
X33.306 Y-11.01
Z-7.112
G01 Z-8.382
X33.306 Y-25.221
G03X32.568 Y-25.538 I1.203 J-3.819
G01 X31 Y-26.377
G03X30.161 Y-26.937 I2.402 J-4.507
G01 X28.786 Y-28.064
G03X28.064 Y-28.786 I3.25 J-3.972
G01 X26.937 Y-30.161
G03X26.377 Y-31 I3.947 J-3.241
G01 X25.538 Y-32.568
G03X25.221 Y-33.306 I3.502 J-1.941
G01 X11.011 Y-33.306
G03X12.599 Y-30.02 I-3.517 J3.726
X15.781 Y-28.534 I-0.436 J5.084
G01 X20.703 Y-23.613
G03X22.21 Y-19.88 I-3.596 J3.622
G01 X28.861 Y-13.229
G03X32.592 Y-11.723 I0.104 J5.116
G01 X33.306 Y-11.01
G00 Z2
Z2
X29.369 Y-18.288
Z-8.382
G01 Z-9.652
X29.369 Y-22.784
G03X27.663 Y-23.892 I4.505 J-8.804
X26.144 Y-25.144 I24.784 J-31.616
X25.019 Y-26.29 I6.122 J-7.135
X23.777 Y-27.812 I32.842 J-28.068
X22.784 Y-29.369 I8.384 J-6.442
G01 X20.514 Y-29.369
X23.486 Y-26.397
G03X25.985 Y-21.671 I-6.427 J6.422
G01 X29.369 Y-18.288
G00 Z2
X-22.784 Y29.369
Z-8.382
G01 Z-9.652
X-20.513 Y29.369
X-23.486 Y26.397
G03X-25.985 Y21.671 I6.427 J-6.422
G01 X-29.369 Y18.288
X-29.369 Y22.784
G03X-27.665 Y23.892 I-4.45 J8.709
X-26.144 Y25.144 I-28.403 J36.055
X-25.019 Y26.29 I-6.122 J7.135
X-23.777 Y27.812 I-32.842 J28.068
X-22.784 Y29.369 I-8.305 J6.392
G00 Z2
X17.019 Y17.555
Z-8.382
G01 Z-9.652
G03X17.558 Y17.006 I4.366 J3.747
G01 X17.558 Y14.226
G03X14.929 Y12.005 I11.897 J-16.749
G01 X-12.007 Y-14.929
G03X-14.223 Y-17.558 I14.673 J-14.616
G01 X-17.015 Y-17.558
G03X-17.558 Y-17.014 I-6.389 J-5.834
G01 X-17.558 Y-14.226
G03X-14.929 Y-12.006 I-12.096 J16.992
G01 X12.007 Y14.929
G03X14.225 Y17.555 I-14.545 J14.534
G01 X17.019 Y17.555
X18.772 Y21.493
G03X21.218 Y18.992 I15.415 J12.629
G01 X21.495 Y18.765
X21.495 Y12.059
G03X17.713 Y9.222 I8.084 J-14.716
G01 X-9.224 Y-17.713
G03X-12.052 Y-21.495 I11.879 J-11.831
G01 X-18.766 Y-21.495
G03X-21.495 Y-18.763 I-15.775 J-13.029
G01 X-21.495 Y-12.059
G03X-17.713 Y-9.224 I-8.134 J14.791
G01 X9.224 Y17.713
G03X12.057 Y21.493 I-11.83 J11.818
G01 X18.772 Y21.493
X20.644 Y25.431
G03X22.982 Y22.711 I23.604 J17.925
X23.72 Y22.033 I12.107 J12.438
G01 X25.154 Y20.853
G03X25.432 Y20.644 I3.05 J3.768
G01 X25.432 Y9.529
G03X20.497 Y6.44 I4.29 J-12.341
G01 X-6.441 Y-20.497
G03X-9.52 Y-25.432 I9.288 J-9.223
G01 X-20.643 Y-25.432
G03X-22.132 Y-23.595 I-127.219 J-101.597
X-24.589 Y-21.31 I-15.336 J-14.027
X-25.432 Y-20.641 I-14.986 J-18.018
G01 X-25.432 Y-9.528
G03X-20.497 Y-6.441 I-4.287 J12.341
G01 X6.441 Y20.497
G03X9.528 Y25.431 I-9.259 J9.225
G01 X20.644 Y25.431
X22.784 Y29.369
G03X23.892 Y27.665 I8.709 J4.45
X25.144 Y26.144 I36.055 J28.403
X26.81 Y24.592 I9.123 J8.123
X28.548 Y23.255 I10.991 J12.49
X29.369 Y22.784 I6.204 J9.864
G01 X29.369 Y10.569
X29.369 Y6.314
G03X23.281 Y3.657 I0.347 J-9.098
G01 X-3.658 Y-23.281
G03X-6.305 Y-29.369 I6.487 J-6.44
G01 X-22.784 Y-29.369
G03X-24.446 Y-26.988 I-11.213 J-6.056
X-26.29 Y-25.019 I-9.338 J-6.897
X-27.812 Y-23.777 I-28.068 J-32.842
X-29.369 Y-22.784 I-6.442 J-8.384
G01 X-29.369 Y-6.315
G03X-23.281 Y-3.658 I-0.351 J9.109
G01 X3.658 Y23.281
G03X6.315 Y29.369 I-6.452 J6.439
G01 X22.784 Y29.369
X25.221 Y33.306
G03X25.538 Y32.568 I3.819 J1.203
G01 X26.377 Y31
G03X26.937 Y30.161 I4.507 J2.402
G01 X28.064 Y28.786
G03X28.786 Y28.064 I3.972 J3.25
G01 X30.161 Y26.937
G03X31 Y26.377 I3.241 J3.947
G01 X32.568 Y25.538
G03X33.306 Y25.221 I1.941 J3.502
G01 X33.306 Y0.944
G03X26.065 Y0.875 I-3.585 J-3.721
G01 X-0.875 Y-26.065
G03X-0.944 Y-33.306 I3.684 J-3.655
G01 X-25.221 Y-33.306
G03X-25.538 Y-32.568 I-3.819 J-1.203
G01 X-26.377 Y-31
G03X-27.484 Y-29.494 I-8.187 J-4.858
X-28.407 Y-28.407 I-11.491 J-8.822
G01 X-28.786 Y-28.064
X-30.161 Y-26.937
G03X-31 Y-26.377 I-3.241 J-3.947
G01 X-32.568 Y-25.538
G03X-33.306 Y-25.221 I-1.941 J-3.502
G01 X-33.306 Y-2.037
X-33.306 Y-0.944
G03X-26.065 Y-0.875 I3.585 J3.719
G01 X0.875 Y26.065
G03X0.944 Y33.306 I-3.65 J3.655
G01 X25.221 Y33.306
G00 Z2
X-11.011 Y33.306
Z-8.382
G01 Z-9.652
G03X-12.599 Y30.02 I3.517 J-3.726
X-15.781 Y28.534 I0.436 J-5.084
G01 X-20.703 Y23.613
G03X-22.21 Y19.88 I3.596 J-3.622
G01 X-28.861 Y13.229
G03X-32.592 Y11.723 I-0.104 J-5.116
G01 X-33.306 Y11.01
X-33.306 Y25.221
G03X-32.568 Y25.538 I-1.203 J3.819
G01 X-31 Y26.377
G03X-30.161 Y26.937 I-2.402 J4.507
G01 X-28.786 Y28.064
G03X-28.064 Y28.786 I-3.25 J3.972
G01 X-26.937 Y30.161
G03X-26.377 Y31 I-3.947 J3.241
G01 X-25.538 Y32.568
G03X-25.221 Y33.306 I-3.502 J1.941
G01 X-11.011 Y33.306
G00 Z2
X33.306 Y-11.01
Z-8.382
G01 Z-9.652
X33.306 Y-25.221
G03X32.568 Y-25.538 I1.203 J-3.819
G01 X31 Y-26.377
G03X30.161 Y-26.937 I2.402 J-4.507
G01 X28.786 Y-28.064
G03X28.064 Y-28.786 I3.25 J-3.972
G01 X26.937 Y-30.161
G03X26.377 Y-31 I3.947 J-3.241
G01 X25.538 Y-32.568
G03X25.221 Y-33.306 I3.502 J-1.941
G01 X11.011 Y-33.306
G03X12.599 Y-30.02 I-3.517 J3.726
X15.781 Y-28.534 I-0.436 J5.084
G01 X20.703 Y-23.613
G03X22.21 Y-19.88 I-3.596 J3.622
G01 X28.861 Y-13.229
G03X32.592 Y-11.723 I0.104 J5.116
G01 X33.306 Y-11.01
G00 Z2
Z2
X29.369 Y-18.288
Z-9.652
G01 Z-10.922
X29.369 Y-22.784
G03X27.663 Y-23.892 I4.505 J-8.804
X26.144 Y-25.144 I24.784 J-31.616
X25.019 Y-26.29 I6.122 J-7.135
X23.777 Y-27.812 I32.842 J-28.068
X22.784 Y-29.369 I8.384 J-6.442
G01 X20.514 Y-29.369
X23.486 Y-26.397
G03X25.985 Y-21.671 I-6.427 J6.422
G01 X29.369 Y-18.288
G00 Z2
X-22.784 Y29.369
Z-9.652
G01 Z-10.922
X-20.513 Y29.369
X-23.486 Y26.397
G03X-25.985 Y21.671 I6.427 J-6.422
G01 X-29.369 Y18.288
X-29.369 Y22.784
G03X-27.665 Y23.892 I-4.45 J8.709
X-26.144 Y25.144 I-28.403 J36.055
X-25.019 Y26.29 I-6.122 J7.135
X-23.777 Y27.812 I-32.842 J28.068
X-22.784 Y29.369 I-8.305 J6.392
G00 Z2
X17.019 Y17.555
Z-9.652
G01 Z-10.922
G03X17.558 Y17.006 I4.366 J3.747
G01 X17.558 Y14.226
G03X14.929 Y12.005 I11.897 J-16.749
G01 X-12.007 Y-14.929
G03X-14.223 Y-17.558 I14.673 J-14.616
G01 X-17.015 Y-17.558
G03X-17.558 Y-17.014 I-6.389 J-5.834
G01 X-17.558 Y-14.226
G03X-14.929 Y-12.006 I-12.096 J16.992
G01 X12.007 Y14.929
G03X14.225 Y17.555 I-14.545 J14.534
G01 X17.019 Y17.555
X18.772 Y21.493
G03X21.218 Y18.992 I15.415 J12.629
G01 X21.495 Y18.765
X21.495 Y12.059
G03X17.713 Y9.222 I8.084 J-14.716
G01 X-9.224 Y-17.713
G03X-12.052 Y-21.495 I11.879 J-11.831
G01 X-18.766 Y-21.495
G03X-21.495 Y-18.763 I-15.775 J-13.029
G01 X-21.495 Y-12.059
G03X-17.713 Y-9.224 I-8.134 J14.791
G01 X9.224 Y17.713
G03X12.057 Y21.493 I-11.83 J11.818
G01 X18.772 Y21.493
X20.644 Y25.431
G03X22.982 Y22.711 I23.604 J17.925
X23.72 Y22.033 I12.107 J12.438
G01 X25.154 Y20.853
G03X25.432 Y20.644 I3.05 J3.768
G01 X25.432 Y9.529
G03X20.497 Y6.44 I4.29 J-12.341
G01 X-6.441 Y-20.497
G03X-9.52 Y-25.432 I9.288 J-9.223
G01 X-20.643 Y-25.432
G03X-22.132 Y-23.595 I-127.219 J-101.597
X-24.589 Y-21.31 I-15.336 J-14.027
X-25.432 Y-20.641 I-14.986 J-18.018
G01 X-25.432 Y-9.528
G03X-20.497 Y-6.441 I-4.287 J12.341
G01 X6.441 Y20.497
G03X9.528 Y25.431 I-9.259 J9.225
G01 X20.644 Y25.431
X22.784 Y29.369
G03X23.892 Y27.665 I8.709 J4.45
X25.144 Y26.144 I36.055 J28.403
X26.81 Y24.592 I9.123 J8.123
X28.548 Y23.255 I10.991 J12.49
X29.369 Y22.784 I6.204 J9.864
G01 X29.369 Y10.569
X29.369 Y6.314
G03X23.281 Y3.657 I0.347 J-9.098
G01 X-3.658 Y-23.281
G03X-6.305 Y-29.369 I6.487 J-6.44
G01 X-22.784 Y-29.369
G03X-24.446 Y-26.988 I-11.213 J-6.056
X-26.29 Y-25.019 I-9.338 J-6.897
X-27.812 Y-23.777 I-28.068 J-32.842
X-29.369 Y-22.784 I-6.442 J-8.384
G01 X-29.369 Y-6.315
G03X-23.281 Y-3.658 I-0.351 J9.109
G01 X3.658 Y23.281
G03X6.315 Y29.369 I-6.452 J6.439
G01 X22.784 Y29.369
X25.221 Y33.306
G03X25.538 Y32.568 I3.819 J1.203
G01 X26.377 Y31
G03X26.937 Y30.161 I4.507 J2.402
G01 X28.064 Y28.786
G03X28.786 Y28.064 I3.972 J3.25
G01 X30.161 Y26.937
G03X31 Y26.377 I3.241 J3.947
G01 X32.568 Y25.538
G03X33.306 Y25.221 I1.941 J3.502
G01 X33.306 Y0.944
G03X26.065 Y0.875 I-3.585 J-3.721
G01 X-0.875 Y-26.065
G03X-0.944 Y-33.306 I3.684 J-3.655
G01 X-25.221 Y-33.306
G03X-25.538 Y-32.568 I-3.819 J-1.203
G01 X-26.377 Y-31
G03X-27.484 Y-29.494 I-8.187 J-4.858
X-28.407 Y-28.407 I-11.491 J-8.822
G01 X-28.786 Y-28.064
X-30.161 Y-26.937
G03X-31 Y-26.377 I-3.241 J-3.947
G01 X-32.568 Y-25.538
G03X-33.306 Y-25.221 I-1.941 J-3.502
G01 X-33.306 Y-2.037
X-33.306 Y-0.944
G03X-26.065 Y-0.875 I3.585 J3.719
G01 X0.875 Y26.065
G03X0.944 Y33.306 I-3.65 J3.655
G01 X25.221 Y33.306
G00 Z2
X-11.011 Y33.306
Z-9.652
G01 Z-10.922
G03X-12.599 Y30.02 I3.517 J-3.726
X-15.781 Y28.534 I0.436 J-5.084
G01 X-20.703 Y23.613
G03X-22.21 Y19.88 I3.596 J-3.622
G01 X-28.861 Y13.229
G03X-32.592 Y11.723 I-0.104 J-5.116
G01 X-33.306 Y11.01
X-33.306 Y25.221
G03X-32.568 Y25.538 I-1.203 J3.819
G01 X-31 Y26.377
G03X-30.161 Y26.937 I-2.402 J4.507
G01 X-28.786 Y28.064
G03X-28.064 Y28.786 I-3.25 J3.972
G01 X-26.937 Y30.161
G03X-26.377 Y31 I-3.947 J3.241
G01 X-25.538 Y32.568
G03X-25.221 Y33.306 I-3.502 J1.941
G01 X-11.011 Y33.306
G00 Z2
X33.306 Y-11.01
Z-9.652
G01 Z-10.922
X33.306 Y-25.221
G03X32.568 Y-25.538 I1.203 J-3.819
G01 X31 Y-26.377
G03X30.161 Y-26.937 I2.402 J-4.507
G01 X28.786 Y-28.064
G03X28.064 Y-28.786 I3.25 J-3.972
G01 X26.937 Y-30.161
G03X26.377 Y-31 I3.947 J-3.241
G01 X25.538 Y-32.568
G03X25.221 Y-33.306 I3.502 J-1.941
G01 X11.011 Y-33.306
G03X12.599 Y-30.02 I-3.517 J3.726
X15.781 Y-28.534 I-0.436 J5.084
G01 X20.703 Y-23.613
G03X22.21 Y-19.88 I-3.596 J3.622
G01 X28.861 Y-13.229
G03X32.592 Y-11.723 I0.104 J5.116
G01 X33.306 Y-11.01
G00 Z2
Z2

(Pocket: Layer 1)
Z2 S10000M03
X29.369 Y-18.288
Z-10.922
G01 Z-12.319
X29.369 Y-22.784
G03X27.663 Y-23.892 I4.505 J-8.804
X26.144 Y-25.144 I24.784 J-31.616
X25.019 Y-26.29 I6.122 J-7.135
X23.777 Y-27.812 I32.842 J-28.068
X22.784 Y-29.369 I8.384 J-6.442
G01 X20.514 Y-29.369
X23.486 Y-26.397
G03X25.985 Y-21.671 I-6.427 J6.422
G01 X29.369 Y-18.288
G00 Z2
X-25.432 Y-20.641
Z-10.922
G01 Z-12.319
X-25.432 Y-19.96
X-19.961 Y-25.431
X-20.644 Y-25.431
G03X-23.061 Y-22.626 I-24.16 J-18.374
X-25.432 Y-20.641 I-25.39 J-27.919
G01 X-29.369 Y-22.784
X-29.369 Y-10.455
X-10.457 Y-29.368
X-22.784 Y-29.368
G03X-23.892 Y-27.665 I-8.745 J-4.478
X-25.144 Y-26.144 I-36.055 J-28.403
X-26.29 Y-25.019 I-7.135 J-6.122
X-27.812 Y-23.777 I-28.068 J-32.842
X-29.369 Y-22.784 I-6.442 J-8.384
G00 Z2
X20.644 Y25.431
Z-10.922
G01 Z-12.319
G03X22.982 Y22.711 I23.604 J17.925
X23.72 Y22.033 I12.107 J12.438
G01 X25.154 Y20.853
G03X25.432 Y20.644 I3.05 J3.768
G01 X25.432 Y19.961
X19.962 Y25.431
X20.644 Y25.431
X22.784 Y29.368
G03X23.892 Y27.665 I8.745 J4.478
X25.144 Y26.144 I36.055 J28.403
X26.81 Y24.592 I9.123 J8.123
X28.548 Y23.255 I10.991 J12.49
X29.369 Y22.784 I6.204 J9.864
G01 X29.369 Y10.569
X29.369 Y10.457
X13.764 Y26.062
X13.561 Y26.265
G03X11.975 Y27.85 I-1424.915 J-1424.228
X10.457 Y29.368 I-416.439 J-414.921
G01 X15.662 Y29.368
X17.986 Y29.368
X18.701 Y29.368
X18.993 Y29.368
X22.784 Y29.368
G00 Z2
X-22.784 Y29.369
Z-10.922
G01 Z-12.319
X-20.513 Y29.369
X-23.486 Y26.397
G03X-25.985 Y21.671 I6.427 J-6.422
G01 X-29.369 Y18.288
X-29.369 Y22.784
G03X-27.665 Y23.892 I-4.45 J8.709
X-26.144 Y25.144 I-28.403 J36.055
X-25.019 Y26.29 I-6.122 J7.135
X-23.777 Y27.812 I-32.842 J28.068
X-22.784 Y29.369 I-8.305 J6.392
G00 Z2
X25.221 Y33.306
Z-10.922
G01 Z-12.319
G03X25.538 Y32.568 I3.819 J1.203
G01 X26.377 Y31
G03X26.937 Y30.161 I4.507 J2.402
G01 X28.064 Y28.786
G03X28.786 Y28.064 I3.972 J3.25
G01 X30.161 Y26.937
G03X31 Y26.377 I3.241 J3.947
G01 X32.568 Y25.538
G03X33.306 Y25.221 I1.941 J3.502
G01 X33.306 Y0.953
X0.953 Y33.306
X25.221 Y33.306
G00 Z2
X-11.011 Y33.306
Z-10.922
G01 Z-12.319
G03X-12.599 Y30.02 I3.517 J-3.726
X-15.781 Y28.534 I0.436 J-5.084
G01 X-20.703 Y23.613
G03X-22.21 Y19.88 I3.596 J-3.622
G01 X-28.861 Y13.229
G03X-32.592 Y11.723 I-0.104 J-5.116
G01 X-33.306 Y11.01
X-33.306 Y25.221
G03X-32.568 Y25.538 I-1.203 J3.819
G01 X-31 Y26.377
G03X-30.161 Y26.937 I-2.402 J4.507
G01 X-28.786 Y28.064
G03X-28.064 Y28.786 I-3.25 J3.972
G01 X-26.937 Y30.161
G03X-26.377 Y31 I-3.947 J3.241
G01 X-25.538 Y32.568
G03X-25.221 Y33.306 I-3.502 J1.941
G01 X-11.011 Y33.306
G00 Z2
X-3.861 Y21.328
Z-10.922
G01 Z-12.319
X21.328 Y-3.861
X21.283 Y-3.906
X-3.906 Y21.283
X-3.861 Y21.328
G00 Z2
X-12.302 Y12.887
Z-10.922
G01 Z-12.319
X12.887 Y-12.302
X12.841 Y-12.348
X-12.348 Y12.841
X-12.302 Y12.887
G00 Z2
X-21.283 Y3.906
Z-10.922
G01 Z-12.319
G02X3.906 Y-21.283 I-11496.194 J-11521.383
G01 X3.861 Y-21.328
G03X-20.849 Y3.382 I-25994.609 J-25969.899
G01 X-21.328 Y3.861
X-21.283 Y3.906
G00 Z2
X-33.306 Y-2.037
Z-10.922
G01 Z-12.319
X-33.306 Y-0.953
G03X-29.523 Y-4.735 I12386.05 J12385.542
X-0.953 Y-33.306 I48656.412 J48626.139
G01 X-25.221 Y-33.306
G03X-25.538 Y-32.568 I-3.819 J-1.203
G01 X-26.377 Y-31
G03X-26.937 Y-30.161 I-4.507 J-2.402
G01 X-28.064 Y-28.786
G03X-28.786 Y-28.064 I-3.972 J-3.25
G01 X-30.161 Y-26.937
G03X-31 Y-26.377 I-3.241 J-3.947
G01 X-32.568 Y-25.538
G03X-33.306 Y-25.221 I-1.941 J-3.502
G01 X-33.306 Y-19.785
X-33.306 Y-17.788
X-33.306 Y-11.901
X-33.306 Y-2.037
G00 Z2
X33.306 Y-11.01
Z-10.922
G01 Z-12.319
X33.306 Y-25.221
G03X32.568 Y-25.538 I1.203 J-3.819
G01 X31 Y-26.377
G03X30.161 Y-26.937 I2.402 J-4.507
G01 X28.786 Y-28.064
G03X28.064 Y-28.786 I3.25 J-3.972
G01 X26.937 Y-30.161
G03X26.377 Y-31 I3.947 J-3.241
G01 X25.538 Y-32.568
G03X25.221 Y-33.306 I3.502 J-1.941
G01 X11.011 Y-33.306
G03X12.599 Y-30.02 I-3.517 J3.726
X15.781 Y-28.534 I-0.436 J5.084
G01 X20.703 Y-23.613
G03X22.21 Y-19.88 I-3.596 J3.622
G01 X28.861 Y-13.229
G03X32.592 Y-11.723 I0.104 J5.116
G01 X33.306 Y-11.01
G00 Z2
Z2
X29.369 Y-18.288
Z-12.319
G01 Z-13.716
X29.369 Y-22.784
G03X27.663 Y-23.892 I4.505 J-8.804
X26.144 Y-25.144 I24.784 J-31.616
X25.019 Y-26.29 I6.122 J-7.135
X23.777 Y-27.812 I32.842 J-28.068
X22.784 Y-29.369 I8.384 J-6.442
G01 X20.514 Y-29.369
X23.486 Y-26.397
G03X25.985 Y-21.671 I-6.427 J6.422
G01 X29.369 Y-18.288
G00 Z2
X-25.432 Y-20.641
Z-12.319
G01 Z-13.716
X-25.432 Y-19.96
X-19.961 Y-25.431
X-20.644 Y-25.431
G03X-23.061 Y-22.626 I-24.16 J-18.374
X-25.432 Y-20.641 I-25.39 J-27.919
G01 X-29.369 Y-22.784
X-29.369 Y-10.455
X-10.457 Y-29.368
X-22.784 Y-29.368
G03X-23.892 Y-27.665 I-8.745 J-4.478
X-25.144 Y-26.144 I-36.055 J-28.403
X-26.29 Y-25.019 I-7.135 J-6.122
X-27.812 Y-23.777 I-28.068 J-32.842
X-29.369 Y-22.784 I-6.442 J-8.384
G00 Z2
X20.644 Y25.431
Z-12.319
G01 Z-13.716
G03X22.982 Y22.711 I23.604 J17.925
X23.72 Y22.033 I12.107 J12.438
G01 X25.154 Y20.853
G03X25.432 Y20.644 I3.05 J3.768
G01 X25.432 Y19.961
X19.962 Y25.431
X20.644 Y25.431
X22.784 Y29.368
G03X23.892 Y27.665 I8.745 J4.478
X25.144 Y26.144 I36.055 J28.403
X26.81 Y24.592 I9.123 J8.123
X28.548 Y23.255 I10.991 J12.49
X29.369 Y22.784 I6.204 J9.864
G01 X29.369 Y10.569
X29.369 Y10.457
X13.764 Y26.062
X13.561 Y26.265
G03X11.975 Y27.85 I-1424.915 J-1424.228
X10.457 Y29.368 I-416.439 J-414.921
G01 X15.662 Y29.368
X17.986 Y29.368
X18.701 Y29.368
X18.993 Y29.368
X22.784 Y29.368
G00 Z2
X-22.784 Y29.369
Z-12.319
G01 Z-13.716
X-20.513 Y29.369
X-23.486 Y26.397
G03X-25.985 Y21.671 I6.427 J-6.422
G01 X-29.369 Y18.288
X-29.369 Y22.784
G03X-27.665 Y23.892 I-4.45 J8.709
X-26.144 Y25.144 I-28.403 J36.055
X-25.019 Y26.29 I-6.122 J7.135
X-23.777 Y27.812 I-32.842 J28.068
X-22.784 Y29.369 I-8.305 J6.392
G00 Z2
X25.221 Y33.306
Z-12.319
G01 Z-13.716
G03X25.538 Y32.568 I3.819 J1.203
G01 X26.377 Y31
G03X26.937 Y30.161 I4.507 J2.402
G01 X28.064 Y28.786
G03X28.786 Y28.064 I3.972 J3.25
G01 X30.161 Y26.937
G03X31 Y26.377 I3.241 J3.947
G01 X32.568 Y25.538
G03X33.306 Y25.221 I1.941 J3.502
G01 X33.306 Y0.953
X0.953 Y33.306
X25.221 Y33.306
G00 Z2
X-11.011 Y33.306
Z-12.319
G01 Z-13.716
G03X-12.599 Y30.02 I3.517 J-3.726
X-15.781 Y28.534 I0.436 J-5.084
G01 X-20.703 Y23.613
G03X-22.21 Y19.88 I3.596 J-3.622
G01 X-28.861 Y13.229
G03X-32.592 Y11.723 I-0.104 J-5.116
G01 X-33.306 Y11.01
X-33.306 Y25.221
G03X-32.568 Y25.538 I-1.203 J3.819
G01 X-31 Y26.377
G03X-30.161 Y26.937 I-2.402 J4.507
G01 X-28.786 Y28.064
G03X-28.064 Y28.786 I-3.25 J3.972
G01 X-26.937 Y30.161
G03X-26.377 Y31 I-3.947 J3.241
G01 X-25.538 Y32.568
G03X-25.221 Y33.306 I-3.502 J1.941
G01 X-11.011 Y33.306
G00 Z2
X-3.861 Y21.328
Z-12.319
G01 Z-13.716
X21.328 Y-3.861
X21.283 Y-3.906
X-3.906 Y21.283
X-3.861 Y21.328
G00 Z2
X-12.302 Y12.887
Z-12.319
G01 Z-13.716
X12.887 Y-12.302
X12.841 Y-12.348
X-12.348 Y12.841
X-12.302 Y12.887
G00 Z2
X-21.283 Y3.906
Z-12.319
G01 Z-13.716
G02X3.906 Y-21.283 I-11496.194 J-11521.383
G01 X3.861 Y-21.328
G03X-20.849 Y3.382 I-25994.609 J-25969.899
G01 X-21.328 Y3.861
X-21.283 Y3.906
G00 Z2
X-33.306 Y-2.037
Z-12.319
G01 Z-13.716
X-33.306 Y-0.953
G03X-29.523 Y-4.735 I12386.05 J12385.542
X-0.953 Y-33.306 I48656.412 J48626.139
G01 X-25.221 Y-33.306
G03X-25.538 Y-32.568 I-3.819 J-1.203
G01 X-26.377 Y-31
G03X-26.937 Y-30.161 I-4.507 J-2.402
G01 X-28.064 Y-28.786
G03X-28.786 Y-28.064 I-3.972 J-3.25
G01 X-30.161 Y-26.937
G03X-31 Y-26.377 I-3.241 J-3.947
G01 X-32.568 Y-25.538
G03X-33.306 Y-25.221 I-1.941 J-3.502
G01 X-33.306 Y-19.785
X-33.306 Y-17.788
X-33.306 Y-11.901
X-33.306 Y-2.037
G00 Z2
X33.306 Y-11.01
Z-12.319
G01 Z-13.716
X33.306 Y-25.221
G03X32.568 Y-25.538 I1.203 J-3.819
G01 X31 Y-26.377
G03X30.161 Y-26.937 I2.402 J-4.507
G01 X28.786 Y-28.064
G03X28.064 Y-28.786 I3.25 J-3.972
G01 X26.937 Y-30.161
G03X26.377 Y-31 I3.947 J-3.241
G01 X25.538 Y-32.568
G03X25.221 Y-33.306 I3.502 J-1.941
G01 X11.011 Y-33.306
G03X12.599 Y-30.02 I-3.517 J3.726
X15.781 Y-28.534 I-0.436 J5.084
G01 X20.703 Y-23.613
G03X22.21 Y-19.88 I-3.596 J3.622
G01 X28.861 Y-13.229
G03X32.592 Y-11.723 I0.104 J5.116
G01 X33.306 Y-11.01
G00 Z2
Z2
X29.369 Y-18.288
Z-13.716
G01 Z-15.113
X29.369 Y-22.784
G03X27.663 Y-23.892 I4.505 J-8.804
X26.144 Y-25.144 I24.784 J-31.616
X25.019 Y-26.29 I6.122 J-7.135
X23.777 Y-27.812 I32.842 J-28.068
X22.784 Y-29.369 I8.384 J-6.442
G01 X20.514 Y-29.369
X23.486 Y-26.397
G03X25.985 Y-21.671 I-6.427 J6.422
G01 X29.369 Y-18.288
G00 Z2
X-25.432 Y-20.641
Z-13.716
G01 Z-15.113
X-25.432 Y-19.96
X-19.961 Y-25.431
X-20.644 Y-25.431
G03X-23.061 Y-22.626 I-24.16 J-18.374
X-25.432 Y-20.641 I-25.39 J-27.919
G01 X-29.369 Y-22.784
X-29.369 Y-10.455
X-10.457 Y-29.368
X-22.784 Y-29.368
G03X-23.892 Y-27.665 I-8.745 J-4.478
X-25.144 Y-26.144 I-36.055 J-28.403
X-26.29 Y-25.019 I-7.135 J-6.122
X-27.812 Y-23.777 I-28.068 J-32.842
X-29.369 Y-22.784 I-6.442 J-8.384
G00 Z2
X20.644 Y25.431
Z-13.716
G01 Z-15.113
G03X22.982 Y22.711 I23.604 J17.925
X23.72 Y22.033 I12.107 J12.438
G01 X25.154 Y20.853
G03X25.432 Y20.644 I3.05 J3.768
G01 X25.432 Y19.961
X19.962 Y25.431
X20.644 Y25.431
X22.784 Y29.368
G03X23.892 Y27.665 I8.745 J4.478
X25.144 Y26.144 I36.055 J28.403
X26.81 Y24.592 I9.123 J8.123
X28.548 Y23.255 I10.991 J12.49
X29.369 Y22.784 I6.204 J9.864
G01 X29.369 Y10.569
X29.369 Y10.457
X13.764 Y26.062
X13.561 Y26.265
G03X11.975 Y27.85 I-1424.915 J-1424.228
X10.457 Y29.368 I-416.439 J-414.921
G01 X15.662 Y29.368
X17.986 Y29.368
X18.701 Y29.368
X18.993 Y29.368
X22.784 Y29.368
G00 Z2
X-22.784 Y29.369
Z-13.716
G01 Z-15.113
X-20.513 Y29.369
X-23.486 Y26.397
G03X-25.985 Y21.671 I6.427 J-6.422
G01 X-29.369 Y18.288
X-29.369 Y22.784
G03X-27.665 Y23.892 I-4.45 J8.709
X-26.144 Y25.144 I-28.403 J36.055
X-25.019 Y26.29 I-6.122 J7.135
X-23.777 Y27.812 I-32.842 J28.068
X-22.784 Y29.369 I-8.305 J6.392
G00 Z2
X25.221 Y33.306
Z-13.716
G01 Z-15.113
G03X25.538 Y32.568 I3.819 J1.203
G01 X26.377 Y31
G03X26.937 Y30.161 I4.507 J2.402
G01 X28.064 Y28.786
G03X28.786 Y28.064 I3.972 J3.25
G01 X30.161 Y26.937
G03X31 Y26.377 I3.241 J3.947
G01 X32.568 Y25.538
G03X33.306 Y25.221 I1.941 J3.502
G01 X33.306 Y0.953
X0.953 Y33.306
X25.221 Y33.306
G00 Z2
X-11.011 Y33.306
Z-13.716
G01 Z-15.113
G03X-12.599 Y30.02 I3.517 J-3.726
X-15.781 Y28.534 I0.436 J-5.084
G01 X-20.703 Y23.613
G03X-22.21 Y19.88 I3.596 J-3.622
G01 X-28.861 Y13.229
G03X-32.592 Y11.723 I-0.104 J-5.116
G01 X-33.306 Y11.01
X-33.306 Y25.221
G03X-32.568 Y25.538 I-1.203 J3.819
G01 X-31 Y26.377
G03X-30.161 Y26.937 I-2.402 J4.507
G01 X-28.786 Y28.064
G03X-28.064 Y28.786 I-3.25 J3.972
G01 X-26.937 Y30.161
G03X-26.377 Y31 I-3.947 J3.241
G01 X-25.538 Y32.568
G03X-25.221 Y33.306 I-3.502 J1.941
G01 X-11.011 Y33.306
G00 Z2
X-3.861 Y21.328
Z-13.716
G01 Z-15.113
X21.328 Y-3.861
X21.283 Y-3.906
X-3.906 Y21.283
X-3.861 Y21.328
G00 Z2
X-12.302 Y12.887
Z-13.716
G01 Z-15.113
X12.887 Y-12.302
X12.841 Y-12.348
X-12.348 Y12.841
X-12.302 Y12.887
G00 Z2
X-21.283 Y3.906
Z-13.716
G01 Z-15.113
G02X3.906 Y-21.283 I-11496.194 J-11521.383
G01 X3.861 Y-21.328
G03X-20.849 Y3.382 I-25994.609 J-25969.899
G01 X-21.328 Y3.861
X-21.283 Y3.906
G00 Z2
X-33.306 Y-2.037
Z-13.716
G01 Z-15.113
X-33.306 Y-0.953
G03X-29.523 Y-4.735 I12386.05 J12385.542
X-0.953 Y-33.306 I48656.412 J48626.139
G01 X-25.221 Y-33.306
G03X-25.538 Y-32.568 I-3.819 J-1.203
G01 X-26.377 Y-31
G03X-26.937 Y-30.161 I-4.507 J-2.402
G01 X-28.064 Y-28.786
G03X-28.786 Y-28.064 I-3.972 J-3.25
G01 X-30.161 Y-26.937
G03X-31 Y-26.377 I-3.241 J-3.947
G01 X-32.568 Y-25.538
G03X-33.306 Y-25.221 I-1.941 J-3.502
G01 X-33.306 Y-19.785
X-33.306 Y-17.788
X-33.306 Y-11.901
X-33.306 Y-2.037
G00 Z2
X33.306 Y-11.01
Z-13.716
G01 Z-15.113
X33.306 Y-25.221
G03X32.568 Y-25.538 I1.203 J-3.819
G01 X31 Y-26.377
G03X30.161 Y-26.937 I2.402 J-4.507
G01 X28.786 Y-28.064
G03X28.064 Y-28.786 I3.25 J-3.972
G01 X26.937 Y-30.161
G03X26.377 Y-31 I3.947 J-3.241
G01 X25.538 Y-32.568
G03X25.221 Y-33.306 I3.502 J-1.941
G01 X11.011 Y-33.306
G03X12.599 Y-30.02 I-3.517 J3.726
X15.781 Y-28.534 I-0.436 J5.084
G01 X20.703 Y-23.613
G03X22.21 Y-19.88 I-3.596 J3.622
G01 X28.861 Y-13.229
G03X32.592 Y-11.723 I0.104 J5.116
G01 X33.306 Y-11.01
G00 Z2
Z2
X29.369 Y-18.288
Z-15.113
G01 Z-16.51
X29.369 Y-22.784
G03X27.663 Y-23.892 I4.505 J-8.804
X26.144 Y-25.144 I24.784 J-31.616
X25.019 Y-26.29 I6.122 J-7.135
X23.777 Y-27.812 I32.842 J-28.068
X22.784 Y-29.369 I8.384 J-6.442
G01 X20.514 Y-29.369
X23.486 Y-26.397
G03X25.985 Y-21.671 I-6.427 J6.422
G01 X29.369 Y-18.288
G00 Z2
X-25.432 Y-20.641
Z-15.113
G01 Z-16.51
X-25.432 Y-19.96
X-19.961 Y-25.431
X-20.644 Y-25.431
G03X-23.061 Y-22.626 I-24.16 J-18.374
X-25.432 Y-20.641 I-25.39 J-27.919
G01 X-29.369 Y-22.784
X-29.369 Y-10.455
X-10.457 Y-29.368
X-22.784 Y-29.368
G03X-23.892 Y-27.665 I-8.745 J-4.478
X-25.144 Y-26.144 I-36.055 J-28.403
X-26.29 Y-25.019 I-7.135 J-6.122
X-27.812 Y-23.777 I-28.068 J-32.842
X-29.369 Y-22.784 I-6.442 J-8.384
G00 Z2
X20.644 Y25.431
Z-15.113
G01 Z-16.51
G03X22.982 Y22.711 I23.604 J17.925
X23.72 Y22.033 I12.107 J12.438
G01 X25.154 Y20.853
G03X25.432 Y20.644 I3.05 J3.768
G01 X25.432 Y19.961
X19.962 Y25.431
X20.644 Y25.431
X22.784 Y29.368
G03X23.892 Y27.665 I8.745 J4.478
X25.144 Y26.144 I36.055 J28.403
X26.81 Y24.592 I9.123 J8.123
X28.548 Y23.255 I10.991 J12.49
X29.369 Y22.784 I6.204 J9.864
G01 X29.369 Y10.569
X29.369 Y10.457
X13.764 Y26.062
X13.561 Y26.265
G03X11.975 Y27.85 I-1424.915 J-1424.228
X10.457 Y29.368 I-416.439 J-414.921
G01 X15.662 Y29.368
X17.986 Y29.368
X18.701 Y29.368
X18.993 Y29.368
X22.784 Y29.368
G00 Z2
X-22.784 Y29.369
Z-15.113
G01 Z-16.51
X-20.513 Y29.369
X-23.486 Y26.397
G03X-25.985 Y21.671 I6.427 J-6.422
G01 X-29.369 Y18.288
X-29.369 Y22.784
G03X-27.665 Y23.892 I-4.45 J8.709
X-26.144 Y25.144 I-28.403 J36.055
X-25.019 Y26.29 I-6.122 J7.135
X-23.777 Y27.812 I-32.842 J28.068
X-22.784 Y29.369 I-8.305 J6.392
G00 Z2
X25.221 Y33.306
Z-15.113
G01 Z-16.51
G03X25.538 Y32.568 I3.819 J1.203
G01 X26.377 Y31
G03X26.937 Y30.161 I4.507 J2.402
G01 X28.064 Y28.786
G03X28.786 Y28.064 I3.972 J3.25
G01 X30.161 Y26.937
G03X31 Y26.377 I3.241 J3.947
G01 X32.568 Y25.538
G03X33.306 Y25.221 I1.941 J3.502
G01 X33.306 Y0.953
X0.953 Y33.306
X25.221 Y33.306
G00 Z2
X-11.011 Y33.306
Z-15.113
G01 Z-16.51
G03X-12.599 Y30.02 I3.517 J-3.726
X-15.781 Y28.534 I0.436 J-5.084
G01 X-20.703 Y23.613
G03X-22.21 Y19.88 I3.596 J-3.622
G01 X-28.861 Y13.229
G03X-32.592 Y11.723 I-0.104 J-5.116
G01 X-33.306 Y11.01
X-33.306 Y25.221
G03X-32.568 Y25.538 I-1.203 J3.819
G01 X-31 Y26.377
G03X-30.161 Y26.937 I-2.402 J4.507
G01 X-28.786 Y28.064
G03X-28.064 Y28.786 I-3.25 J3.972
G01 X-26.937 Y30.161
G03X-26.377 Y31 I-3.947 J3.241
G01 X-25.538 Y32.568
G03X-25.221 Y33.306 I-3.502 J1.941
G01 X-11.011 Y33.306
G00 Z2
X-3.861 Y21.328
Z-15.113
G01 Z-16.51
X21.328 Y-3.861
X21.283 Y-3.906
X-3.906 Y21.283
X-3.861 Y21.328
G00 Z2
X-12.302 Y12.887
Z-15.113
G01 Z-16.51
X12.887 Y-12.302
X12.841 Y-12.348
X-12.348 Y12.841
X-12.302 Y12.887
G00 Z2
X-21.283 Y3.906
Z-15.113
G01 Z-16.51
G02X3.906 Y-21.283 I-11496.194 J-11521.383
G01 X3.861 Y-21.328
G03X-20.849 Y3.382 I-25994.609 J-25969.899
G01 X-21.328 Y3.861
X-21.283 Y3.906
G00 Z2
X-33.306 Y-2.037
Z-15.113
G01 Z-16.51
X-33.306 Y-0.953
G03X-29.523 Y-4.735 I12386.05 J12385.542
X-0.953 Y-33.306 I48656.412 J48626.139
G01 X-25.221 Y-33.306
G03X-25.538 Y-32.568 I-3.819 J-1.203
G01 X-26.377 Y-31
G03X-26.937 Y-30.161 I-4.507 J-2.402
G01 X-28.064 Y-28.786
G03X-28.786 Y-28.064 I-3.972 J-3.25
G01 X-30.161 Y-26.937
G03X-31 Y-26.377 I-3.241 J-3.947
G01 X-32.568 Y-25.538
G03X-33.306 Y-25.221 I-1.941 J-3.502
G01 X-33.306 Y-19.785
X-33.306 Y-17.788
X-33.306 Y-11.901
X-33.306 Y-2.037
G00 Z2
X33.306 Y-11.01
Z-15.113
G01 Z-16.51
X33.306 Y-25.221
G03X32.568 Y-25.538 I1.203 J-3.819
G01 X31 Y-26.377
G03X30.161 Y-26.937 I2.402 J-4.507
G01 X28.786 Y-28.064
G03X28.064 Y-28.786 I3.25 J-3.972
G01 X26.937 Y-30.161
G03X26.377 Y-31 I3.947 J-3.241
G01 X25.538 Y-32.568
G03X25.221 Y-33.306 I3.502 J-1.941
G01 X11.011 Y-33.306
G03X12.599 Y-30.02 I-3.517 J3.726
X15.781 Y-28.534 I-0.436 J5.084
G01 X20.703 Y-23.613
G03X22.21 Y-19.88 I-3.596 J3.622
G01 X28.861 Y-13.229
G03X32.592 Y-11.723 I0.104 J5.116
G01 X33.306 Y-11.01
G00 Z2
Z2
G10 L2 P2 X0.0000 Y0.0000 Z0.0000
G55 (Select Coordinate System 2)

(Profiles)
(Tool: 1/8 in Carbide End Mill)
T2 M6

(Profile: Layer 6)
X-36.29 Y-15 S10000M03
Z0
G01 Z-1.27 F300
G03X-38.29 Y-17 I0 J-2
G01 X-38.29 Y-35.306
G02X-39.878 Y-36.893 I-1.587 J0
G01 X-41.338 Y-36.893
X-41.338 Y-41.338
X-36.893 Y-41.338
X-36.893 Y-39.878
G02X-35.306 Y-38.29 I1.587 J0
G01 X-9.042 Y-38.29
G02X-7.802 Y-40.869 I0 J-1.587
G01 X-10.412 Y-44.132
X7.872 Y-44.132
X5.262 Y-40.869
G02X6.502 Y-38.29 I1.239 J0.991
G01 X35.306 Y-38.29
G02X36.893 Y-39.878 I0 J-1.587
G01 X36.893 Y-41.338
X41.338 Y-41.338
X41.338 Y-36.893
X39.878 Y-36.893
G02X38.29 Y-35.306 I0 J1.587
G01 X38.29 Y-9.042
G02X40.869 Y-7.802 I1.587 J0
G01 X44.132 Y-10.412
X44.132 Y7.872
X40.869 Y5.262
G02X38.29 Y6.502 I-0.991 J1.239
G01 X38.29 Y35.306
G02X39.878 Y36.893 I1.587 J0
G01 X41.338 Y36.893
X41.338 Y41.338
X36.893 Y41.338
X36.893 Y39.624
G02X35.306 Y38.036 I-1.587 J0
G01 X8.839 Y38.036
G02X7.599 Y40.615 I0 J1.587
G01 X10.412 Y44.132
X-7.872 Y44.132
X-5.059 Y40.615
G02X-6.299 Y38.036 I-1.239 J-0.991
G01 X-35.306 Y38.036
G02X-36.893 Y39.624 I0 J1.587
G01 X-36.893 Y41.338
X-41.338 Y41.338
X-41.338 Y36.893
X-39.878 Y36.893
G02X-38.29 Y35.306 I0 J-1.587
G01 X-38.29 Y24.13
G02X-39.878 Y22.542 I-1.587 J0
G01 X-41.338 Y22.542
X-41.338 Y16.827
X-39.878 Y16.827
G02X-38.29 Y15.24 I0 J-1.587
G01 X-38.29 Y9.042
G02X-40.869 Y7.802 I-1.587 J0
G01 X-44.132 Y10.412
X-44.132 Y-7.872
X-40.869 Y-5.262
G02X-38.29 Y-6.502 I0.991 J-1.239
G01 X-38.29 Y-17
G03X-36.29 Y-19 I2 J0
G00 Z2

(Profile: Layer 5)
X-34.893 Y-15 S10000M03
Z-1.27
G01 Z-2.54
G03X-36.893 Y-17 I0 J-2
G01 X-36.893 Y-35.306
G02X-38.481 Y-36.893 I-1.587 J0
G01 X-41.338 Y-36.893
X-41.338 Y-41.338
X-36.893 Y-41.338
X-36.893 Y-38.481
G02X-35.306 Y-36.893 I1.587 J0
G01 X-7.925 Y-36.893
G02X-6.685 Y-39.472 I0 J-1.587
G01 X-10.413 Y-44.132
X7.873 Y-44.132
X4.145 Y-39.472
G02X5.385 Y-36.893 I1.239 J0.991
G01 X35.306 Y-36.893
G02X36.893 Y-38.481 I0 J-1.587
G01 X36.893 Y-41.338
X41.338 Y-41.338
X41.338 Y-36.893
X38.481 Y-36.893
G02X36.893 Y-35.306 I0 J1.587
G01 X36.893 Y-7.925
G02X39.472 Y-6.685 I1.587 J0
G01 X44.132 Y-10.413
X44.132 Y7.873
X39.472 Y4.145
G02X36.893 Y5.385 I-0.991 J1.239
G01 X36.893 Y35.306
G02X38.481 Y36.893 I1.587 J0
G01 X41.338 Y36.893
X41.338 Y41.338
X36.893 Y41.338
X36.893 Y38.481
G02X35.306 Y36.893 I-1.587 J0
G01 X7.925 Y36.893
G02X6.685 Y39.472 I0 J1.587
G01 X10.413 Y44.132
X-7.873 Y44.132
X-4.145 Y39.472
G02X-5.385 Y36.893 I-1.239 J-0.991
G01 X-35.306 Y36.893
G02X-36.893 Y38.481 I0 J1.587
G01 X-36.893 Y41.338
X-41.338 Y41.338
X-41.338 Y36.893
X-38.481 Y36.893
G02X-36.893 Y35.306 I0 J-1.587
G01 X-36.893 Y24.13
G02X-38.481 Y22.542 I-1.587 J0
G01 X-41.338 Y22.542
X-41.338 Y16.827
X-38.481 Y16.827
G02X-36.893 Y15.24 I0 J-1.587
G01 X-36.893 Y7.925
G02X-39.472 Y6.685 I-1.587 J0
G01 X-44.132 Y10.413
X-44.132 Y-7.873
X-39.472 Y-4.145
G02X-36.893 Y-5.385 I0.991 J-1.239
G01 X-36.893 Y-17
G03X-34.893 Y-19 I2 J0
G00 Z2

(Profile: Layer 4)
X-2 Y-34.893 S10000M03
Z-2.54
G01 Z-5.08
G03X0 Y-36.893 I2 J0
G01 X35.916 Y-36.893
G02X36.144 Y-36.909 I0 J-1.587
G01 X37.04 Y-37.04
X36.909 Y-36.144
G02X36.893 Y-35.916 I1.571 J0.228
G01 X36.893 Y35.916
G02X36.909 Y36.144 I1.587 J0
G01 X37.04 Y37.04
X36.144 Y36.909
G02X35.916 Y36.893 I-0.228 J1.571
G01 X-35.916 Y36.893
G02X-36.144 Y36.909 I0 J1.587
G01 X-37.04 Y37.04
X-36.909 Y36.144
G02X-36.893 Y35.916 I-1.571 J-0.228
G01 X-36.893 Y-35.916
G02X-36.909 Y-36.144 I-1.587 J0
G01 X-37.04 Y-37.04
X-36.144 Y-36.909
G02X-35.916 Y-36.893 I0.228 J-1.571
G01 X0 Y-36.893
G03X2 Y-34.893 I0 J2
G00 Z2

(Profile: Layer 3)
X-2 Y-34.893 S10000M03
Z-5.08
G01 Z-7.112
G03X0 Y-36.893 I2 J0
G01 X27.971 Y-36.893
X28.005 Y-36.556
G02X28.065 Y-36.251 I1.579 J-0.155
G01 X28.581 Y-34.549
G02X28.701 Y-34.261 I1.519 J-0.46
G01 X29.54 Y-32.693
G02X29.712 Y-32.435 I1.399 J-0.748
G01 X30.839 Y-31.06
G02X31.06 Y-30.839 I1.227 J-1.006
G01 X32.435 Y-29.712
G02X32.693 Y-29.54 I1.006 J-1.227
G01 X34.261 Y-28.701
G02X34.549 Y-28.581 I0.748 J-1.399
G01 X36.251 Y-28.065
G02X36.556 Y-28.005 I0.46 J-1.519
G01 X36.893 Y-27.971
X36.893 Y27.971
X36.556 Y28.005
G02X36.251 Y28.065 I0.155 J1.579
G01 X34.549 Y28.581
G02X34.261 Y28.701 I0.46 J1.519
G01 X32.693 Y29.54
G02X32.435 Y29.712 I0.748 J1.399
G01 X31.06 Y30.839
G02X30.839 Y31.06 I1.006 J1.227
G01 X29.712 Y32.435
G02X29.54 Y32.693 I1.227 J1.006
G01 X28.701 Y34.261
G02X28.581 Y34.549 I1.399 J0.748
G01 X28.065 Y36.251
G02X28.005 Y36.556 I1.519 J0.46
G01 X27.971 Y36.893
X-27.971 Y36.893
X-28.005 Y36.556
G02X-28.065 Y36.251 I-1.579 J0.155
G01 X-28.581 Y34.549
G02X-28.701 Y34.261 I-1.519 J0.46
G01 X-29.54 Y32.693
G02X-29.712 Y32.435 I-1.399 J0.748
G01 X-30.839 Y31.06
G02X-31.06 Y30.839 I-1.227 J1.006
G01 X-32.435 Y29.712
G02X-32.693 Y29.54 I-1.006 J1.227
G01 X-34.261 Y28.701
G02X-34.549 Y28.581 I-0.748 J1.399
G01 X-36.251 Y28.065
G02X-36.556 Y28.005 I-0.46 J1.519
G01 X-36.893 Y27.971
X-36.893 Y-27.971
X-36.556 Y-28.005
G02X-36.251 Y-28.065 I-0.155 J-1.579
G01 X-34.549 Y-28.581
G02X-34.261 Y-28.701 I-0.46 J-1.519
G01 X-32.693 Y-29.54
G02X-32.435 Y-29.712 I-0.748 J-1.399
G01 X-31.06 Y-30.839
G02X-30.839 Y-31.06 I-1.006 J-1.227
G01 X-29.712 Y-32.435
G02X-29.54 Y-32.693 I-1.227 J-1.006
G01 X-28.701 Y-34.261
G02X-28.581 Y-34.549 I-1.399 J-0.748
G01 X-28.065 Y-36.251
G02X-28.005 Y-36.556 I-1.519 J-0.46
G01 X-27.971 Y-36.893
X0 Y-36.893
G03X2 Y-34.893 I0 J2
G00 Z2

(Profile: Layer 2.1)
X-34.893 Y-13 S10000M03
Z-7.112
G01 Z-10.922
G03X-36.893 Y-15 I0 J-2
G01 X-36.893 Y-27.971
X-36.556 Y-28.005
G02X-36.251 Y-28.065 I-0.155 J-1.579
G01 X-34.549 Y-28.581
G02X-34.261 Y-28.701 I-0.46 J-1.519
G01 X-32.693 Y-29.54
G02X-32.435 Y-29.712 I-0.748 J-1.399
G01 X-31.06 Y-30.839
G02X-30.839 Y-31.06 I-1.006 J-1.227
G01 X-29.712 Y-32.435
G02X-29.54 Y-32.693 I-1.227 J-1.006
G01 X-28.701 Y-34.261
G02X-28.581 Y-34.549 I-1.399 J-0.748
G01 X-28.065 Y-36.251
G02X-28.005 Y-36.556 I-1.519 J-0.46
G01 X-27.971 Y-36.893
X27.971 Y-36.893
X28.005 Y-36.556
G02X28.065 Y-36.251 I1.579 J-0.155
G01 X28.581 Y-34.549
G02X28.701 Y-34.261 I1.519 J-0.46
G01 X29.54 Y-32.693
G02X29.712 Y-32.435 I1.399 J-0.748
G01 X30.839 Y-31.06
G02X31.06 Y-30.839 I1.227 J-1.006
G01 X32.435 Y-29.712
G02X32.693 Y-29.54 I1.006 J-1.227
G01 X34.261 Y-28.701
G02X34.549 Y-28.581 I0.748 J-1.399
G01 X36.251 Y-28.065
G02X36.556 Y-28.005 I0.46 J-1.519
G01 X36.893 Y-27.971
X36.893 Y27.971
X36.556 Y28.005
G02X36.251 Y28.065 I0.155 J1.579
G01 X34.549 Y28.581
G02X34.261 Y28.701 I0.46 J1.519
G01 X32.693 Y29.54
G02X32.435 Y29.712 I0.748 J1.399
G01 X31.06 Y30.839
G02X30.839 Y31.06 I1.006 J1.227
G01 X29.712 Y32.435
G02X29.54 Y32.693 I1.227 J1.006
G01 X28.701 Y34.261
G02X28.581 Y34.549 I1.399 J0.748
G01 X28.065 Y36.251
G02X28.005 Y36.556 I1.519 J0.46
G01 X27.971 Y36.893
X-27.971 Y36.893
X-28.005 Y36.556
G02X-28.065 Y36.251 I-1.579 J0.155
G01 X-28.581 Y34.549
G02X-28.701 Y34.261 I-1.519 J0.46
G01 X-29.54 Y32.693
G02X-29.712 Y32.435 I-1.399 J0.748
G01 X-30.839 Y31.06
G02X-31.06 Y30.839 I-1.227 J1.006
G01 X-32.435 Y29.712
G02X-32.693 Y29.54 I-1.006 J1.227
G01 X-34.261 Y28.701
G02X-34.549 Y28.581 I-0.748 J1.399
G01 X-36.251 Y28.065
G02X-36.556 Y28.005 I-0.46 J1.519
G01 X-36.893 Y27.971
X-36.893 Y-15
G03X-34.893 Y-17 I2 J0
G00 Z2

(Profile: Layer 2.3 battery clip)
X-35.92 Y6.152 S10000M03
Z-7.112
G01 Z-10.922
G03X-33.092 Y6.151 I1.414 J1.413
G01 X-30.056 Y9.186
G02X-27.821 Y9.196 I1.122 J-1.122
G01 X-18.176 Y18.84
G02X-18.167 Y21.076 I1.131 J1.113
G01 X-13.245 Y25.997
G02X-11.009 Y26.006 I1.122 J-1.122
G01 X-8.585 Y28.431
G02X-8.576 Y30.667 I1.131 J1.113
G01 X-6.151 Y33.092
G02X-3.906 Y33.092 I1.122 J-1.122
G01 X-1.661 Y30.847
G02X-1.661 Y28.602 I-1.122 J-1.122
G01 X-28.602 Y1.661
G02X-30.847 Y1.661 I-1.122 J1.122
G01 X-33.092 Y3.906
G02X-33.092 Y6.151 I1.122 J1.122
G03X-33.091 Y8.98 I-1.413 J1.414
G00 Z2

(Profile: Layer 2.2 battery clip)
X-1.166 Y-28.602 S10000M03
Z-7.112
G01 Z-10.922
G03X1.661 Y-28.602 I1.414 J1.414
G01 X28.602 Y-1.661
G02X30.847 Y-1.661 I1.122 J-1.122
G01 X33.092 Y-3.906
G02X33.092 Y-6.151 I-1.122 J-1.122
G01 X30.056 Y-9.186
G02X27.821 Y-9.196 I-1.122 J1.122
G01 X18.176 Y-18.84
G02X18.167 Y-21.076 I-1.131 J-1.113
G01 X13.245 Y-25.997
G02X11.009 Y-26.006 I-1.122 J1.122
G01 X8.585 Y-28.431
G02X8.576 Y-30.667 I-1.131 J-1.113
G01 X6.151 Y-33.092
G02X3.906 Y-33.092 I-1.122 J1.122
G01 X1.661 Y-30.847
G02X1.661 Y-28.602 I1.122 J1.122
G03X1.661 Y-25.774 I-1.414 J1.414
G00 Z2

(Profile: Layer 1.1)
X-34.893 Y-6 S10000M03
Z-10.922
G01 Z-13.716
G03X-36.893 Y-8 I0 J-2
G01 X-36.893 Y-27.971
X-36.556 Y-28.005
G02X-36.251 Y-28.065 I-0.155 J-1.579
G01 X-34.549 Y-28.581
G02X-34.261 Y-28.701 I-0.46 J-1.519
G01 X-32.693 Y-29.54
G02X-32.435 Y-29.712 I-0.748 J-1.399
G01 X-31.06 Y-30.839
G02X-30.839 Y-31.06 I-1.006 J-1.227
G01 X-29.712 Y-32.435
G02X-29.54 Y-32.693 I-1.227 J-1.006
G01 X-28.701 Y-34.261
G02X-28.581 Y-34.549 I-1.399 J-0.748
G01 X-28.065 Y-36.251
G02X-28.005 Y-36.556 I-1.519 J-0.46
G01 X-27.971 Y-36.893
X27.971 Y-36.893
X28.005 Y-36.556
G02X28.065 Y-36.251 I1.579 J-0.155
G01 X28.581 Y-34.549
G02X28.701 Y-34.261 I1.519 J-0.46
G01 X29.54 Y-32.693
G02X29.712 Y-32.435 I1.399 J-0.748
G01 X30.839 Y-31.06
G02X31.06 Y-30.839 I1.227 J-1.006
G01 X32.435 Y-29.712
G02X32.693 Y-29.54 I1.006 J-1.227
G01 X34.261 Y-28.701
G02X34.549 Y-28.581 I0.748 J-1.399
G01 X36.251 Y-28.065
G02X36.556 Y-28.005 I0.46 J-1.519
G01 X36.893 Y-27.971
X36.893 Y27.971
X36.556 Y28.005
G02X36.251 Y28.065 I0.155 J1.579
G01 X34.549 Y28.581
G02X34.261 Y28.701 I0.46 J1.519
G01 X32.693 Y29.54
G02X32.435 Y29.712 I0.748 J1.399
G01 X31.06 Y30.839
G02X30.839 Y31.06 I1.006 J1.227
G01 X29.712 Y32.435
G02X29.54 Y32.693 I1.227 J1.006
